; LFAM Optimizer - Optimized G-code
; Total Modifications: 55190

; generated by PrusaSlicer 2.9.3 on 2026-06-27 at 08:25:59 UTC
; 
; external perimeters extrusion width = 4.50mm
; perimeters extrusion width = 4.50mm
; infill extrusion width = 4.50mm
; solid infill extrusion width = 4.50mm
; top infill extrusion width = 4.50mm
; first layer extrusion width = 4.50mm
M190 S110 ; set bed temperature and wait for it to be reached
G10 S235 P0 ; set temperature
;TYPE:Custom
G28 ; home all axes
G0 Z5.0000 F5000 ; lift nozzle
T0
G1 E20.0000 F60
G10 S235 P0 ; set temperature
M116 ; wait for temperature to be reached
G21 ; set units to millimeters
G90 ; use absolute coordinates
M83 ; use relative distances for extrusion
; Filament gcode
M107
;LAYER_CHANGE
;Z:2
;HEIGHT:2
G0 X277.2680 Y297.0980 F7200
G0 Z2.0000
M204 P1
;TYPE:Skirt/Brim
;WIDTH:4.5
G0 F900
G1 X285.2220 Y289.9160 E0.2823 ; LFAM-OPT: [start_ramp] - Start path ramp, [flow_smoothing] - Flow smoothing, [speed_smoothing] - Speed smoothing
G1 X292.8890 Y283.7740 E0.2879 ; LFAM-OPT: [start_ramp] - Start path ramp, [flow_smoothing] - Flow smoothing, [speed_smoothing] - Speed smoothing
G1 X294.3780 Y282.6550 E0.1578 ; LFAM-OPT: [start_ramp] - Start path ramp, [flow_smoothing] - Flow smoothing, [speed_smoothing] - Speed smoothing
G1 X303.0940 Y276.5860 E0.3764 ; LFAM-OPT: [start_ramp] - Start path ramp, [flow_smoothing] - Flow smoothing, [speed_smoothing] - Speed smoothing
G1 X311.4760 Y271.4310 E0.3709 ; LFAM-OPT: [start_ramp] - Start path ramp, [flow_smoothing] - Flow smoothing, [speed_smoothing] - Speed smoothing
G1 X320.6500 Y266.4980 E0.4103 ; LFAM-OPT: [flow_smoothing] - Flow smoothing, [speed_smoothing] - Speed smoothing
G1 X330.3740 Y261.9940 E0.4178 ; LFAM-OPT: [flow_smoothing] - Flow smoothing, [speed_smoothing] - Speed smoothing
G1 X339.3530 Y258.4550 E0.3671 ; LFAM-OPT: [flow_smoothing] - Flow smoothing, [speed_smoothing] - Speed smoothing
G1 X349.4380 Y255.1230 E0.3890 ; LFAM-OPT: [flow_smoothing] - Flow smoothing, [speed_smoothing] - Speed smoothing
G1 X351.2260 Y254.6050 E0.1804 ; LFAM-OPT: [flow_smoothing] - Flow smoothing, [speed_smoothing] - Speed smoothing
G1 X360.9260 Y252.1150 E0.3779 ; LFAM-OPT: [flow_smoothing] - Flow smoothing, [speed_smoothing] - Speed smoothing
G1 X371.4450 Y250.0730 E0.3900 ; LFAM-OPT: [flow_smoothing] - Flow smoothing, [speed_smoothing] - Speed smoothing
G1 X382.0690 Y248.6710 E0.4228 ; LFAM-OPT: [flow_smoothing] - Flow smoothing, [speed_smoothing] - Speed smoothing
G1 X391.2220 Y247.9840 E0.3834 ; LFAM-OPT: [flow_smoothing] - Flow smoothing, [speed_smoothing] - Speed smoothing
G1 X403.4030 Y247.8010 E0.4593 ; LFAM-OPT: [flow_smoothing] - Flow smoothing, [speed_smoothing] - Speed smoothing
G1 X412.5240 Y248.2120 E0.3864 ; LFAM-OPT: [flow_smoothing] - Flow smoothing, [speed_smoothing] - Speed smoothing
G1 X424.5680 Y249.4840 E0.4581 ; LFAM-OPT: [flow_smoothing] - Flow smoothing, [speed_smoothing] - Speed smoothing
G1 X435.0380 Y251.2730 E0.4180 ; LFAM-OPT: [flow_smoothing] - Flow smoothing, [speed_smoothing] - Speed smoothing
G1 X444.2150 Y253.3740 E0.3942 ; LFAM-OPT: [flow_smoothing] - Flow smoothing, [speed_smoothing] - Speed smoothing
G1 X454.5060 Y256.3610 E0.4237 ; LFAM-OPT: [flow_smoothing] - Flow smoothing, [speed_smoothing] - Speed smoothing
G1 X464.5980 Y259.9650 E0.4237 ; LFAM-OPT: [flow_smoothing] - Flow smoothing, [speed_smoothing] - Speed smoothing
G1 X475.2870 Y264.5700 E0.4472 ; LFAM-OPT: [flow_smoothing] - Flow smoothing, [speed_smoothing] - Speed smoothing
G1 X484.7610 Y269.3710 E0.4220 ; LFAM-OPT: [flow_smoothing] - Flow smoothing, [speed_smoothing] - Speed smoothing
G1 X493.3130 Y274.3340 E0.4046 ; LFAM-OPT: [flow_smoothing] - Flow smoothing, [speed_smoothing] - Speed smoothing
G1 X502.0030 Y280.0780 E0.4107 ; LFAM-OPT: [flow_smoothing] - Flow smoothing, [speed_smoothing] - Speed smoothing
G1 X510.5750 Y286.5090 E0.4178 ; LFAM-OPT: [flow_smoothing] - Flow smoothing, [speed_smoothing] - Speed smoothing
G1 X517.9090 Y292.7100 E0.3978 ; LFAM-OPT: [flow_smoothing] - Flow smoothing, [speed_smoothing] - Speed smoothing
G1 X525.6210 Y300.0120 E0.4230 ; LFAM-OPT: [flow_smoothing] - Flow smoothing, [speed_smoothing] - Speed smoothing
G1 X533.7440 Y308.7390 E0.4540 ; LFAM-OPT: [flow_smoothing] - Flow smoothing, [speed_smoothing] - Speed smoothing
G1 X540.5240 Y317.0370 E0.4237 ; LFAM-OPT: [flow_smoothing] - Flow smoothing, [speed_smoothing] - Speed smoothing
G1 X546.7900 Y325.7300 E0.4287 ; LFAM-OPT: [flow_smoothing] - Flow smoothing, [speed_smoothing] - Speed smoothing
G1 X551.7070 Y333.4240 E0.3822 ; LFAM-OPT: [flow_smoothing] - Flow smoothing, [speed_smoothing] - Speed smoothing
G1 X557.6390 Y344.0650 E0.4549 ; LFAM-OPT: [flow_smoothing] - Flow smoothing, [speed_smoothing] - Speed smoothing
G1 X561.6200 Y352.3350 E0.3834 ; LFAM-OPT: [flow_smoothing] - Flow smoothing, [speed_smoothing] - Speed smoothing
G1 X565.7170 Y362.2360 E0.4287 ; LFAM-OPT: [flow_smoothing] - Flow smoothing, [speed_smoothing] - Speed smoothing
G1 X569.2090 Y372.3670 E0.4237 ; LFAM-OPT: [flow_smoothing] - Flow smoothing, [speed_smoothing] - Speed smoothing
G1 X572.3470 Y383.8200 E0.4528 ; LFAM-OPT: [flow_smoothing] - Flow smoothing, [speed_smoothing] - Speed smoothing
G1 X574.5040 Y394.2200 E0.4230 ; LFAM-OPT: [flow_smoothing] - Flow smoothing, [speed_smoothing] - Speed smoothing
G1 X575.9290 Y403.7650 E0.3989 ; LFAM-OPT: [flow_smoothing] - Flow smoothing, [speed_smoothing] - Speed smoothing
G1 X576.8910 Y414.4380 E0.4178 ; LFAM-OPT: [flow_smoothing] - Flow smoothing, [speed_smoothing] - Speed smoothing
G1 X577.2060 Y424.8500 E0.4107 ; LFAM-OPT: [flow_smoothing] - Flow smoothing, [speed_smoothing] - Speed smoothing
G1 X576.9320 Y434.6870 E0.3723 ; LFAM-OPT: [flow_smoothing] - Flow smoothing, [speed_smoothing] - Speed smoothing
G1 X576.0340 Y445.2700 E0.3880 ; LFAM-OPT: [flow_smoothing] - Flow smoothing, [speed_smoothing] - Speed smoothing
G1 X575.8100 Y447.1180 E0.1804 ; LFAM-OPT: [flow_smoothing] - Flow smoothing, [speed_smoothing] - Speed smoothing
G1 X574.3240 Y456.8300 E0.3728 ; LFAM-OPT: [flow_smoothing] - Flow smoothing, [speed_smoothing] - Speed smoothing
G1 X572.0810 Y467.3090 E0.3900 ; LFAM-OPT: [flow_smoothing] - Flow smoothing, [speed_smoothing] - Speed smoothing
G1 X569.2090 Y477.6330 E0.4178 ; LFAM-OPT: [flow_smoothing] - Flow smoothing, [speed_smoothing] - Speed smoothing
G1 X566.1860 Y486.4990 E0.3601 ; LFAM-OPT: [flow_smoothing] - Flow smoothing, [speed_smoothing] - Speed smoothing
G1 X562.2040 Y496.3450 E0.3890 ; LFAM-OPT: [flow_smoothing] - Flow smoothing, [speed_smoothing] - Speed smoothing
G1 X561.4910 Y497.9360 E0.1724 ; LFAM-OPT: [flow_smoothing] - Flow smoothing, [speed_smoothing] - Speed smoothing
G1 X556.9310 Y507.3010 E0.3831 ; LFAM-OPT: [flow_smoothing] - Flow smoothing, [speed_smoothing] - Speed smoothing
G1 X552.5080 Y515.2350 E0.3502 ; LFAM-OPT: [flow_smoothing] - Flow smoothing, [speed_smoothing] - Speed smoothing
G1 X546.7900 Y524.2700 E0.3889 ; LFAM-OPT: [flow_smoothing] - Flow smoothing, [speed_smoothing] - Speed smoothing
G1 X540.8000 Y532.5870 E0.3790 ; LFAM-OPT: [flow_smoothing] - Flow smoothing, [speed_smoothing] - Speed smoothing
G1 X539.6660 Y534.0640 E0.1803 ; LFAM-OPT: [flow_smoothing] - Flow smoothing, [speed_smoothing] - Speed smoothing
G1 X532.8830 Y542.2370 E0.3890 ; LFAM-OPT: [flow_smoothing] - Flow smoothing, [speed_smoothing] - Speed smoothing
G1 X526.4740 Y549.1340 E0.3650 ; LFAM-OPT: [flow_smoothing] - Flow smoothing, [speed_smoothing] - Speed smoothing
G1 X518.7420 Y556.5530 E0.4208 ; LFAM-OPT: [flow_smoothing] - Flow smoothing, [speed_smoothing] - Speed smoothing
G1 X509.7720 Y564.1170 E0.4453 ; LFAM-OPT: [flow_smoothing] - Flow smoothing, [speed_smoothing] - Speed smoothing
G1 X502.0030 Y569.9220 E0.4001 ; LFAM-OPT: [flow_smoothing] - Flow smoothing, [speed_smoothing] - Speed smoothing
G1 X493.0580 Y575.8240 E0.4214 ; LFAM-OPT: [flow_smoothing] - Flow smoothing, [speed_smoothing] - Speed smoothing
G1 X484.0370 Y581.0320 E0.4107 ; LFAM-OPT: [flow_smoothing] - Flow smoothing, [speed_smoothing] - Speed smoothing
G1 X475.2870 Y585.4300 E0.3710 ; LFAM-OPT: [flow_smoothing] - Flow smoothing, [speed_smoothing] - Speed smoothing
G1 X465.5420 Y589.6540 E0.3880 ; LFAM-OPT: [flow_smoothing] - Flow smoothing, [speed_smoothing] - Speed smoothing
G1 X463.8080 Y590.3310 E0.1804 ; LFAM-OPT: [flow_smoothing] - Flow smoothing, [speed_smoothing] - Speed smoothing
G1 X454.5060 Y593.6390 E0.3741 ; LFAM-OPT: [flow_smoothing] - Flow smoothing, [speed_smoothing] - Speed smoothing
G1 X444.2150 Y596.6260 E0.3900 ; LFAM-OPT: [flow_smoothing] - Flow smoothing, [speed_smoothing] - Speed smoothing
G1 X433.7620 Y598.9850 E0.4226 ; LFAM-OPT: [flow_smoothing] - Flow smoothing, [speed_smoothing] - Speed smoothing
G1 X424.5680 Y600.5160 E0.3870 ; LFAM-OPT: [flow_smoothing] - Flow smoothing, [speed_smoothing] - Speed smoothing
G1 X412.5240 Y601.7880 E0.4532 ; LFAM-OPT: [flow_smoothing] - Flow smoothing, [speed_smoothing] - Speed smoothing
G1 X403.4030 Y602.1990 E0.3868 ; LFAM-OPT: [flow_smoothing] - Flow smoothing, [speed_smoothing] - Speed smoothing
G1 X392.7580 Y602.0860 E0.4227 ; LFAM-OPT: [flow_smoothing] - Flow smoothing, [speed_smoothing] - Speed smoothing
G1 X380.6340 Y601.1750 E0.4543 ; LFAM-OPT: [flow_smoothing] - Flow smoothing, [speed_smoothing] - Speed smoothing
G1 X371.4450 Y599.9270 E0.3907 ; LFAM-OPT: [flow_smoothing] - Flow smoothing, [speed_smoothing] - Speed smoothing
G1 X360.9260 Y597.8850 E0.4227 ; LFAM-OPT: [flow_smoothing] - Flow smoothing, [speed_smoothing] - Speed smoothing
G1 X350.5490 Y595.2100 E0.3900 ; LFAM-OPT: [flow_smoothing] - Flow smoothing, [speed_smoothing] - Speed smoothing
G1 X341.1070 Y592.1700 E0.3753 ; LFAM-OPT: [flow_smoothing] - Flow smoothing, [speed_smoothing] - Speed smoothing
G1 X339.3530 Y591.5450 E0.1804 ; LFAM-OPT: [flow_smoothing] - Flow smoothing, [speed_smoothing] - Speed smoothing
G1 X329.4860 Y587.6150 E0.3890 ; LFAM-OPT: [flow_smoothing] - Flow smoothing, [speed_smoothing] - Speed smoothing
G1 X320.6500 Y583.5020 E0.3697 ; LFAM-OPT: [flow_smoothing] - Flow smoothing, [speed_smoothing] - Speed smoothing
G1 X311.2160 Y578.4190 E0.4178 ; LFAM-OPT: [flow_smoothing] - Flow smoothing, [speed_smoothing] - Speed smoothing
G1 X302.3570 Y572.9410 E0.4107 ; LFAM-OPT: [flow_smoothing] - Flow smoothing, [speed_smoothing] - Speed smoothing
G1 X294.3780 Y567.3450 E0.3697 ; LFAM-OPT: [flow_smoothing] - Flow smoothing, [speed_smoothing] - Speed smoothing
G1 X286.0410 Y560.7650 E0.3880 ; LFAM-OPT: [flow_smoothing] - Flow smoothing, [speed_smoothing] - Speed smoothing
G1 X284.6220 Y559.5580 E0.1804 ; LFAM-OPT: [flow_smoothing] - Flow smoothing, [speed_smoothing] - Speed smoothing
G1 X277.2680 Y552.9020 E0.3753 ; LFAM-OPT: [flow_smoothing] - Flow smoothing, [speed_smoothing] - Speed smoothing
G1 X269.7640 Y545.2520 E0.3900 ; LFAM-OPT: [flow_smoothing] - Flow smoothing, [speed_smoothing] - Speed smoothing
G1 X262.7350 Y537.1630 E0.4227 ; LFAM-OPT: [flow_smoothing] - Flow smoothing, [speed_smoothing] - Speed smoothing
G1 X257.0600 Y529.8290 E0.3907 ; LFAM-OPT: [flow_smoothing] - Flow smoothing, [speed_smoothing] - Speed smoothing
G1 X250.2090 Y519.7850 E0.4543 ; LFAM-OPT: [flow_smoothing] - Flow smoothing, [speed_smoothing] - Speed smoothing
G1 X244.7890 Y510.6230 E0.4183 ; LFAM-OPT: [flow_smoothing] - Flow smoothing, [speed_smoothing] - Speed smoothing
G1 X240.5840 Y502.5190 E0.3850 ; LFAM-OPT: [flow_smoothing] - Flow smoothing, [speed_smoothing] - Speed smoothing
G1 X236.1890 Y492.7460 E0.3901 ; LFAM-OPT: [flow_smoothing] - Flow smoothing, [speed_smoothing] - Speed smoothing
G1 X232.5850 Y483.2500 E0.3767 ; LFAM-OPT: [flow_smoothing] - Flow smoothing, [speed_smoothing] - Speed smoothing
G1 X231.9780 Y481.4910 E0.1804 ; LFAM-OPT: [flow_smoothing] - Flow smoothing, [speed_smoothing] - Speed smoothing
G1 X228.8960 Y471.3270 E0.3890 ; LFAM-OPT: [flow_smoothing] - Flow smoothing, [speed_smoothing] - Speed smoothing
G1 X226.6500 Y462.0860 E0.3672 ; LFAM-OPT: [flow_smoothing] - Flow smoothing, [speed_smoothing] - Speed smoothing
G1 X224.7250 Y451.5440 E0.4211 ; LFAM-OPT: [flow_smoothing] - Flow smoothing, [speed_smoothing] - Speed smoothing
G1 X223.3700 Y439.9850 E0.4424 ; LFAM-OPT: [flow_smoothing] - Flow smoothing, [speed_smoothing] - Speed smoothing
G1 X222.8030 Y430.2080 E0.4023 ; LFAM-OPT: [flow_smoothing] - Flow smoothing, [speed_smoothing] - Speed smoothing
G1 Y419.7920 E0.4139 ; LFAM-OPT: [flow_smoothing] - Flow smoothing, [speed_smoothing] - Speed smoothing
G1 X223.4410 Y409.0950 E0.4214 ; LFAM-OPT: [flow_smoothing] - Flow smoothing, [speed_smoothing] - Speed smoothing
G1 X224.5840 Y399.4640 E0.4001 ; LFAM-OPT: [flow_smoothing] - Flow smoothing, [speed_smoothing] - Speed smoothing
G1 X226.6500 Y387.9140 E0.4453 ; LFAM-OPT: [flow_smoothing] - Flow smoothing, [speed_smoothing] - Speed smoothing
G1 X229.2090 Y377.5080 E0.4208 ; LFAM-OPT: [flow_smoothing] - Flow smoothing, [speed_smoothing] - Speed smoothing
G1 X231.9780 Y368.5090 E0.3650 ; LFAM-OPT: [flow_smoothing] - Flow smoothing, [speed_smoothing] - Speed smoothing
G1 X235.6630 Y358.5480 E0.3890 ; LFAM-OPT: [flow_smoothing] - Flow smoothing, [speed_smoothing] - Speed smoothing
G1 X236.3760 Y356.8280 E0.1754 ; LFAM-OPT: [flow_smoothing] - Flow smoothing, [speed_smoothing] - Speed smoothing
G1 X240.5840 Y347.4810 E0.3790 ; LFAM-OPT: [flow_smoothing] - Flow smoothing, [speed_smoothing] - Speed smoothing
G1 X244.7890 Y339.3770 E0.3513 ; LFAM-OPT: [flow_smoothing] - Flow smoothing, [speed_smoothing] - Speed smoothing
G1 X250.2090 Y330.2150 E0.3872 ; LFAM-OPT: [flow_smoothing] - Flow smoothing, [speed_smoothing] - Speed smoothing
G1 X255.9720 Y321.6810 E0.3732 ; LFAM-OPT: [end_taper] - End path taper, [flow_smoothing] - Flow smoothing, [speed_smoothing] - Speed smoothing
G1 X257.0600 Y320.1710 E0.1611 ; LFAM-OPT: [end_taper] - End path taper, [flow_smoothing] - Flow smoothing, [speed_smoothing] - Speed smoothing
G1 X263.5960 Y311.7990 E0.3054 ; LFAM-OPT: [end_taper] - End path taper, [flow_smoothing] - Flow smoothing, [speed_smoothing] - Speed smoothing
G1 X269.7640 Y304.7480 E0.2262 ; LFAM-OPT: [end_taper] - End path taper, [flow_smoothing] - Flow smoothing, [speed_smoothing] - Speed smoothing
G1 X276.8480 Y297.5270 E0.2526 ; LFAM-OPT: [end_taper] - End path taper, [flow_smoothing] - Flow smoothing, [speed_smoothing] - Speed smoothing
G0 X279.7520 Y300.3780 F7200
G0 F900
G1 X280.1240 Y299.9990 E0.0985 ; LFAM-OPT: [start_ramp] - Start path ramp, [flow_smoothing] - Flow smoothing, [speed_smoothing] - Speed smoothing
G1 X287.8870 Y292.9930 E0.2628 ; LFAM-OPT: [start_ramp] - Start path ramp, [flow_smoothing] - Flow smoothing, [speed_smoothing] - Speed smoothing
G1 X295.4270 Y286.9560 E0.2926 ; LFAM-OPT: [start_ramp] - Start path ramp, [flow_smoothing] - Flow smoothing, [speed_smoothing] - Speed smoothing
G1 X296.7210 Y285.9840 E0.1591 ; LFAM-OPT: [start_ramp] - Start path ramp, [flow_smoothing] - Flow smoothing, [speed_smoothing] - Speed smoothing
G1 X305.2340 Y280.0490 E0.3749 ; LFAM-OPT: [start_ramp] - Start path ramp, [flow_smoothing] - Flow smoothing, [speed_smoothing] - Speed smoothing
G1 X313.5120 Y274.9560 E0.3657 ; LFAM-OPT: [flow_smoothing] - Flow smoothing, [speed_smoothing] - Speed smoothing
G1 X322.4580 Y270.1450 E0.4014 ; LFAM-OPT: [flow_smoothing] - Flow smoothing, [speed_smoothing] - Speed smoothing
G1 X331.9470 Y265.7490 E0.4086 ; LFAM-OPT: [flow_smoothing] - Flow smoothing, [speed_smoothing] - Speed smoothing
G1 X340.8410 Y262.2450 E0.3615 ; LFAM-OPT: [flow_smoothing] - Flow smoothing, [speed_smoothing] - Speed smoothing
G1 X350.6960 Y258.9950 E0.3799 ; LFAM-OPT: [flow_smoothing] - Flow smoothing, [speed_smoothing] - Speed smoothing
G1 X352.2510 Y258.5450 E0.1713 ; LFAM-OPT: [flow_smoothing] - Flow smoothing, [speed_smoothing] - Speed smoothing
G1 X361.7600 Y256.1000 E0.3694 ; LFAM-OPT: [flow_smoothing] - Flow smoothing, [speed_smoothing] - Speed smoothing
