; FLAVOR:Marlin
; LAYER_COUNT:100
; LAYER:0
G0 X0 Y0 Z0.0
G1 X0.0 Y0.0 E0.05 F1200
G1 X0.001 Y0.001 E0.05 F1200
G1 X0.002 Y0.002 E0.05 F1200
G1 X0.003 Y0.003 E0.05 F1200
G1 X0.004 Y0.004 E0.05 F1200
G1 X0.005 Y0.005 E0.05 F1200
G1 X0.006 Y0.006 E0.05 F1200
G1 X0.007 Y0.007 E0.05 F1200
G1 X0.008 Y0.008 E0.05 F1200
G1 X0.009 Y0.009 E0.05 F1200
G1 X0.01 Y0.01 E0.05 F1200
G1 X0.011 Y0.011 E0.05 F1200
G1 X0.012 Y0.012 E0.05 F1200
G1 X0.013 Y0.013 E0.05 F1200
G1 X0.014 Y0.014 E0.05 F1200
G1 X0.015 Y0.015 E0.05 F1200
G1 X0.016 Y0.016 E0.05 F1200
G1 X0.017 Y0.017 E0.05 F1200
G1 X0.018 Y0.018 E0.05 F1200
G1 X0.019 Y0.019 E0.05 F1200
G1 X0.02 Y0.02 E0.05 F1200
G1 X0.021 Y0.021 E0.05 F1200
G1 X0.022 Y0.022 E0.05 F1200
G1 X0.023 Y0.023 E0.05 F1200
G1 X0.024 Y0.024 E0.05 F1200
G1 X0.025 Y0.025 E0.05 F1200
G1 X0.026 Y0.026 E0.05 F1200
G1 X0.027 Y0.027 E0.05 F1200
G1 X0.028 Y0.028 E0.05 F1200
G1 X0.029 Y0.029 E0.05 F1200
G1 X0.03 Y0.03 E0.05 F1200
G1 X0.031 Y0.031 E0.05 F1200
G1 X0.032 Y0.032 E0.05 F1200
G1 X0.033 Y0.033 E0.05 F1200
G1 X0.034 Y0.034 E0.05 F1200
G1 X0.035 Y0.035 E0.05 F1200
G1 X0.036 Y0.036 E0.05 F1200
G1 X0.037 Y0.037 E0.05 F1200
G1 X0.038 Y0.038 E0.05 F1200
G1 X0.039 Y0.039 E0.05 F1200
G1 X0.04 Y0.04 E0.05 F1200
G1 X0.041 Y0.041 E0.05 F1200
G1 X0.042 Y0.042 E0.05 F1200
G1 X0.043 Y0.043 E0.05 F1200
G1 X0.044 Y0.044 E0.05 F1200
G1 X0.045 Y0.045 E0.05 F1200
G1 X0.046 Y0.046 E0.05 F1200
G1 X0.047 Y0.047 E0.05 F1200
G1 X0.048 Y0.048 E0.05 F1200
G1 X0.049 Y0.049 E0.05 F1200
G1 X0.05 Y0.05 E0.05 F1200
G1 X0.051 Y0.051 E0.05 F1200
G1 X0.052 Y0.052 E0.05 F1200
G1 X0.053 Y0.053 E0.05 F1200
G1 X0.054 Y0.054 E0.05 F1200
G1 X0.055 Y0.055 E0.05 F1200
G1 X0.056 Y0.056 E0.05 F1200
G1 X0.057 Y0.057 E0.05 F1200
G1 X0.058 Y0.058 E0.05 F1200
G1 X0.059 Y0.059 E0.05 F1200
G1 X0.06 Y0.06 E0.05 F1200
G1 X0.061 Y0.061 E0.05 F1200
G1 X0.062 Y0.062 E0.05 F1200
G1 X0.063 Y0.063 E0.05 F1200
G1 X0.064 Y0.064 E0.05 F1200
G1 X0.065 Y0.065 E0.05 F1200
G1 X0.066 Y0.066 E0.05 F1200
G1 X0.067 Y0.067 E0.05 F1200
G1 X0.068 Y0.068 E0.05 F1200
G1 X0.069 Y0.069 E0.05 F1200
G1 X0.07 Y0.07 E0.05 F1200
G1 X0.071 Y0.071 E0.05 F1200
G1 X0.072 Y0.072 E0.05 F1200
G1 X0.073 Y0.073 E0.05 F1200
G1 X0.074 Y0.074 E0.05 F1200
G1 X0.075 Y0.075 E0.05 F1200
G1 X0.076 Y0.076 E0.05 F1200
G1 X0.077 Y0.077 E0.05 F1200
G1 X0.078 Y0.078 E0.05 F1200
G1 X0.079 Y0.079 E0.05 F1200
G1 X0.08 Y0.08 E0.05 F1200
G1 X0.081 Y0.081 E0.05 F1200
G1 X0.082 Y0.082 E0.05 F1200
G1 X0.083 Y0.083 E0.05 F1200
G1 X0.084 Y0.084 E0.05 F1200
G1 X0.085 Y0.085 E0.05 F1200
G1 X0.086 Y0.086 E0.05 F1200
G1 X0.087 Y0.087 E0.05 F1200
G1 X0.088 Y0.088 E0.05 F1200
G1 X0.089 Y0.089 E0.05 F1200
G1 X0.09 Y0.09 E0.05 F1200
G1 X0.091 Y0.091 E0.05 F1200
G1 X0.092 Y0.092 E0.05 F1200
G1 X0.093 Y0.093 E0.05 F1200
G1 X0.094 Y0.094 E0.05 F1200
G1 X0.095 Y0.095 E0.05 F1200
G1 X0.096 Y0.096 E0.05 F1200
G1 X0.097 Y0.097 E0.05 F1200
G1 X0.098 Y0.098 E0.05 F1200
G1 X0.099 Y0.099 E0.05 F1200
G1 X0.1 Y0.1 E0.05 F1200
G1 X0.101 Y0.101 E0.05 F1200
G1 X0.102 Y0.102 E0.05 F1200
G1 X0.103 Y0.103 E0.05 F1200
G1 X0.104 Y0.104 E0.05 F1200
G1 X0.105 Y0.105 E0.05 F1200
G1 X0.106 Y0.106 E0.05 F1200
G1 X0.107 Y0.107 E0.05 F1200
G1 X0.108 Y0.108 E0.05 F1200
G1 X0.109 Y0.109 E0.05 F1200
G1 X0.11 Y0.11 E0.05 F1200
G1 X0.111 Y0.111 E0.05 F1200
G1 X0.112 Y0.112 E0.05 F1200
G1 X0.113 Y0.113 E0.05 F1200
G1 X0.114 Y0.114 E0.05 F1200
G1 X0.115 Y0.115 E0.05 F1200
G1 X0.116 Y0.116 E0.05 F1200
G1 X0.117 Y0.117 E0.05 F1200
G1 X0.118 Y0.118 E0.05 F1200
G1 X0.119 Y0.119 E0.05 F1200
G1 X0.12 Y0.12 E0.05 F1200
G1 X0.121 Y0.121 E0.05 F1200
G1 X0.122 Y0.122 E0.05 F1200
G1 X0.123 Y0.123 E0.05 F1200
G1 X0.124 Y0.124 E0.05 F1200
G1 X0.125 Y0.125 E0.05 F1200
G1 X0.126 Y0.126 E0.05 F1200
G1 X0.127 Y0.127 E0.05 F1200
G1 X0.128 Y0.128 E0.05 F1200
G1 X0.129 Y0.129 E0.05 F1200
G1 X0.13 Y0.13 E0.05 F1200
G1 X0.131 Y0.131 E0.05 F1200
G1 X0.132 Y0.132 E0.05 F1200
G1 X0.133 Y0.133 E0.05 F1200
G1 X0.134 Y0.134 E0.05 F1200
G1 X0.135 Y0.135 E0.05 F1200
G1 X0.136 Y0.136 E0.05 F1200
G1 X0.137 Y0.137 E0.05 F1200
G1 X0.138 Y0.138 E0.05 F1200
G1 X0.139 Y0.139 E0.05 F1200
G1 X0.14 Y0.14 E0.05 F1200
G1 X0.141 Y0.141 E0.05 F1200
G1 X0.142 Y0.142 E0.05 F1200
G1 X0.143 Y0.143 E0.05 F1200
G1 X0.144 Y0.144 E0.05 F1200
G1 X0.145 Y0.145 E0.05 F1200
G1 X0.146 Y0.146 E0.05 F1200
G1 X0.147 Y0.147 E0.05 F1200
G1 X0.148 Y0.148 E0.05 F1200
G1 X0.149 Y0.149 E0.05 F1200
G1 X0.15 Y0.15 E0.05 F1200
G1 X0.151 Y0.151 E0.05 F1200
G1 X0.152 Y0.152 E0.05 F1200
G1 X0.153 Y0.153 E0.05 F1200
G1 X0.154 Y0.154 E0.05 F1200
G1 X0.155 Y0.155 E0.05 F1200
G1 X0.156 Y0.156 E0.05 F1200
G1 X0.157 Y0.157 E0.05 F1200
G1 X0.158 Y0.158 E0.05 F1200
G1 X0.159 Y0.159 E0.05 F1200
G1 X0.16 Y0.16 E0.05 F1200
G1 X0.161 Y0.161 E0.05 F1200
G1 X0.162 Y0.162 E0.05 F1200
G1 X0.163 Y0.163 E0.05 F1200
G1 X0.164 Y0.164 E0.05 F1200
G1 X0.165 Y0.165 E0.05 F1200
G1 X0.166 Y0.166 E0.05 F1200
G1 X0.167 Y0.167 E0.05 F1200
G1 X0.168 Y0.168 E0.05 F1200
G1 X0.169 Y0.169 E0.05 F1200
G1 X0.17 Y0.17 E0.05 F1200
G1 X0.171 Y0.171 E0.05 F1200
G1 X0.172 Y0.172 E0.05 F1200
G1 X0.173 Y0.173 E0.05 F1200
G1 X0.174 Y0.174 E0.05 F1200
G1 X0.175 Y0.175 E0.05 F1200
G1 X0.176 Y0.176 E0.05 F1200
G1 X0.177 Y0.177 E0.05 F1200
G1 X0.178 Y0.178 E0.05 F1200
G1 X0.179 Y0.179 E0.05 F1200
G1 X0.18 Y0.18 E0.05 F1200
G1 X0.181 Y0.181 E0.05 F1200
G1 X0.182 Y0.182 E0.05 F1200
G1 X0.183 Y0.183 E0.05 F1200
G1 X0.184 Y0.184 E0.05 F1200
G1 X0.185 Y0.185 E0.05 F1200
G1 X0.186 Y0.186 E0.05 F1200
G1 X0.187 Y0.187 E0.05 F1200
G1 X0.188 Y0.188 E0.05 F1200
G1 X0.189 Y0.189 E0.05 F1200
G1 X0.19 Y0.19 E0.05 F1200
G1 X0.191 Y0.191 E0.05 F1200
G1 X0.192 Y0.192 E0.05 F1200
G1 X0.193 Y0.193 E0.05 F1200
G1 X0.194 Y0.194 E0.05 F1200
G1 X0.195 Y0.195 E0.05 F1200
G1 X0.196 Y0.196 E0.05 F1200
G1 X0.197 Y0.197 E0.05 F1200
G1 X0.198 Y0.198 E0.05 F1200
G1 X0.199 Y0.199 E0.05 F1200
G1 X0.2 Y0.2 E0.05 F1200
G1 X0.201 Y0.201 E0.05 F1200
G1 X0.202 Y0.202 E0.05 F1200
G1 X0.203 Y0.203 E0.05 F1200
G1 X0.204 Y0.204 E0.05 F1200
G1 X0.205 Y0.205 E0.05 F1200
G1 X0.206 Y0.206 E0.05 F1200
G1 X0.207 Y0.207 E0.05 F1200
G1 X0.208 Y0.208 E0.05 F1200
G1 X0.209 Y0.209 E0.05 F1200
G1 X0.21 Y0.21 E0.05 F1200
G1 X0.211 Y0.211 E0.05 F1200
G1 X0.212 Y0.212 E0.05 F1200
G1 X0.213 Y0.213 E0.05 F1200
G1 X0.214 Y0.214 E0.05 F1200
G1 X0.215 Y0.215 E0.05 F1200
G1 X0.216 Y0.216 E0.05 F1200
G1 X0.217 Y0.217 E0.05 F1200
G1 X0.218 Y0.218 E0.05 F1200
G1 X0.219 Y0.219 E0.05 F1200
G1 X0.22 Y0.22 E0.05 F1200
G1 X0.221 Y0.221 E0.05 F1200
G1 X0.222 Y0.222 E0.05 F1200
G1 X0.223 Y0.223 E0.05 F1200
G1 X0.224 Y0.224 E0.05 F1200
G1 X0.225 Y0.225 E0.05 F1200
G1 X0.226 Y0.226 E0.05 F1200
G1 X0.227 Y0.227 E0.05 F1200
G1 X0.228 Y0.228 E0.05 F1200
G1 X0.229 Y0.229 E0.05 F1200
G1 X0.23 Y0.23 E0.05 F1200
G1 X0.231 Y0.231 E0.05 F1200
G1 X0.232 Y0.232 E0.05 F1200
G1 X0.233 Y0.233 E0.05 F1200
G1 X0.234 Y0.234 E0.05 F1200
G1 X0.235 Y0.235 E0.05 F1200
G1 X0.236 Y0.236 E0.05 F1200
G1 X0.237 Y0.237 E0.05 F1200
G1 X0.238 Y0.238 E0.05 F1200
G1 X0.239 Y0.239 E0.05 F1200
G1 X0.24 Y0.24 E0.05 F1200
G1 X0.241 Y0.241 E0.05 F1200
G1 X0.242 Y0.242 E0.05 F1200
G1 X0.243 Y0.243 E0.05 F1200
G1 X0.244 Y0.244 E0.05 F1200
G1 X0.245 Y0.245 E0.05 F1200
G1 X0.246 Y0.246 E0.05 F1200
G1 X0.247 Y0.247 E0.05 F1200
G1 X0.248 Y0.248 E0.05 F1200
G1 X0.249 Y0.249 E0.05 F1200
G1 X0.25 Y0.25 E0.05 F1200
G1 X0.251 Y0.251 E0.05 F1200
G1 X0.252 Y0.252 E0.05 F1200
G1 X0.253 Y0.253 E0.05 F1200
G1 X0.254 Y0.254 E0.05 F1200
G1 X0.255 Y0.255 E0.05 F1200
G1 X0.256 Y0.256 E0.05 F1200
G1 X0.257 Y0.257 E0.05 F1200
G1 X0.258 Y0.258 E0.05 F1200
G1 X0.259 Y0.259 E0.05 F1200
G1 X0.26 Y0.26 E0.05 F1200
G1 X0.261 Y0.261 E0.05 F1200
G1 X0.262 Y0.262 E0.05 F1200
G1 X0.263 Y0.263 E0.05 F1200
G1 X0.264 Y0.264 E0.05 F1200
G1 X0.265 Y0.265 E0.05 F1200
G1 X0.266 Y0.266 E0.05 F1200
G1 X0.267 Y0.267 E0.05 F1200
G1 X0.268 Y0.268 E0.05 F1200
G1 X0.269 Y0.269 E0.05 F1200
G1 X0.27 Y0.27 E0.05 F1200
G1 X0.271 Y0.271 E0.05 F1200
G1 X0.272 Y0.272 E0.05 F1200
G1 X0.273 Y0.273 E0.05 F1200
G1 X0.274 Y0.274 E0.05 F1200
G1 X0.275 Y0.275 E0.05 F1200
G1 X0.276 Y0.276 E0.05 F1200
G1 X0.277 Y0.277 E0.05 F1200
G1 X0.278 Y0.278 E0.05 F1200
G1 X0.279 Y0.279 E0.05 F1200
G1 X0.28 Y0.28 E0.05 F1200
G1 X0.281 Y0.281 E0.05 F1200
G1 X0.282 Y0.282 E0.05 F1200
G1 X0.283 Y0.283 E0.05 F1200
G1 X0.284 Y0.284 E0.05 F1200
G1 X0.285 Y0.285 E0.05 F1200
G1 X0.286 Y0.286 E0.05 F1200
G1 X0.287 Y0.287 E0.05 F1200
G1 X0.288 Y0.288 E0.05 F1200
G1 X0.289 Y0.289 E0.05 F1200
G1 X0.29 Y0.29 E0.05 F1200
G1 X0.291 Y0.291 E0.05 F1200
G1 X0.292 Y0.292 E0.05 F1200
G1 X0.293 Y0.293 E0.05 F1200
G1 X0.294 Y0.294 E0.05 F1200
G1 X0.295 Y0.295 E0.05 F1200
G1 X0.296 Y0.296 E0.05 F1200
G1 X0.297 Y0.297 E0.05 F1200
G1 X0.298 Y0.298 E0.05 F1200
G1 X0.299 Y0.299 E0.05 F1200
G1 X0.3 Y0.3 E0.05 F1200
G1 X0.301 Y0.301 E0.05 F1200
G1 X0.302 Y0.302 E0.05 F1200
G1 X0.303 Y0.303 E0.05 F1200
G1 X0.304 Y0.304 E0.05 F1200
G1 X0.305 Y0.305 E0.05 F1200
G1 X0.306 Y0.306 E0.05 F1200
G1 X0.307 Y0.307 E0.05 F1200
G1 X0.308 Y0.308 E0.05 F1200
G1 X0.309 Y0.309 E0.05 F1200
G1 X0.31 Y0.31 E0.05 F1200
G1 X0.311 Y0.311 E0.05 F1200
G1 X0.312 Y0.312 E0.05 F1200
G1 X0.313 Y0.313 E0.05 F1200
G1 X0.314 Y0.314 E0.05 F1200
G1 X0.315 Y0.315 E0.05 F1200
G1 X0.316 Y0.316 E0.05 F1200
G1 X0.317 Y0.317 E0.05 F1200
G1 X0.318 Y0.318 E0.05 F1200
G1 X0.319 Y0.319 E0.05 F1200
G1 X0.32 Y0.32 E0.05 F1200
G1 X0.321 Y0.321 E0.05 F1200
G1 X0.322 Y0.322 E0.05 F1200
G1 X0.323 Y0.323 E0.05 F1200
G1 X0.324 Y0.324 E0.05 F1200
G1 X0.325 Y0.325 E0.05 F1200
G1 X0.326 Y0.326 E0.05 F1200
G1 X0.327 Y0.327 E0.05 F1200
G1 X0.328 Y0.328 E0.05 F1200
G1 X0.329 Y0.329 E0.05 F1200
G1 X0.33 Y0.33 E0.05 F1200
G1 X0.331 Y0.331 E0.05 F1200
G1 X0.332 Y0.332 E0.05 F1200
G1 X0.333 Y0.333 E0.05 F1200
G1 X0.334 Y0.334 E0.05 F1200
G1 X0.335 Y0.335 E0.05 F1200
G1 X0.336 Y0.336 E0.05 F1200
G1 X0.337 Y0.337 E0.05 F1200
G1 X0.338 Y0.338 E0.05 F1200
G1 X0.339 Y0.339 E0.05 F1200
G1 X0.34 Y0.34 E0.05 F1200
G1 X0.341 Y0.341 E0.05 F1200
G1 X0.342 Y0.342 E0.05 F1200
G1 X0.343 Y0.343 E0.05 F1200
G1 X0.344 Y0.344 E0.05 F1200
G1 X0.345 Y0.345 E0.05 F1200
G1 X0.346 Y0.346 E0.05 F1200
G1 X0.347 Y0.347 E0.05 F1200
G1 X0.348 Y0.348 E0.05 F1200
G1 X0.349 Y0.349 E0.05 F1200
G1 X0.35 Y0.35 E0.05 F1200
G1 X0.351 Y0.351 E0.05 F1200
G1 X0.352 Y0.352 E0.05 F1200
G1 X0.353 Y0.353 E0.05 F1200
G1 X0.354 Y0.354 E0.05 F1200
G1 X0.355 Y0.355 E0.05 F1200
G1 X0.356 Y0.356 E0.05 F1200
G1 X0.357 Y0.357 E0.05 F1200
G1 X0.358 Y0.358 E0.05 F1200
G1 X0.359 Y0.359 E0.05 F1200
G1 X0.36 Y0.36 E0.05 F1200
G1 X0.361 Y0.361 E0.05 F1200
G1 X0.362 Y0.362 E0.05 F1200
G1 X0.363 Y0.363 E0.05 F1200
G1 X0.364 Y0.364 E0.05 F1200
G1 X0.365 Y0.365 E0.05 F1200
G1 X0.366 Y0.366 E0.05 F1200
G1 X0.367 Y0.367 E0.05 F1200
G1 X0.368 Y0.368 E0.05 F1200
G1 X0.369 Y0.369 E0.05 F1200
G1 X0.37 Y0.37 E0.05 F1200
G1 X0.371 Y0.371 E0.05 F1200
G1 X0.372 Y0.372 E0.05 F1200
G1 X0.373 Y0.373 E0.05 F1200
G1 X0.374 Y0.374 E0.05 F1200
G1 X0.375 Y0.375 E0.05 F1200
G1 X0.376 Y0.376 E0.05 F1200
G1 X0.377 Y0.377 E0.05 F1200
G1 X0.378 Y0.378 E0.05 F1200
G1 X0.379 Y0.379 E0.05 F1200
G1 X0.38 Y0.38 E0.05 F1200
G1 X0.381 Y0.381 E0.05 F1200
G1 X0.382 Y0.382 E0.05 F1200
G1 X0.383 Y0.383 E0.05 F1200
G1 X0.384 Y0.384 E0.05 F1200
G1 X0.385 Y0.385 E0.05 F1200
G1 X0.386 Y0.386 E0.05 F1200
G1 X0.387 Y0.387 E0.05 F1200
G1 X0.388 Y0.388 E0.05 F1200
G1 X0.389 Y0.389 E0.05 F1200
G1 X0.39 Y0.39 E0.05 F1200
G1 X0.391 Y0.391 E0.05 F1200
G1 X0.392 Y0.392 E0.05 F1200
G1 X0.393 Y0.393 E0.05 F1200
G1 X0.394 Y0.394 E0.05 F1200
G1 X0.395 Y0.395 E0.05 F1200
G1 X0.396 Y0.396 E0.05 F1200
G1 X0.397 Y0.397 E0.05 F1200
G1 X0.398 Y0.398 E0.05 F1200
G1 X0.399 Y0.399 E0.05 F1200
G1 X0.4 Y0.4 E0.05 F1200
G1 X0.401 Y0.401 E0.05 F1200
G1 X0.402 Y0.402 E0.05 F1200
G1 X0.403 Y0.403 E0.05 F1200
G1 X0.404 Y0.404 E0.05 F1200
G1 X0.405 Y0.405 E0.05 F1200
G1 X0.406 Y0.406 E0.05 F1200
G1 X0.407 Y0.407 E0.05 F1200
G1 X0.408 Y0.408 E0.05 F1200
G1 X0.409 Y0.409 E0.05 F1200
G1 X0.41 Y0.41 E0.05 F1200
G1 X0.411 Y0.411 E0.05 F1200
G1 X0.412 Y0.412 E0.05 F1200
G1 X0.413 Y0.413 E0.05 F1200
G1 X0.414 Y0.414 E0.05 F1200
G1 X0.415 Y0.415 E0.05 F1200
G1 X0.416 Y0.416 E0.05 F1200
G1 X0.417 Y0.417 E0.05 F1200
G1 X0.418 Y0.418 E0.05 F1200
G1 X0.419 Y0.419 E0.05 F1200
G1 X0.42 Y0.42 E0.05 F1200
G1 X0.421 Y0.421 E0.05 F1200
G1 X0.422 Y0.422 E0.05 F1200
G1 X0.423 Y0.423 E0.05 F1200
G1 X0.424 Y0.424 E0.05 F1200
G1 X0.425 Y0.425 E0.05 F1200
G1 X0.426 Y0.426 E0.05 F1200
G1 X0.427 Y0.427 E0.05 F1200
G1 X0.428 Y0.428 E0.05 F1200
G1 X0.429 Y0.429 E0.05 F1200
G1 X0.43 Y0.43 E0.05 F1200
G1 X0.431 Y0.431 E0.05 F1200
G1 X0.432 Y0.432 E0.05 F1200
G1 X0.433 Y0.433 E0.05 F1200
G1 X0.434 Y0.434 E0.05 F1200
G1 X0.435 Y0.435 E0.05 F1200
G1 X0.436 Y0.436 E0.05 F1200
G1 X0.437 Y0.437 E0.05 F1200
G1 X0.438 Y0.438 E0.05 F1200
G1 X0.439 Y0.439 E0.05 F1200
G1 X0.44 Y0.44 E0.05 F1200
G1 X0.441 Y0.441 E0.05 F1200
G1 X0.442 Y0.442 E0.05 F1200
G1 X0.443 Y0.443 E0.05 F1200
G1 X0.444 Y0.444 E0.05 F1200
G1 X0.445 Y0.445 E0.05 F1200
G1 X0.446 Y0.446 E0.05 F1200
G1 X0.447 Y0.447 E0.05 F1200
G1 X0.448 Y0.448 E0.05 F1200
G1 X0.449 Y0.449 E0.05 F1200
G1 X0.45 Y0.45 E0.05 F1200
G1 X0.451 Y0.451 E0.05 F1200
G1 X0.452 Y0.452 E0.05 F1200
G1 X0.453 Y0.453 E0.05 F1200
G1 X0.454 Y0.454 E0.05 F1200
G1 X0.455 Y0.455 E0.05 F1200
G1 X0.456 Y0.456 E0.05 F1200
G1 X0.457 Y0.457 E0.05 F1200
G1 X0.458 Y0.458 E0.05 F1200
G1 X0.459 Y0.459 E0.05 F1200
G1 X0.46 Y0.46 E0.05 F1200
G1 X0.461 Y0.461 E0.05 F1200
G1 X0.462 Y0.462 E0.05 F1200
G1 X0.463 Y0.463 E0.05 F1200
G1 X0.464 Y0.464 E0.05 F1200
G1 X0.465 Y0.465 E0.05 F1200
G1 X0.466 Y0.466 E0.05 F1200
G1 X0.467 Y0.467 E0.05 F1200
G1 X0.468 Y0.468 E0.05 F1200
G1 X0.469 Y0.469 E0.05 F1200
G1 X0.47 Y0.47 E0.05 F1200
G1 X0.471 Y0.471 E0.05 F1200
G1 X0.472 Y0.472 E0.05 F1200
G1 X0.473 Y0.473 E0.05 F1200
G1 X0.474 Y0.474 E0.05 F1200
G1 X0.475 Y0.475 E0.05 F1200
G1 X0.476 Y0.476 E0.05 F1200
G1 X0.477 Y0.477 E0.05 F1200
G1 X0.478 Y0.478 E0.05 F1200
G1 X0.479 Y0.479 E0.05 F1200
G1 X0.48 Y0.48 E0.05 F1200
G1 X0.481 Y0.481 E0.05 F1200
G1 X0.482 Y0.482 E0.05 F1200
G1 X0.483 Y0.483 E0.05 F1200
G1 X0.484 Y0.484 E0.05 F1200
G1 X0.485 Y0.485 E0.05 F1200
G1 X0.486 Y0.486 E0.05 F1200
G1 X0.487 Y0.487 E0.05 F1200
G1 X0.488 Y0.488 E0.05 F1200
G1 X0.489 Y0.489 E0.05 F1200
G1 X0.49 Y0.49 E0.05 F1200
G1 X0.491 Y0.491 E0.05 F1200
G1 X0.492 Y0.492 E0.05 F1200
G1 X0.493 Y0.493 E0.05 F1200
G1 X0.494 Y0.494 E0.05 F1200
G1 X0.495 Y0.495 E0.05 F1200
G1 X0.496 Y0.496 E0.05 F1200
G1 X0.497 Y0.497 E0.05 F1200
G1 X0.498 Y0.498 E0.05 F1200
G1 X0.499 Y0.499 E0.05 F1200
G1 X0.5 Y0.5 E0.05 F1200
G1 X0.501 Y0.501 E0.05 F1200
G1 X0.502 Y0.502 E0.05 F1200
G1 X0.503 Y0.503 E0.05 F1200
G1 X0.504 Y0.504 E0.05 F1200
G1 X0.505 Y0.505 E0.05 F1200
G1 X0.506 Y0.506 E0.05 F1200
G1 X0.507 Y0.507 E0.05 F1200
G1 X0.508 Y0.508 E0.05 F1200
G1 X0.509 Y0.509 E0.05 F1200
G1 X0.51 Y0.51 E0.05 F1200
G1 X0.511 Y0.511 E0.05 F1200
G1 X0.512 Y0.512 E0.05 F1200
G1 X0.513 Y0.513 E0.05 F1200
G1 X0.514 Y0.514 E0.05 F1200
G1 X0.515 Y0.515 E0.05 F1200
G1 X0.516 Y0.516 E0.05 F1200
G1 X0.517 Y0.517 E0.05 F1200
G1 X0.518 Y0.518 E0.05 F1200
G1 X0.519 Y0.519 E0.05 F1200
G1 X0.52 Y0.52 E0.05 F1200
G1 X0.521 Y0.521 E0.05 F1200
G1 X0.522 Y0.522 E0.05 F1200
G1 X0.523 Y0.523 E0.05 F1200
G1 X0.524 Y0.524 E0.05 F1200
G1 X0.525 Y0.525 E0.05 F1200
G1 X0.526 Y0.526 E0.05 F1200
G1 X0.527 Y0.527 E0.05 F1200
G1 X0.528 Y0.528 E0.05 F1200
G1 X0.529 Y0.529 E0.05 F1200
G1 X0.53 Y0.53 E0.05 F1200
G1 X0.531 Y0.531 E0.05 F1200
G1 X0.532 Y0.532 E0.05 F1200
G1 X0.533 Y0.533 E0.05 F1200
G1 X0.534 Y0.534 E0.05 F1200
G1 X0.535 Y0.535 E0.05 F1200
G1 X0.536 Y0.536 E0.05 F1200
G1 X0.537 Y0.537 E0.05 F1200
G1 X0.538 Y0.538 E0.05 F1200
G1 X0.539 Y0.539 E0.05 F1200
G1 X0.54 Y0.54 E0.05 F1200
G1 X0.541 Y0.541 E0.05 F1200
G1 X0.542 Y0.542 E0.05 F1200
G1 X0.543 Y0.543 E0.05 F1200
G1 X0.544 Y0.544 E0.05 F1200
G1 X0.545 Y0.545 E0.05 F1200
G1 X0.546 Y0.546 E0.05 F1200
G1 X0.547 Y0.547 E0.05 F1200
G1 X0.548 Y0.548 E0.05 F1200
G1 X0.549 Y0.549 E0.05 F1200
G1 X0.55 Y0.55 E0.05 F1200
G1 X0.551 Y0.551 E0.05 F1200
G1 X0.552 Y0.552 E0.05 F1200
G1 X0.553 Y0.553 E0.05 F1200
G1 X0.554 Y0.554 E0.05 F1200
G1 X0.555 Y0.555 E0.05 F1200
G1 X0.556 Y0.556 E0.05 F1200
G1 X0.557 Y0.557 E0.05 F1200
G1 X0.558 Y0.558 E0.05 F1200
G1 X0.559 Y0.559 E0.05 F1200
G1 X0.56 Y0.56 E0.05 F1200
G1 X0.561 Y0.561 E0.05 F1200
G1 X0.562 Y0.562 E0.05 F1200
G1 X0.563 Y0.563 E0.05 F1200
G1 X0.564 Y0.564 E0.05 F1200
G1 X0.565 Y0.565 E0.05 F1200
G1 X0.566 Y0.566 E0.05 F1200
G1 X0.567 Y0.567 E0.05 F1200
G1 X0.568 Y0.568 E0.05 F1200
G1 X0.569 Y0.569 E0.05 F1200
G1 X0.57 Y0.57 E0.05 F1200
G1 X0.571 Y0.571 E0.05 F1200
G1 X0.572 Y0.572 E0.05 F1200
G1 X0.573 Y0.573 E0.05 F1200
G1 X0.574 Y0.574 E0.05 F1200
G1 X0.575 Y0.575 E0.05 F1200
G1 X0.576 Y0.576 E0.05 F1200
G1 X0.577 Y0.577 E0.05 F1200
G1 X0.578 Y0.578 E0.05 F1200
G1 X0.579 Y0.579 E0.05 F1200
G1 X0.58 Y0.58 E0.05 F1200
G1 X0.581 Y0.581 E0.05 F1200
G1 X0.582 Y0.582 E0.05 F1200
G1 X0.583 Y0.583 E0.05 F1200
G1 X0.584 Y0.584 E0.05 F1200
G1 X0.585 Y0.585 E0.05 F1200
G1 X0.586 Y0.586 E0.05 F1200
G1 X0.587 Y0.587 E0.05 F1200
G1 X0.588 Y0.588 E0.05 F1200
G1 X0.589 Y0.589 E0.05 F1200
G1 X0.59 Y0.59 E0.05 F1200
G1 X0.591 Y0.591 E0.05 F1200
G1 X0.592 Y0.592 E0.05 F1200
G1 X0.593 Y0.593 E0.05 F1200
G1 X0.594 Y0.594 E0.05 F1200
G1 X0.595 Y0.595 E0.05 F1200
G1 X0.596 Y0.596 E0.05 F1200
G1 X0.597 Y0.597 E0.05 F1200
G1 X0.598 Y0.598 E0.05 F1200
G1 X0.599 Y0.599 E0.05 F1200
G1 X0.6 Y0.6 E0.05 F1200
G1 X0.601 Y0.601 E0.05 F1200
G1 X0.602 Y0.602 E0.05 F1200
G1 X0.603 Y0.603 E0.05 F1200
G1 X0.604 Y0.604 E0.05 F1200
G1 X0.605 Y0.605 E0.05 F1200
G1 X0.606 Y0.606 E0.05 F1200
G1 X0.607 Y0.607 E0.05 F1200
G1 X0.608 Y0.608 E0.05 F1200
G1 X0.609 Y0.609 E0.05 F1200
G1 X0.61 Y0.61 E0.05 F1200
G1 X0.611 Y0.611 E0.05 F1200
G1 X0.612 Y0.612 E0.05 F1200
G1 X0.613 Y0.613 E0.05 F1200
G1 X0.614 Y0.614 E0.05 F1200
G1 X0.615 Y0.615 E0.05 F1200
G1 X0.616 Y0.616 E0.05 F1200
G1 X0.617 Y0.617 E0.05 F1200
G1 X0.618 Y0.618 E0.05 F1200
G1 X0.619 Y0.619 E0.05 F1200
G1 X0.62 Y0.62 E0.05 F1200
G1 X0.621 Y0.621 E0.05 F1200
G1 X0.622 Y0.622 E0.05 F1200
G1 X0.623 Y0.623 E0.05 F1200
G1 X0.624 Y0.624 E0.05 F1200
G1 X0.625 Y0.625 E0.05 F1200
G1 X0.626 Y0.626 E0.05 F1200
G1 X0.627 Y0.627 E0.05 F1200
G1 X0.628 Y0.628 E0.05 F1200
G1 X0.629 Y0.629 E0.05 F1200
G1 X0.63 Y0.63 E0.05 F1200
G1 X0.631 Y0.631 E0.05 F1200
G1 X0.632 Y0.632 E0.05 F1200
G1 X0.633 Y0.633 E0.05 F1200
G1 X0.634 Y0.634 E0.05 F1200
G1 X0.635 Y0.635 E0.05 F1200
G1 X0.636 Y0.636 E0.05 F1200
G1 X0.637 Y0.637 E0.05 F1200
G1 X0.638 Y0.638 E0.05 F1200
G1 X0.639 Y0.639 E0.05 F1200
G1 X0.64 Y0.64 E0.05 F1200
G1 X0.641 Y0.641 E0.05 F1200
G1 X0.642 Y0.642 E0.05 F1200
G1 X0.643 Y0.643 E0.05 F1200
G1 X0.644 Y0.644 E0.05 F1200
G1 X0.645 Y0.645 E0.05 F1200
G1 X0.646 Y0.646 E0.05 F1200
G1 X0.647 Y0.647 E0.05 F1200
G1 X0.648 Y0.648 E0.05 F1200
G1 X0.649 Y0.649 E0.05 F1200
G1 X0.65 Y0.65 E0.05 F1200
G1 X0.651 Y0.651 E0.05 F1200
G1 X0.652 Y0.652 E0.05 F1200
G1 X0.653 Y0.653 E0.05 F1200
G1 X0.654 Y0.654 E0.05 F1200
G1 X0.655 Y0.655 E0.05 F1200
G1 X0.656 Y0.656 E0.05 F1200
G1 X0.657 Y0.657 E0.05 F1200
G1 X0.658 Y0.658 E0.05 F1200
G1 X0.659 Y0.659 E0.05 F1200
G1 X0.66 Y0.66 E0.05 F1200
G1 X0.661 Y0.661 E0.05 F1200
G1 X0.662 Y0.662 E0.05 F1200
G1 X0.663 Y0.663 E0.05 F1200
G1 X0.664 Y0.664 E0.05 F1200
G1 X0.665 Y0.665 E0.05 F1200
G1 X0.666 Y0.666 E0.05 F1200
G1 X0.667 Y0.667 E0.05 F1200
G1 X0.668 Y0.668 E0.05 F1200
G1 X0.669 Y0.669 E0.05 F1200
G1 X0.67 Y0.67 E0.05 F1200
G1 X0.671 Y0.671 E0.05 F1200
G1 X0.672 Y0.672 E0.05 F1200
G1 X0.673 Y0.673 E0.05 F1200
G1 X0.674 Y0.674 E0.05 F1200
G1 X0.675 Y0.675 E0.05 F1200
G1 X0.676 Y0.676 E0.05 F1200
G1 X0.677 Y0.677 E0.05 F1200
G1 X0.678 Y0.678 E0.05 F1200
G1 X0.679 Y0.679 E0.05 F1200
G1 X0.68 Y0.68 E0.05 F1200
G1 X0.681 Y0.681 E0.05 F1200
G1 X0.682 Y0.682 E0.05 F1200
G1 X0.683 Y0.683 E0.05 F1200
G1 X0.684 Y0.684 E0.05 F1200
G1 X0.685 Y0.685 E0.05 F1200
G1 X0.686 Y0.686 E0.05 F1200
G1 X0.687 Y0.687 E0.05 F1200
G1 X0.688 Y0.688 E0.05 F1200
G1 X0.689 Y0.689 E0.05 F1200
G1 X0.69 Y0.69 E0.05 F1200
G1 X0.691 Y0.691 E0.05 F1200
G1 X0.692 Y0.692 E0.05 F1200
G1 X0.693 Y0.693 E0.05 F1200
G1 X0.694 Y0.694 E0.05 F1200
G1 X0.695 Y0.695 E0.05 F1200
G1 X0.696 Y0.696 E0.05 F1200
G1 X0.697 Y0.697 E0.05 F1200
G1 X0.698 Y0.698 E0.05 F1200
G1 X0.699 Y0.699 E0.05 F1200
G1 X0.7 Y0.7 E0.05 F1200
G1 X0.701 Y0.701 E0.05 F1200
G1 X0.702 Y0.702 E0.05 F1200
G1 X0.703 Y0.703 E0.05 F1200
G1 X0.704 Y0.704 E0.05 F1200
G1 X0.705 Y0.705 E0.05 F1200
G1 X0.706 Y0.706 E0.05 F1200
G1 X0.707 Y0.707 E0.05 F1200
G1 X0.708 Y0.708 E0.05 F1200
G1 X0.709 Y0.709 E0.05 F1200
G1 X0.71 Y0.71 E0.05 F1200
G1 X0.711 Y0.711 E0.05 F1200
G1 X0.712 Y0.712 E0.05 F1200
G1 X0.713 Y0.713 E0.05 F1200
G1 X0.714 Y0.714 E0.05 F1200
G1 X0.715 Y0.715 E0.05 F1200
G1 X0.716 Y0.716 E0.05 F1200
G1 X0.717 Y0.717 E0.05 F1200
G1 X0.718 Y0.718 E0.05 F1200
G1 X0.719 Y0.719 E0.05 F1200
G1 X0.72 Y0.72 E0.05 F1200
G1 X0.721 Y0.721 E0.05 F1200
G1 X0.722 Y0.722 E0.05 F1200
G1 X0.723 Y0.723 E0.05 F1200
G1 X0.724 Y0.724 E0.05 F1200
G1 X0.725 Y0.725 E0.05 F1200
G1 X0.726 Y0.726 E0.05 F1200
G1 X0.727 Y0.727 E0.05 F1200
G1 X0.728 Y0.728 E0.05 F1200
G1 X0.729 Y0.729 E0.05 F1200
G1 X0.73 Y0.73 E0.05 F1200
G1 X0.731 Y0.731 E0.05 F1200
G1 X0.732 Y0.732 E0.05 F1200
G1 X0.733 Y0.733 E0.05 F1200
G1 X0.734 Y0.734 E0.05 F1200
G1 X0.735 Y0.735 E0.05 F1200
G1 X0.736 Y0.736 E0.05 F1200
G1 X0.737 Y0.737 E0.05 F1200
G1 X0.738 Y0.738 E0.05 F1200
G1 X0.739 Y0.739 E0.05 F1200
G1 X0.74 Y0.74 E0.05 F1200
G1 X0.741 Y0.741 E0.05 F1200
G1 X0.742 Y0.742 E0.05 F1200
G1 X0.743 Y0.743 E0.05 F1200
G1 X0.744 Y0.744 E0.05 F1200
G1 X0.745 Y0.745 E0.05 F1200
G1 X0.746 Y0.746 E0.05 F1200
G1 X0.747 Y0.747 E0.05 F1200
G1 X0.748 Y0.748 E0.05 F1200
G1 X0.749 Y0.749 E0.05 F1200
G1 X0.75 Y0.75 E0.05 F1200
G1 X0.751 Y0.751 E0.05 F1200
G1 X0.752 Y0.752 E0.05 F1200
G1 X0.753 Y0.753 E0.05 F1200
G1 X0.754 Y0.754 E0.05 F1200
G1 X0.755 Y0.755 E0.05 F1200
G1 X0.756 Y0.756 E0.05 F1200
G1 X0.757 Y0.757 E0.05 F1200
G1 X0.758 Y0.758 E0.05 F1200
G1 X0.759 Y0.759 E0.05 F1200
G1 X0.76 Y0.76 E0.05 F1200
G1 X0.761 Y0.761 E0.05 F1200
G1 X0.762 Y0.762 E0.05 F1200
G1 X0.763 Y0.763 E0.05 F1200
G1 X0.764 Y0.764 E0.05 F1200
G1 X0.765 Y0.765 E0.05 F1200
G1 X0.766 Y0.766 E0.05 F1200
G1 X0.767 Y0.767 E0.05 F1200
G1 X0.768 Y0.768 E0.05 F1200
G1 X0.769 Y0.769 E0.05 F1200
G1 X0.77 Y0.77 E0.05 F1200
G1 X0.771 Y0.771 E0.05 F1200
G1 X0.772 Y0.772 E0.05 F1200
G1 X0.773 Y0.773 E0.05 F1200
G1 X0.774 Y0.774 E0.05 F1200
G1 X0.775 Y0.775 E0.05 F1200
G1 X0.776 Y0.776 E0.05 F1200
G1 X0.777 Y0.777 E0.05 F1200
G1 X0.778 Y0.778 E0.05 F1200
G1 X0.779 Y0.779 E0.05 F1200
G1 X0.78 Y0.78 E0.05 F1200
G1 X0.781 Y0.781 E0.05 F1200
G1 X0.782 Y0.782 E0.05 F1200
G1 X0.783 Y0.783 E0.05 F1200
G1 X0.784 Y0.784 E0.05 F1200
G1 X0.785 Y0.785 E0.05 F1200
G1 X0.786 Y0.786 E0.05 F1200
G1 X0.787 Y0.787 E0.05 F1200
G1 X0.788 Y0.788 E0.05 F1200
G1 X0.789 Y0.789 E0.05 F1200
G1 X0.79 Y0.79 E0.05 F1200
G1 X0.791 Y0.791 E0.05 F1200
G1 X0.792 Y0.792 E0.05 F1200
G1 X0.793 Y0.793 E0.05 F1200
G1 X0.794 Y0.794 E0.05 F1200
G1 X0.795 Y0.795 E0.05 F1200
G1 X0.796 Y0.796 E0.05 F1200
G1 X0.797 Y0.797 E0.05 F1200
G1 X0.798 Y0.798 E0.05 F1200
G1 X0.799 Y0.799 E0.05 F1200
G1 X0.8 Y0.8 E0.05 F1200
G1 X0.801 Y0.801 E0.05 F1200
G1 X0.802 Y0.802 E0.05 F1200
G1 X0.803 Y0.803 E0.05 F1200
G1 X0.804 Y0.804 E0.05 F1200
G1 X0.805 Y0.805 E0.05 F1200
G1 X0.806 Y0.806 E0.05 F1200
G1 X0.807 Y0.807 E0.05 F1200
G1 X0.808 Y0.808 E0.05 F1200
G1 X0.809 Y0.809 E0.05 F1200
G1 X0.81 Y0.81 E0.05 F1200
G1 X0.811 Y0.811 E0.05 F1200
G1 X0.812 Y0.812 E0.05 F1200
G1 X0.813 Y0.813 E0.05 F1200
G1 X0.814 Y0.814 E0.05 F1200
G1 X0.815 Y0.815 E0.05 F1200
G1 X0.816 Y0.816 E0.05 F1200
G1 X0.817 Y0.817 E0.05 F1200
G1 X0.818 Y0.818 E0.05 F1200
G1 X0.819 Y0.819 E0.05 F1200
G1 X0.82 Y0.82 E0.05 F1200
G1 X0.821 Y0.821 E0.05 F1200
G1 X0.822 Y0.822 E0.05 F1200
G1 X0.823 Y0.823 E0.05 F1200
G1 X0.824 Y0.824 E0.05 F1200
G1 X0.825 Y0.825 E0.05 F1200
G1 X0.826 Y0.826 E0.05 F1200
G1 X0.827 Y0.827 E0.05 F1200
G1 X0.828 Y0.828 E0.05 F1200
G1 X0.829 Y0.829 E0.05 F1200
G1 X0.83 Y0.83 E0.05 F1200
G1 X0.831 Y0.831 E0.05 F1200
G1 X0.832 Y0.832 E0.05 F1200
G1 X0.833 Y0.833 E0.05 F1200
G1 X0.834 Y0.834 E0.05 F1200
G1 X0.835 Y0.835 E0.05 F1200
G1 X0.836 Y0.836 E0.05 F1200
G1 X0.837 Y0.837 E0.05 F1200
G1 X0.838 Y0.838 E0.05 F1200
G1 X0.839 Y0.839 E0.05 F1200
G1 X0.84 Y0.84 E0.05 F1200
G1 X0.841 Y0.841 E0.05 F1200
G1 X0.842 Y0.842 E0.05 F1200
G1 X0.843 Y0.843 E0.05 F1200
G1 X0.844 Y0.844 E0.05 F1200
G1 X0.845 Y0.845 E0.05 F1200
G1 X0.846 Y0.846 E0.05 F1200
G1 X0.847 Y0.847 E0.05 F1200
G1 X0.848 Y0.848 E0.05 F1200
G1 X0.849 Y0.849 E0.05 F1200
G1 X0.85 Y0.85 E0.05 F1200
G1 X0.851 Y0.851 E0.05 F1200
G1 X0.852 Y0.852 E0.05 F1200
G1 X0.853 Y0.853 E0.05 F1200
G1 X0.854 Y0.854 E0.05 F1200
G1 X0.855 Y0.855 E0.05 F1200
G1 X0.856 Y0.856 E0.05 F1200
G1 X0.857 Y0.857 E0.05 F1200
G1 X0.858 Y0.858 E0.05 F1200
G1 X0.859 Y0.859 E0.05 F1200
G1 X0.86 Y0.86 E0.05 F1200
G1 X0.861 Y0.861 E0.05 F1200
G1 X0.862 Y0.862 E0.05 F1200
G1 X0.863 Y0.863 E0.05 F1200
G1 X0.864 Y0.864 E0.05 F1200
G1 X0.865 Y0.865 E0.05 F1200
G1 X0.866 Y0.866 E0.05 F1200
G1 X0.867 Y0.867 E0.05 F1200
G1 X0.868 Y0.868 E0.05 F1200
G1 X0.869 Y0.869 E0.05 F1200
G1 X0.87 Y0.87 E0.05 F1200
G1 X0.871 Y0.871 E0.05 F1200
G1 X0.872 Y0.872 E0.05 F1200
G1 X0.873 Y0.873 E0.05 F1200
G1 X0.874 Y0.874 E0.05 F1200
G1 X0.875 Y0.875 E0.05 F1200
G1 X0.876 Y0.876 E0.05 F1200
G1 X0.877 Y0.877 E0.05 F1200
G1 X0.878 Y0.878 E0.05 F1200
G1 X0.879 Y0.879 E0.05 F1200
G1 X0.88 Y0.88 E0.05 F1200
G1 X0.881 Y0.881 E0.05 F1200
G1 X0.882 Y0.882 E0.05 F1200
G1 X0.883 Y0.883 E0.05 F1200
G1 X0.884 Y0.884 E0.05 F1200
G1 X0.885 Y0.885 E0.05 F1200
G1 X0.886 Y0.886 E0.05 F1200
G1 X0.887 Y0.887 E0.05 F1200
G1 X0.888 Y0.888 E0.05 F1200
G1 X0.889 Y0.889 E0.05 F1200
G1 X0.89 Y0.89 E0.05 F1200
G1 X0.891 Y0.891 E0.05 F1200
G1 X0.892 Y0.892 E0.05 F1200
G1 X0.893 Y0.893 E0.05 F1200
G1 X0.894 Y0.894 E0.05 F1200
G1 X0.895 Y0.895 E0.05 F1200
G1 X0.896 Y0.896 E0.05 F1200
G1 X0.897 Y0.897 E0.05 F1200
G1 X0.898 Y0.898 E0.05 F1200
G1 X0.899 Y0.899 E0.05 F1200
G1 X0.9 Y0.9 E0.05 F1200
G1 X0.901 Y0.901 E0.05 F1200
G1 X0.902 Y0.902 E0.05 F1200
G1 X0.903 Y0.903 E0.05 F1200
G1 X0.904 Y0.904 E0.05 F1200
G1 X0.905 Y0.905 E0.05 F1200
G1 X0.906 Y0.906 E0.05 F1200
G1 X0.907 Y0.907 E0.05 F1200
G1 X0.908 Y0.908 E0.05 F1200
G1 X0.909 Y0.909 E0.05 F1200
G1 X0.91 Y0.91 E0.05 F1200
G1 X0.911 Y0.911 E0.05 F1200
G1 X0.912 Y0.912 E0.05 F1200
G1 X0.913 Y0.913 E0.05 F1200
G1 X0.914 Y0.914 E0.05 F1200
G1 X0.915 Y0.915 E0.05 F1200
G1 X0.916 Y0.916 E0.05 F1200
G1 X0.917 Y0.917 E0.05 F1200
G1 X0.918 Y0.918 E0.05 F1200
G1 X0.919 Y0.919 E0.05 F1200
G1 X0.92 Y0.92 E0.05 F1200
G1 X0.921 Y0.921 E0.05 F1200
G1 X0.922 Y0.922 E0.05 F1200
G1 X0.923 Y0.923 E0.05 F1200
G1 X0.924 Y0.924 E0.05 F1200
G1 X0.925 Y0.925 E0.05 F1200
G1 X0.926 Y0.926 E0.05 F1200
G1 X0.927 Y0.927 E0.05 F1200
G1 X0.928 Y0.928 E0.05 F1200
G1 X0.929 Y0.929 E0.05 F1200
G1 X0.93 Y0.93 E0.05 F1200
G1 X0.931 Y0.931 E0.05 F1200
G1 X0.932 Y0.932 E0.05 F1200
G1 X0.933 Y0.933 E0.05 F1200
G1 X0.934 Y0.934 E0.05 F1200
G1 X0.935 Y0.935 E0.05 F1200
G1 X0.936 Y0.936 E0.05 F1200
G1 X0.937 Y0.937 E0.05 F1200
G1 X0.938 Y0.938 E0.05 F1200
G1 X0.939 Y0.939 E0.05 F1200
G1 X0.94 Y0.94 E0.05 F1200
G1 X0.941 Y0.941 E0.05 F1200
G1 X0.942 Y0.942 E0.05 F1200
G1 X0.943 Y0.943 E0.05 F1200
G1 X0.944 Y0.944 E0.05 F1200
G1 X0.945 Y0.945 E0.05 F1200
G1 X0.946 Y0.946 E0.05 F1200
G1 X0.947 Y0.947 E0.05 F1200
G1 X0.948 Y0.948 E0.05 F1200
G1 X0.949 Y0.949 E0.05 F1200
G1 X0.95 Y0.95 E0.05 F1200
G1 X0.951 Y0.951 E0.05 F1200
G1 X0.952 Y0.952 E0.05 F1200
G1 X0.953 Y0.953 E0.05 F1200
G1 X0.954 Y0.954 E0.05 F1200
G1 X0.955 Y0.955 E0.05 F1200
G1 X0.956 Y0.956 E0.05 F1200
G1 X0.957 Y0.957 E0.05 F1200
G1 X0.958 Y0.958 E0.05 F1200
G1 X0.959 Y0.959 E0.05 F1200
G1 X0.96 Y0.96 E0.05 F1200
G1 X0.961 Y0.961 E0.05 F1200
G1 X0.962 Y0.962 E0.05 F1200
G1 X0.963 Y0.963 E0.05 F1200
G1 X0.964 Y0.964 E0.05 F1200
G1 X0.965 Y0.965 E0.05 F1200
G1 X0.966 Y0.966 E0.05 F1200
G1 X0.967 Y0.967 E0.05 F1200
G1 X0.968 Y0.968 E0.05 F1200
G1 X0.969 Y0.969 E0.05 F1200
G1 X0.97 Y0.97 E0.05 F1200
G1 X0.971 Y0.971 E0.05 F1200
G1 X0.972 Y0.972 E0.05 F1200
G1 X0.973 Y0.973 E0.05 F1200
G1 X0.974 Y0.974 E0.05 F1200
G1 X0.975 Y0.975 E0.05 F1200
G1 X0.976 Y0.976 E0.05 F1200
G1 X0.977 Y0.977 E0.05 F1200
G1 X0.978 Y0.978 E0.05 F1200
G1 X0.979 Y0.979 E0.05 F1200
G1 X0.98 Y0.98 E0.05 F1200
G1 X0.981 Y0.981 E0.05 F1200
G1 X0.982 Y0.982 E0.05 F1200
G1 X0.983 Y0.983 E0.05 F1200
G1 X0.984 Y0.984 E0.05 F1200
G1 X0.985 Y0.985 E0.05 F1200
G1 X0.986 Y0.986 E0.05 F1200
G1 X0.987 Y0.987 E0.05 F1200
G1 X0.988 Y0.988 E0.05 F1200
G1 X0.989 Y0.989 E0.05 F1200
G1 X0.99 Y0.99 E0.05 F1200
G1 X0.991 Y0.991 E0.05 F1200
G1 X0.992 Y0.992 E0.05 F1200
G1 X0.993 Y0.993 E0.05 F1200
G1 X0.994 Y0.994 E0.05 F1200
G1 X0.995 Y0.995 E0.05 F1200
G1 X0.996 Y0.996 E0.05 F1200
G1 X0.997 Y0.997 E0.05 F1200
G1 X0.998 Y0.998 E0.05 F1200
G1 X0.999 Y0.999 E0.05 F1200
; LAYER:1
G0 X1 Y1 Z0.2
G1 X1.0 Y1.0 E0.05 F1200
G1 X1.001 Y1.001 E0.05 F1200
G1 X1.002 Y1.002 E0.05 F1200
G1 X1.003 Y1.003 E0.05 F1200
G1 X1.004 Y1.004 E0.05 F1200
G1 X1.005 Y1.005 E0.05 F1200
G1 X1.006 Y1.006 E0.05 F1200
G1 X1.007 Y1.007 E0.05 F1200
G1 X1.008 Y1.008 E0.05 F1200
G1 X1.009 Y1.009 E0.05 F1200
G1 X1.01 Y1.01 E0.05 F1200
G1 X1.011 Y1.011 E0.05 F1200
G1 X1.012 Y1.012 E0.05 F1200
G1 X1.013 Y1.013 E0.05 F1200
G1 X1.014 Y1.014 E0.05 F1200
G1 X1.015 Y1.015 E0.05 F1200
G1 X1.016 Y1.016 E0.05 F1200
G1 X1.017 Y1.017 E0.05 F1200
G1 X1.018 Y1.018 E0.05 F1200
G1 X1.019 Y1.019 E0.05 F1200
G1 X1.02 Y1.02 E0.05 F1200
G1 X1.021 Y1.021 E0.05 F1200
G1 X1.022 Y1.022 E0.05 F1200
G1 X1.023 Y1.023 E0.05 F1200
G1 X1.024 Y1.024 E0.05 F1200
G1 X1.025 Y1.025 E0.05 F1200
G1 X1.026 Y1.026 E0.05 F1200
G1 X1.027 Y1.027 E0.05 F1200
G1 X1.028 Y1.028 E0.05 F1200
G1 X1.029 Y1.029 E0.05 F1200
G1 X1.03 Y1.03 E0.05 F1200
G1 X1.031 Y1.031 E0.05 F1200
G1 X1.032 Y1.032 E0.05 F1200
G1 X1.033 Y1.033 E0.05 F1200
G1 X1.034 Y1.034 E0.05 F1200
G1 X1.035 Y1.035 E0.05 F1200
G1 X1.036 Y1.036 E0.05 F1200
G1 X1.037 Y1.037 E0.05 F1200
G1 X1.038 Y1.038 E0.05 F1200
G1 X1.039 Y1.039 E0.05 F1200
G1 X1.04 Y1.04 E0.05 F1200
G1 X1.041 Y1.041 E0.05 F1200
G1 X1.042 Y1.042 E0.05 F1200
G1 X1.043 Y1.043 E0.05 F1200
G1 X1.044 Y1.044 E0.05 F1200
G1 X1.045 Y1.045 E0.05 F1200
G1 X1.046 Y1.046 E0.05 F1200
G1 X1.047 Y1.047 E0.05 F1200
G1 X1.048 Y1.048 E0.05 F1200
G1 X1.049 Y1.049 E0.05 F1200
G1 X1.05 Y1.05 E0.05 F1200
G1 X1.051 Y1.051 E0.05 F1200
G1 X1.052 Y1.052 E0.05 F1200
G1 X1.053 Y1.053 E0.05 F1200
G1 X1.054 Y1.054 E0.05 F1200
G1 X1.055 Y1.055 E0.05 F1200
G1 X1.056 Y1.056 E0.05 F1200
G1 X1.057 Y1.057 E0.05 F1200
G1 X1.058 Y1.058 E0.05 F1200
G1 X1.059 Y1.059 E0.05 F1200
G1 X1.06 Y1.06 E0.05 F1200
G1 X1.061 Y1.061 E0.05 F1200
G1 X1.062 Y1.062 E0.05 F1200
G1 X1.063 Y1.063 E0.05 F1200
G1 X1.064 Y1.064 E0.05 F1200
G1 X1.065 Y1.065 E0.05 F1200
G1 X1.066 Y1.066 E0.05 F1200
G1 X1.067 Y1.067 E0.05 F1200
G1 X1.068 Y1.068 E0.05 F1200
G1 X1.069 Y1.069 E0.05 F1200
G1 X1.07 Y1.07 E0.05 F1200
G1 X1.071 Y1.071 E0.05 F1200
G1 X1.072 Y1.072 E0.05 F1200
G1 X1.073 Y1.073 E0.05 F1200
G1 X1.074 Y1.074 E0.05 F1200
G1 X1.075 Y1.075 E0.05 F1200
G1 X1.076 Y1.076 E0.05 F1200
G1 X1.077 Y1.077 E0.05 F1200
G1 X1.078 Y1.078 E0.05 F1200
G1 X1.079 Y1.079 E0.05 F1200
G1 X1.08 Y1.08 E0.05 F1200
G1 X1.081 Y1.081 E0.05 F1200
G1 X1.082 Y1.082 E0.05 F1200
G1 X1.083 Y1.083 E0.05 F1200
G1 X1.084 Y1.084 E0.05 F1200
G1 X1.085 Y1.085 E0.05 F1200
G1 X1.086 Y1.086 E0.05 F1200
G1 X1.087 Y1.087 E0.05 F1200
G1 X1.088 Y1.088 E0.05 F1200
G1 X1.089 Y1.089 E0.05 F1200
G1 X1.09 Y1.09 E0.05 F1200
G1 X1.091 Y1.091 E0.05 F1200
G1 X1.092 Y1.092 E0.05 F1200
G1 X1.093 Y1.093 E0.05 F1200
G1 X1.094 Y1.094 E0.05 F1200
G1 X1.095 Y1.095 E0.05 F1200
G1 X1.096 Y1.096 E0.05 F1200
G1 X1.097 Y1.097 E0.05 F1200
G1 X1.098 Y1.098 E0.05 F1200
G1 X1.099 Y1.099 E0.05 F1200
G1 X1.1 Y1.1 E0.05 F1200
G1 X1.101 Y1.101 E0.05 F1200
G1 X1.102 Y1.102 E0.05 F1200
G1 X1.103 Y1.103 E0.05 F1200
G1 X1.104 Y1.104 E0.05 F1200
G1 X1.105 Y1.105 E0.05 F1200
G1 X1.106 Y1.106 E0.05 F1200
G1 X1.107 Y1.107 E0.05 F1200
G1 X1.108 Y1.108 E0.05 F1200
G1 X1.109 Y1.109 E0.05 F1200
G1 X1.11 Y1.11 E0.05 F1200
G1 X1.111 Y1.111 E0.05 F1200
G1 X1.112 Y1.112 E0.05 F1200
G1 X1.113 Y1.113 E0.05 F1200
G1 X1.114 Y1.114 E0.05 F1200
G1 X1.115 Y1.115 E0.05 F1200
G1 X1.116 Y1.116 E0.05 F1200
G1 X1.117 Y1.117 E0.05 F1200
G1 X1.1179999999999999 Y1.1179999999999999 E0.05 F1200
G1 X1.119 Y1.119 E0.05 F1200
G1 X1.12 Y1.12 E0.05 F1200
G1 X1.121 Y1.121 E0.05 F1200
G1 X1.1219999999999999 Y1.1219999999999999 E0.05 F1200
G1 X1.123 Y1.123 E0.05 F1200
G1 X1.124 Y1.124 E0.05 F1200
G1 X1.125 Y1.125 E0.05 F1200
G1 X1.126 Y1.126 E0.05 F1200
G1 X1.127 Y1.127 E0.05 F1200
G1 X1.1280000000000001 Y1.1280000000000001 E0.05 F1200
G1 X1.129 Y1.129 E0.05 F1200
G1 X1.13 Y1.13 E0.05 F1200
G1 X1.131 Y1.131 E0.05 F1200
G1 X1.1320000000000001 Y1.1320000000000001 E0.05 F1200
G1 X1.133 Y1.133 E0.05 F1200
G1 X1.134 Y1.134 E0.05 F1200
G1 X1.135 Y1.135 E0.05 F1200
G1 X1.1360000000000001 Y1.1360000000000001 E0.05 F1200
G1 X1.137 Y1.137 E0.05 F1200
G1 X1.138 Y1.138 E0.05 F1200
G1 X1.139 Y1.139 E0.05 F1200
G1 X1.1400000000000001 Y1.1400000000000001 E0.05 F1200
G1 X1.141 Y1.141 E0.05 F1200
G1 X1.142 Y1.142 E0.05 F1200
G1 X1.143 Y1.143 E0.05 F1200
G1 X1.144 Y1.144 E0.05 F1200
G1 X1.145 Y1.145 E0.05 F1200
G1 X1.146 Y1.146 E0.05 F1200
G1 X1.147 Y1.147 E0.05 F1200
G1 X1.148 Y1.148 E0.05 F1200
G1 X1.149 Y1.149 E0.05 F1200
G1 X1.15 Y1.15 E0.05 F1200
G1 X1.151 Y1.151 E0.05 F1200
G1 X1.152 Y1.152 E0.05 F1200
G1 X1.153 Y1.153 E0.05 F1200
G1 X1.154 Y1.154 E0.05 F1200
G1 X1.155 Y1.155 E0.05 F1200
G1 X1.156 Y1.156 E0.05 F1200
G1 X1.157 Y1.157 E0.05 F1200
G1 X1.158 Y1.158 E0.05 F1200
G1 X1.159 Y1.159 E0.05 F1200
G1 X1.16 Y1.16 E0.05 F1200
G1 X1.161 Y1.161 E0.05 F1200
G1 X1.162 Y1.162 E0.05 F1200
G1 X1.163 Y1.163 E0.05 F1200
G1 X1.164 Y1.164 E0.05 F1200
G1 X1.165 Y1.165 E0.05 F1200
G1 X1.166 Y1.166 E0.05 F1200
G1 X1.167 Y1.167 E0.05 F1200
G1 X1.168 Y1.168 E0.05 F1200
G1 X1.169 Y1.169 E0.05 F1200
G1 X1.17 Y1.17 E0.05 F1200
G1 X1.171 Y1.171 E0.05 F1200
G1 X1.172 Y1.172 E0.05 F1200
G1 X1.173 Y1.173 E0.05 F1200
G1 X1.174 Y1.174 E0.05 F1200
G1 X1.175 Y1.175 E0.05 F1200
G1 X1.176 Y1.176 E0.05 F1200
G1 X1.177 Y1.177 E0.05 F1200
G1 X1.178 Y1.178 E0.05 F1200
G1 X1.179 Y1.179 E0.05 F1200
G1 X1.18 Y1.18 E0.05 F1200
G1 X1.181 Y1.181 E0.05 F1200
G1 X1.182 Y1.182 E0.05 F1200
G1 X1.183 Y1.183 E0.05 F1200
G1 X1.184 Y1.184 E0.05 F1200
G1 X1.185 Y1.185 E0.05 F1200
G1 X1.186 Y1.186 E0.05 F1200
G1 X1.187 Y1.187 E0.05 F1200
G1 X1.188 Y1.188 E0.05 F1200
G1 X1.189 Y1.189 E0.05 F1200
G1 X1.19 Y1.19 E0.05 F1200
G1 X1.191 Y1.191 E0.05 F1200
G1 X1.192 Y1.192 E0.05 F1200
G1 X1.193 Y1.193 E0.05 F1200
G1 X1.194 Y1.194 E0.05 F1200
G1 X1.195 Y1.195 E0.05 F1200
G1 X1.196 Y1.196 E0.05 F1200
G1 X1.197 Y1.197 E0.05 F1200
G1 X1.198 Y1.198 E0.05 F1200
G1 X1.199 Y1.199 E0.05 F1200
G1 X1.2 Y1.2 E0.05 F1200
G1 X1.201 Y1.201 E0.05 F1200
G1 X1.202 Y1.202 E0.05 F1200
G1 X1.203 Y1.203 E0.05 F1200
G1 X1.204 Y1.204 E0.05 F1200
G1 X1.205 Y1.205 E0.05 F1200
G1 X1.206 Y1.206 E0.05 F1200
G1 X1.207 Y1.207 E0.05 F1200
G1 X1.208 Y1.208 E0.05 F1200
G1 X1.209 Y1.209 E0.05 F1200
G1 X1.21 Y1.21 E0.05 F1200
G1 X1.211 Y1.211 E0.05 F1200
G1 X1.212 Y1.212 E0.05 F1200
G1 X1.213 Y1.213 E0.05 F1200
G1 X1.214 Y1.214 E0.05 F1200
G1 X1.215 Y1.215 E0.05 F1200
G1 X1.216 Y1.216 E0.05 F1200
G1 X1.217 Y1.217 E0.05 F1200
G1 X1.218 Y1.218 E0.05 F1200
G1 X1.219 Y1.219 E0.05 F1200
G1 X1.22 Y1.22 E0.05 F1200
G1 X1.221 Y1.221 E0.05 F1200
G1 X1.222 Y1.222 E0.05 F1200
G1 X1.223 Y1.223 E0.05 F1200
G1 X1.224 Y1.224 E0.05 F1200
G1 X1.225 Y1.225 E0.05 F1200
G1 X1.226 Y1.226 E0.05 F1200
G1 X1.227 Y1.227 E0.05 F1200
G1 X1.228 Y1.228 E0.05 F1200
G1 X1.229 Y1.229 E0.05 F1200
G1 X1.23 Y1.23 E0.05 F1200
G1 X1.231 Y1.231 E0.05 F1200
G1 X1.232 Y1.232 E0.05 F1200
G1 X1.233 Y1.233 E0.05 F1200
G1 X1.234 Y1.234 E0.05 F1200
G1 X1.2349999999999999 Y1.2349999999999999 E0.05 F1200
G1 X1.236 Y1.236 E0.05 F1200
G1 X1.237 Y1.237 E0.05 F1200
G1 X1.238 Y1.238 E0.05 F1200
G1 X1.2389999999999999 Y1.2389999999999999 E0.05 F1200
G1 X1.24 Y1.24 E0.05 F1200
G1 X1.241 Y1.241 E0.05 F1200
G1 X1.242 Y1.242 E0.05 F1200
G1 X1.2429999999999999 Y1.2429999999999999 E0.05 F1200
G1 X1.244 Y1.244 E0.05 F1200
G1 X1.245 Y1.245 E0.05 F1200
G1 X1.246 Y1.246 E0.05 F1200
G1 X1.2469999999999999 Y1.2469999999999999 E0.05 F1200
G1 X1.248 Y1.248 E0.05 F1200
G1 X1.249 Y1.249 E0.05 F1200
G1 X1.25 Y1.25 E0.05 F1200
G1 X1.251 Y1.251 E0.05 F1200
G1 X1.252 Y1.252 E0.05 F1200
G1 X1.2530000000000001 Y1.2530000000000001 E0.05 F1200
G1 X1.254 Y1.254 E0.05 F1200
G1 X1.255 Y1.255 E0.05 F1200
G1 X1.256 Y1.256 E0.05 F1200
G1 X1.2570000000000001 Y1.2570000000000001 E0.05 F1200
G1 X1.258 Y1.258 E0.05 F1200
G1 X1.259 Y1.259 E0.05 F1200
G1 X1.26 Y1.26 E0.05 F1200
G1 X1.2610000000000001 Y1.2610000000000001 E0.05 F1200
G1 X1.262 Y1.262 E0.05 F1200
G1 X1.263 Y1.263 E0.05 F1200
G1 X1.264 Y1.264 E0.05 F1200
G1 X1.2650000000000001 Y1.2650000000000001 E0.05 F1200
G1 X1.266 Y1.266 E0.05 F1200
G1 X1.267 Y1.267 E0.05 F1200
G1 X1.268 Y1.268 E0.05 F1200
G1 X1.2690000000000001 Y1.2690000000000001 E0.05 F1200
G1 X1.27 Y1.27 E0.05 F1200
G1 X1.271 Y1.271 E0.05 F1200
G1 X1.272 Y1.272 E0.05 F1200
G1 X1.2730000000000001 Y1.2730000000000001 E0.05 F1200
G1 X1.274 Y1.274 E0.05 F1200
G1 X1.275 Y1.275 E0.05 F1200
G1 X1.276 Y1.276 E0.05 F1200
G1 X1.2770000000000001 Y1.2770000000000001 E0.05 F1200
G1 X1.278 Y1.278 E0.05 F1200
G1 X1.279 Y1.279 E0.05 F1200
G1 X1.28 Y1.28 E0.05 F1200
G1 X1.2810000000000001 Y1.2810000000000001 E0.05 F1200
G1 X1.282 Y1.282 E0.05 F1200
G1 X1.283 Y1.283 E0.05 F1200
G1 X1.284 Y1.284 E0.05 F1200
G1 X1.285 Y1.285 E0.05 F1200
G1 X1.286 Y1.286 E0.05 F1200
G1 X1.287 Y1.287 E0.05 F1200
G1 X1.288 Y1.288 E0.05 F1200
G1 X1.289 Y1.289 E0.05 F1200
G1 X1.29 Y1.29 E0.05 F1200
G1 X1.291 Y1.291 E0.05 F1200
G1 X1.292 Y1.292 E0.05 F1200
G1 X1.293 Y1.293 E0.05 F1200
G1 X1.294 Y1.294 E0.05 F1200
G1 X1.295 Y1.295 E0.05 F1200
G1 X1.296 Y1.296 E0.05 F1200
G1 X1.297 Y1.297 E0.05 F1200
G1 X1.298 Y1.298 E0.05 F1200
G1 X1.299 Y1.299 E0.05 F1200
G1 X1.3 Y1.3 E0.05 F1200
G1 X1.301 Y1.301 E0.05 F1200
G1 X1.302 Y1.302 E0.05 F1200
G1 X1.303 Y1.303 E0.05 F1200
G1 X1.304 Y1.304 E0.05 F1200
G1 X1.305 Y1.305 E0.05 F1200
G1 X1.306 Y1.306 E0.05 F1200
G1 X1.307 Y1.307 E0.05 F1200
G1 X1.308 Y1.308 E0.05 F1200
G1 X1.309 Y1.309 E0.05 F1200
G1 X1.31 Y1.31 E0.05 F1200
G1 X1.311 Y1.311 E0.05 F1200
G1 X1.312 Y1.312 E0.05 F1200
G1 X1.313 Y1.313 E0.05 F1200
G1 X1.314 Y1.314 E0.05 F1200
G1 X1.315 Y1.315 E0.05 F1200
G1 X1.316 Y1.316 E0.05 F1200
G1 X1.317 Y1.317 E0.05 F1200
G1 X1.318 Y1.318 E0.05 F1200
G1 X1.319 Y1.319 E0.05 F1200
G1 X1.32 Y1.32 E0.05 F1200
G1 X1.321 Y1.321 E0.05 F1200
G1 X1.322 Y1.322 E0.05 F1200
G1 X1.323 Y1.323 E0.05 F1200
G1 X1.324 Y1.324 E0.05 F1200
G1 X1.325 Y1.325 E0.05 F1200
G1 X1.326 Y1.326 E0.05 F1200
G1 X1.327 Y1.327 E0.05 F1200
G1 X1.328 Y1.328 E0.05 F1200
G1 X1.329 Y1.329 E0.05 F1200
G1 X1.33 Y1.33 E0.05 F1200
G1 X1.331 Y1.331 E0.05 F1200
G1 X1.332 Y1.332 E0.05 F1200
G1 X1.333 Y1.333 E0.05 F1200
G1 X1.334 Y1.334 E0.05 F1200
G1 X1.335 Y1.335 E0.05 F1200
G1 X1.336 Y1.336 E0.05 F1200
G1 X1.337 Y1.337 E0.05 F1200
G1 X1.338 Y1.338 E0.05 F1200
G1 X1.339 Y1.339 E0.05 F1200
G1 X1.34 Y1.34 E0.05 F1200
G1 X1.341 Y1.341 E0.05 F1200
G1 X1.342 Y1.342 E0.05 F1200
G1 X1.343 Y1.343 E0.05 F1200
G1 X1.3439999999999999 Y1.3439999999999999 E0.05 F1200
G1 X1.345 Y1.345 E0.05 F1200
G1 X1.346 Y1.346 E0.05 F1200
G1 X1.347 Y1.347 E0.05 F1200
G1 X1.3479999999999999 Y1.3479999999999999 E0.05 F1200
G1 X1.349 Y1.349 E0.05 F1200
G1 X1.35 Y1.35 E0.05 F1200
G1 X1.351 Y1.351 E0.05 F1200
G1 X1.3519999999999999 Y1.3519999999999999 E0.05 F1200
G1 X1.353 Y1.353 E0.05 F1200
G1 X1.354 Y1.354 E0.05 F1200
G1 X1.355 Y1.355 E0.05 F1200
G1 X1.3559999999999999 Y1.3559999999999999 E0.05 F1200
G1 X1.357 Y1.357 E0.05 F1200
G1 X1.358 Y1.358 E0.05 F1200
G1 X1.359 Y1.359 E0.05 F1200
G1 X1.3599999999999999 Y1.3599999999999999 E0.05 F1200
G1 X1.361 Y1.361 E0.05 F1200
G1 X1.362 Y1.362 E0.05 F1200
G1 X1.363 Y1.363 E0.05 F1200
G1 X1.3639999999999999 Y1.3639999999999999 E0.05 F1200
G1 X1.365 Y1.365 E0.05 F1200
G1 X1.366 Y1.366 E0.05 F1200
G1 X1.367 Y1.367 E0.05 F1200
G1 X1.3679999999999999 Y1.3679999999999999 E0.05 F1200
G1 X1.369 Y1.369 E0.05 F1200
G1 X1.37 Y1.37 E0.05 F1200
G1 X1.371 Y1.371 E0.05 F1200
G1 X1.3719999999999999 Y1.3719999999999999 E0.05 F1200
G1 X1.373 Y1.373 E0.05 F1200
G1 X1.374 Y1.374 E0.05 F1200
G1 X1.375 Y1.375 E0.05 F1200
G1 X1.376 Y1.376 E0.05 F1200
G1 X1.377 Y1.377 E0.05 F1200
G1 X1.3780000000000001 Y1.3780000000000001 E0.05 F1200
G1 X1.379 Y1.379 E0.05 F1200
G1 X1.38 Y1.38 E0.05 F1200
G1 X1.381 Y1.381 E0.05 F1200
G1 X1.3820000000000001 Y1.3820000000000001 E0.05 F1200
G1 X1.383 Y1.383 E0.05 F1200
G1 X1.384 Y1.384 E0.05 F1200
G1 X1.385 Y1.385 E0.05 F1200
G1 X1.3860000000000001 Y1.3860000000000001 E0.05 F1200
G1 X1.387 Y1.387 E0.05 F1200
G1 X1.388 Y1.388 E0.05 F1200
G1 X1.389 Y1.389 E0.05 F1200
G1 X1.3900000000000001 Y1.3900000000000001 E0.05 F1200
G1 X1.391 Y1.391 E0.05 F1200
G1 X1.392 Y1.392 E0.05 F1200
G1 X1.393 Y1.393 E0.05 F1200
G1 X1.3940000000000001 Y1.3940000000000001 E0.05 F1200
G1 X1.395 Y1.395 E0.05 F1200
G1 X1.396 Y1.396 E0.05 F1200
G1 X1.397 Y1.397 E0.05 F1200
G1 X1.3980000000000001 Y1.3980000000000001 E0.05 F1200
G1 X1.399 Y1.399 E0.05 F1200
G1 X1.4 Y1.4 E0.05 F1200
G1 X1.401 Y1.401 E0.05 F1200
G1 X1.4020000000000001 Y1.4020000000000001 E0.05 F1200
G1 X1.403 Y1.403 E0.05 F1200
G1 X1.404 Y1.404 E0.05 F1200
G1 X1.405 Y1.405 E0.05 F1200
G1 X1.4060000000000001 Y1.4060000000000001 E0.05 F1200
G1 X1.407 Y1.407 E0.05 F1200
G1 X1.408 Y1.408 E0.05 F1200
G1 X1.409 Y1.409 E0.05 F1200
G1 X1.41 Y1.41 E0.05 F1200
G1 X1.411 Y1.411 E0.05 F1200
G1 X1.412 Y1.412 E0.05 F1200
G1 X1.413 Y1.413 E0.05 F1200
G1 X1.414 Y1.414 E0.05 F1200
G1 X1.415 Y1.415 E0.05 F1200
G1 X1.416 Y1.416 E0.05 F1200
G1 X1.417 Y1.417 E0.05 F1200
G1 X1.418 Y1.418 E0.05 F1200
G1 X1.419 Y1.419 E0.05 F1200
G1 X1.42 Y1.42 E0.05 F1200
G1 X1.421 Y1.421 E0.05 F1200
G1 X1.422 Y1.422 E0.05 F1200
G1 X1.423 Y1.423 E0.05 F1200
G1 X1.424 Y1.424 E0.05 F1200
G1 X1.425 Y1.425 E0.05 F1200
G1 X1.426 Y1.426 E0.05 F1200
G1 X1.427 Y1.427 E0.05 F1200
G1 X1.428 Y1.428 E0.05 F1200
G1 X1.429 Y1.429 E0.05 F1200
G1 X1.43 Y1.43 E0.05 F1200
G1 X1.431 Y1.431 E0.05 F1200
G1 X1.432 Y1.432 E0.05 F1200
G1 X1.433 Y1.433 E0.05 F1200
G1 X1.434 Y1.434 E0.05 F1200
G1 X1.435 Y1.435 E0.05 F1200
G1 X1.436 Y1.436 E0.05 F1200
G1 X1.437 Y1.437 E0.05 F1200
G1 X1.438 Y1.438 E0.05 F1200
G1 X1.439 Y1.439 E0.05 F1200
G1 X1.44 Y1.44 E0.05 F1200
G1 X1.441 Y1.441 E0.05 F1200
G1 X1.442 Y1.442 E0.05 F1200
G1 X1.443 Y1.443 E0.05 F1200
G1 X1.444 Y1.444 E0.05 F1200
G1 X1.445 Y1.445 E0.05 F1200
G1 X1.446 Y1.446 E0.05 F1200
G1 X1.447 Y1.447 E0.05 F1200
G1 X1.448 Y1.448 E0.05 F1200
G1 X1.449 Y1.449 E0.05 F1200
G1 X1.45 Y1.45 E0.05 F1200
G1 X1.451 Y1.451 E0.05 F1200
G1 X1.452 Y1.452 E0.05 F1200
G1 X1.453 Y1.453 E0.05 F1200
G1 X1.454 Y1.454 E0.05 F1200
G1 X1.455 Y1.455 E0.05 F1200
G1 X1.456 Y1.456 E0.05 F1200
G1 X1.457 Y1.457 E0.05 F1200
G1 X1.458 Y1.458 E0.05 F1200
G1 X1.459 Y1.459 E0.05 F1200
G1 X1.46 Y1.46 E0.05 F1200
G1 X1.461 Y1.461 E0.05 F1200
G1 X1.462 Y1.462 E0.05 F1200
G1 X1.463 Y1.463 E0.05 F1200
G1 X1.464 Y1.464 E0.05 F1200
G1 X1.465 Y1.465 E0.05 F1200
G1 X1.466 Y1.466 E0.05 F1200
G1 X1.467 Y1.467 E0.05 F1200
G1 X1.468 Y1.468 E0.05 F1200
G1 X1.4689999999999999 Y1.4689999999999999 E0.05 F1200
G1 X1.47 Y1.47 E0.05 F1200
G1 X1.471 Y1.471 E0.05 F1200
G1 X1.472 Y1.472 E0.05 F1200
G1 X1.4729999999999999 Y1.4729999999999999 E0.05 F1200
G1 X1.474 Y1.474 E0.05 F1200
G1 X1.475 Y1.475 E0.05 F1200
G1 X1.476 Y1.476 E0.05 F1200
G1 X1.4769999999999999 Y1.4769999999999999 E0.05 F1200
G1 X1.478 Y1.478 E0.05 F1200
G1 X1.479 Y1.479 E0.05 F1200
G1 X1.48 Y1.48 E0.05 F1200
G1 X1.4809999999999999 Y1.4809999999999999 E0.05 F1200
G1 X1.482 Y1.482 E0.05 F1200
G1 X1.483 Y1.483 E0.05 F1200
G1 X1.484 Y1.484 E0.05 F1200
G1 X1.4849999999999999 Y1.4849999999999999 E0.05 F1200
G1 X1.486 Y1.486 E0.05 F1200
G1 X1.487 Y1.487 E0.05 F1200
G1 X1.488 Y1.488 E0.05 F1200
G1 X1.4889999999999999 Y1.4889999999999999 E0.05 F1200
G1 X1.49 Y1.49 E0.05 F1200
G1 X1.491 Y1.491 E0.05 F1200
G1 X1.492 Y1.492 E0.05 F1200
G1 X1.4929999999999999 Y1.4929999999999999 E0.05 F1200
G1 X1.494 Y1.494 E0.05 F1200
G1 X1.495 Y1.495 E0.05 F1200
G1 X1.496 Y1.496 E0.05 F1200
G1 X1.4969999999999999 Y1.4969999999999999 E0.05 F1200
G1 X1.498 Y1.498 E0.05 F1200
G1 X1.499 Y1.499 E0.05 F1200
G1 X1.5 Y1.5 E0.05 F1200
G1 X1.501 Y1.501 E0.05 F1200
G1 X1.502 Y1.502 E0.05 F1200
G1 X1.5030000000000001 Y1.5030000000000001 E0.05 F1200
G1 X1.504 Y1.504 E0.05 F1200
G1 X1.505 Y1.505 E0.05 F1200
G1 X1.506 Y1.506 E0.05 F1200
G1 X1.5070000000000001 Y1.5070000000000001 E0.05 F1200
G1 X1.508 Y1.508 E0.05 F1200
G1 X1.509 Y1.509 E0.05 F1200
G1 X1.51 Y1.51 E0.05 F1200
G1 X1.5110000000000001 Y1.5110000000000001 E0.05 F1200
G1 X1.512 Y1.512 E0.05 F1200
G1 X1.513 Y1.513 E0.05 F1200
G1 X1.514 Y1.514 E0.05 F1200
G1 X1.5150000000000001 Y1.5150000000000001 E0.05 F1200
G1 X1.516 Y1.516 E0.05 F1200
G1 X1.517 Y1.517 E0.05 F1200
G1 X1.518 Y1.518 E0.05 F1200
G1 X1.5190000000000001 Y1.5190000000000001 E0.05 F1200
G1 X1.52 Y1.52 E0.05 F1200
G1 X1.521 Y1.521 E0.05 F1200
G1 X1.522 Y1.522 E0.05 F1200
G1 X1.5230000000000001 Y1.5230000000000001 E0.05 F1200
G1 X1.524 Y1.524 E0.05 F1200
G1 X1.525 Y1.525 E0.05 F1200
G1 X1.526 Y1.526 E0.05 F1200
G1 X1.5270000000000001 Y1.5270000000000001 E0.05 F1200
G1 X1.528 Y1.528 E0.05 F1200
G1 X1.529 Y1.529 E0.05 F1200
G1 X1.53 Y1.53 E0.05 F1200
G1 X1.5310000000000001 Y1.5310000000000001 E0.05 F1200
G1 X1.532 Y1.532 E0.05 F1200
G1 X1.533 Y1.533 E0.05 F1200
G1 X1.534 Y1.534 E0.05 F1200
G1 X1.5350000000000001 Y1.5350000000000001 E0.05 F1200
G1 X1.536 Y1.536 E0.05 F1200
G1 X1.537 Y1.537 E0.05 F1200
G1 X1.538 Y1.538 E0.05 F1200
G1 X1.5390000000000001 Y1.5390000000000001 E0.05 F1200
G1 X1.54 Y1.54 E0.05 F1200
G1 X1.541 Y1.541 E0.05 F1200
G1 X1.542 Y1.542 E0.05 F1200
G1 X1.5430000000000001 Y1.5430000000000001 E0.05 F1200
G1 X1.544 Y1.544 E0.05 F1200
G1 X1.545 Y1.545 E0.05 F1200
G1 X1.546 Y1.546 E0.05 F1200
G1 X1.5470000000000002 Y1.5470000000000002 E0.05 F1200
G1 X1.548 Y1.548 E0.05 F1200
G1 X1.549 Y1.549 E0.05 F1200
G1 X1.55 Y1.55 E0.05 F1200
G1 X1.5510000000000002 Y1.5510000000000002 E0.05 F1200
G1 X1.552 Y1.552 E0.05 F1200
G1 X1.553 Y1.553 E0.05 F1200
G1 X1.554 Y1.554 E0.05 F1200
G1 X1.5550000000000002 Y1.5550000000000002 E0.05 F1200
G1 X1.556 Y1.556 E0.05 F1200
G1 X1.557 Y1.557 E0.05 F1200
G1 X1.558 Y1.558 E0.05 F1200
G1 X1.5590000000000002 Y1.5590000000000002 E0.05 F1200
G1 X1.56 Y1.56 E0.05 F1200
G1 X1.561 Y1.561 E0.05 F1200
G1 X1.562 Y1.562 E0.05 F1200
G1 X1.563 Y1.563 E0.05 F1200
G1 X1.564 Y1.564 E0.05 F1200
G1 X1.565 Y1.565 E0.05 F1200
G1 X1.5659999999999998 Y1.5659999999999998 E0.05 F1200
G1 X1.567 Y1.567 E0.05 F1200
G1 X1.568 Y1.568 E0.05 F1200
G1 X1.569 Y1.569 E0.05 F1200
G1 X1.5699999999999998 Y1.5699999999999998 E0.05 F1200
G1 X1.571 Y1.571 E0.05 F1200
G1 X1.572 Y1.572 E0.05 F1200
G1 X1.573 Y1.573 E0.05 F1200
G1 X1.5739999999999998 Y1.5739999999999998 E0.05 F1200
G1 X1.575 Y1.575 E0.05 F1200
G1 X1.576 Y1.576 E0.05 F1200
G1 X1.577 Y1.577 E0.05 F1200
G1 X1.5779999999999998 Y1.5779999999999998 E0.05 F1200
G1 X1.579 Y1.579 E0.05 F1200
G1 X1.58 Y1.58 E0.05 F1200
G1 X1.581 Y1.581 E0.05 F1200
G1 X1.5819999999999999 Y1.5819999999999999 E0.05 F1200
G1 X1.583 Y1.583 E0.05 F1200
G1 X1.584 Y1.584 E0.05 F1200
G1 X1.585 Y1.585 E0.05 F1200
G1 X1.5859999999999999 Y1.5859999999999999 E0.05 F1200
G1 X1.587 Y1.587 E0.05 F1200
G1 X1.588 Y1.588 E0.05 F1200
G1 X1.589 Y1.589 E0.05 F1200
G1 X1.5899999999999999 Y1.5899999999999999 E0.05 F1200
G1 X1.591 Y1.591 E0.05 F1200
G1 X1.592 Y1.592 E0.05 F1200
G1 X1.593 Y1.593 E0.05 F1200
G1 X1.5939999999999999 Y1.5939999999999999 E0.05 F1200
G1 X1.595 Y1.595 E0.05 F1200
G1 X1.596 Y1.596 E0.05 F1200
G1 X1.597 Y1.597 E0.05 F1200
G1 X1.5979999999999999 Y1.5979999999999999 E0.05 F1200
G1 X1.599 Y1.599 E0.05 F1200
G1 X1.6 Y1.6 E0.05 F1200
G1 X1.601 Y1.601 E0.05 F1200
G1 X1.6019999999999999 Y1.6019999999999999 E0.05 F1200
G1 X1.603 Y1.603 E0.05 F1200
G1 X1.604 Y1.604 E0.05 F1200
G1 X1.605 Y1.605 E0.05 F1200
G1 X1.6059999999999999 Y1.6059999999999999 E0.05 F1200
G1 X1.607 Y1.607 E0.05 F1200
G1 X1.608 Y1.608 E0.05 F1200
G1 X1.609 Y1.609 E0.05 F1200
G1 X1.6099999999999999 Y1.6099999999999999 E0.05 F1200
G1 X1.611 Y1.611 E0.05 F1200
G1 X1.612 Y1.612 E0.05 F1200
G1 X1.613 Y1.613 E0.05 F1200
G1 X1.6139999999999999 Y1.6139999999999999 E0.05 F1200
G1 X1.615 Y1.615 E0.05 F1200
G1 X1.616 Y1.616 E0.05 F1200
G1 X1.617 Y1.617 E0.05 F1200
G1 X1.6179999999999999 Y1.6179999999999999 E0.05 F1200
G1 X1.619 Y1.619 E0.05 F1200
G1 X1.62 Y1.62 E0.05 F1200
G1 X1.621 Y1.621 E0.05 F1200
G1 X1.6219999999999999 Y1.6219999999999999 E0.05 F1200
G1 X1.623 Y1.623 E0.05 F1200
G1 X1.624 Y1.624 E0.05 F1200
G1 X1.625 Y1.625 E0.05 F1200
G1 X1.626 Y1.626 E0.05 F1200
G1 X1.627 Y1.627 E0.05 F1200
G1 X1.6280000000000001 Y1.6280000000000001 E0.05 F1200
G1 X1.629 Y1.629 E0.05 F1200
G1 X1.63 Y1.63 E0.05 F1200
G1 X1.631 Y1.631 E0.05 F1200
G1 X1.6320000000000001 Y1.6320000000000001 E0.05 F1200
G1 X1.633 Y1.633 E0.05 F1200
G1 X1.634 Y1.634 E0.05 F1200
G1 X1.635 Y1.635 E0.05 F1200
G1 X1.6360000000000001 Y1.6360000000000001 E0.05 F1200
G1 X1.637 Y1.637 E0.05 F1200
G1 X1.638 Y1.638 E0.05 F1200
G1 X1.639 Y1.639 E0.05 F1200
G1 X1.6400000000000001 Y1.6400000000000001 E0.05 F1200
G1 X1.641 Y1.641 E0.05 F1200
G1 X1.642 Y1.642 E0.05 F1200
G1 X1.643 Y1.643 E0.05 F1200
G1 X1.6440000000000001 Y1.6440000000000001 E0.05 F1200
G1 X1.645 Y1.645 E0.05 F1200
G1 X1.646 Y1.646 E0.05 F1200
G1 X1.647 Y1.647 E0.05 F1200
G1 X1.6480000000000001 Y1.6480000000000001 E0.05 F1200
G1 X1.649 Y1.649 E0.05 F1200
G1 X1.65 Y1.65 E0.05 F1200
G1 X1.651 Y1.651 E0.05 F1200
G1 X1.6520000000000001 Y1.6520000000000001 E0.05 F1200
G1 X1.653 Y1.653 E0.05 F1200
G1 X1.654 Y1.654 E0.05 F1200
G1 X1.655 Y1.655 E0.05 F1200
G1 X1.6560000000000001 Y1.6560000000000001 E0.05 F1200
G1 X1.657 Y1.657 E0.05 F1200
G1 X1.658 Y1.658 E0.05 F1200
G1 X1.659 Y1.659 E0.05 F1200
G1 X1.6600000000000001 Y1.6600000000000001 E0.05 F1200
G1 X1.661 Y1.661 E0.05 F1200
G1 X1.662 Y1.662 E0.05 F1200
G1 X1.663 Y1.663 E0.05 F1200
G1 X1.6640000000000001 Y1.6640000000000001 E0.05 F1200
G1 X1.665 Y1.665 E0.05 F1200
G1 X1.666 Y1.666 E0.05 F1200
G1 X1.667 Y1.667 E0.05 F1200
G1 X1.6680000000000001 Y1.6680000000000001 E0.05 F1200
G1 X1.669 Y1.669 E0.05 F1200
G1 X1.67 Y1.67 E0.05 F1200
G1 X1.671 Y1.671 E0.05 F1200
G1 X1.6720000000000002 Y1.6720000000000002 E0.05 F1200
G1 X1.673 Y1.673 E0.05 F1200
G1 X1.674 Y1.674 E0.05 F1200
G1 X1.675 Y1.675 E0.05 F1200
G1 X1.6760000000000002 Y1.6760000000000002 E0.05 F1200
G1 X1.677 Y1.677 E0.05 F1200
G1 X1.678 Y1.678 E0.05 F1200
G1 X1.679 Y1.679 E0.05 F1200
G1 X1.6800000000000002 Y1.6800000000000002 E0.05 F1200
G1 X1.681 Y1.681 E0.05 F1200
G1 X1.682 Y1.682 E0.05 F1200
G1 X1.683 Y1.683 E0.05 F1200
G1 X1.6840000000000002 Y1.6840000000000002 E0.05 F1200
G1 X1.685 Y1.685 E0.05 F1200
G1 X1.686 Y1.686 E0.05 F1200
G1 X1.687 Y1.687 E0.05 F1200
G1 X1.688 Y1.688 E0.05 F1200
G1 X1.689 Y1.689 E0.05 F1200
G1 X1.69 Y1.69 E0.05 F1200
G1 X1.6909999999999998 Y1.6909999999999998 E0.05 F1200
G1 X1.692 Y1.692 E0.05 F1200
G1 X1.693 Y1.693 E0.05 F1200
G1 X1.694 Y1.694 E0.05 F1200
G1 X1.6949999999999998 Y1.6949999999999998 E0.05 F1200
G1 X1.696 Y1.696 E0.05 F1200
G1 X1.697 Y1.697 E0.05 F1200
G1 X1.698 Y1.698 E0.05 F1200
G1 X1.6989999999999998 Y1.6989999999999998 E0.05 F1200
G1 X1.7 Y1.7 E0.05 F1200
G1 X1.701 Y1.701 E0.05 F1200
G1 X1.702 Y1.702 E0.05 F1200
G1 X1.7029999999999998 Y1.7029999999999998 E0.05 F1200
G1 X1.704 Y1.704 E0.05 F1200
G1 X1.705 Y1.705 E0.05 F1200
G1 X1.706 Y1.706 E0.05 F1200
G1 X1.7069999999999999 Y1.7069999999999999 E0.05 F1200
G1 X1.708 Y1.708 E0.05 F1200
G1 X1.709 Y1.709 E0.05 F1200
G1 X1.71 Y1.71 E0.05 F1200
G1 X1.7109999999999999 Y1.7109999999999999 E0.05 F1200
G1 X1.712 Y1.712 E0.05 F1200
G1 X1.713 Y1.713 E0.05 F1200
G1 X1.714 Y1.714 E0.05 F1200
G1 X1.7149999999999999 Y1.7149999999999999 E0.05 F1200
G1 X1.716 Y1.716 E0.05 F1200
G1 X1.717 Y1.717 E0.05 F1200
G1 X1.718 Y1.718 E0.05 F1200
G1 X1.7189999999999999 Y1.7189999999999999 E0.05 F1200
G1 X1.72 Y1.72 E0.05 F1200
G1 X1.721 Y1.721 E0.05 F1200
G1 X1.722 Y1.722 E0.05 F1200
G1 X1.7229999999999999 Y1.7229999999999999 E0.05 F1200
G1 X1.724 Y1.724 E0.05 F1200
G1 X1.725 Y1.725 E0.05 F1200
G1 X1.726 Y1.726 E0.05 F1200
G1 X1.7269999999999999 Y1.7269999999999999 E0.05 F1200
G1 X1.728 Y1.728 E0.05 F1200
G1 X1.729 Y1.729 E0.05 F1200
G1 X1.73 Y1.73 E0.05 F1200
G1 X1.7309999999999999 Y1.7309999999999999 E0.05 F1200
G1 X1.732 Y1.732 E0.05 F1200
G1 X1.733 Y1.733 E0.05 F1200
G1 X1.734 Y1.734 E0.05 F1200
G1 X1.7349999999999999 Y1.7349999999999999 E0.05 F1200
G1 X1.736 Y1.736 E0.05 F1200
G1 X1.737 Y1.737 E0.05 F1200
G1 X1.738 Y1.738 E0.05 F1200
G1 X1.7389999999999999 Y1.7389999999999999 E0.05 F1200
G1 X1.74 Y1.74 E0.05 F1200
G1 X1.741 Y1.741 E0.05 F1200
G1 X1.742 Y1.742 E0.05 F1200
G1 X1.7429999999999999 Y1.7429999999999999 E0.05 F1200
G1 X1.744 Y1.744 E0.05 F1200
G1 X1.745 Y1.745 E0.05 F1200
G1 X1.746 Y1.746 E0.05 F1200
G1 X1.7469999999999999 Y1.7469999999999999 E0.05 F1200
G1 X1.748 Y1.748 E0.05 F1200
G1 X1.749 Y1.749 E0.05 F1200
G1 X1.75 Y1.75 E0.05 F1200
G1 X1.751 Y1.751 E0.05 F1200
G1 X1.752 Y1.752 E0.05 F1200
G1 X1.7530000000000001 Y1.7530000000000001 E0.05 F1200
G1 X1.754 Y1.754 E0.05 F1200
G1 X1.755 Y1.755 E0.05 F1200
G1 X1.756 Y1.756 E0.05 F1200
G1 X1.7570000000000001 Y1.7570000000000001 E0.05 F1200
G1 X1.758 Y1.758 E0.05 F1200
G1 X1.759 Y1.759 E0.05 F1200
G1 X1.76 Y1.76 E0.05 F1200
G1 X1.7610000000000001 Y1.7610000000000001 E0.05 F1200
G1 X1.762 Y1.762 E0.05 F1200
G1 X1.763 Y1.763 E0.05 F1200
G1 X1.764 Y1.764 E0.05 F1200
G1 X1.7650000000000001 Y1.7650000000000001 E0.05 F1200
G1 X1.766 Y1.766 E0.05 F1200
G1 X1.767 Y1.767 E0.05 F1200
G1 X1.768 Y1.768 E0.05 F1200
G1 X1.7690000000000001 Y1.7690000000000001 E0.05 F1200
G1 X1.77 Y1.77 E0.05 F1200
G1 X1.771 Y1.771 E0.05 F1200
G1 X1.772 Y1.772 E0.05 F1200
G1 X1.7730000000000001 Y1.7730000000000001 E0.05 F1200
G1 X1.774 Y1.774 E0.05 F1200
G1 X1.775 Y1.775 E0.05 F1200
G1 X1.776 Y1.776 E0.05 F1200
G1 X1.7770000000000001 Y1.7770000000000001 E0.05 F1200
G1 X1.778 Y1.778 E0.05 F1200
G1 X1.779 Y1.779 E0.05 F1200
G1 X1.78 Y1.78 E0.05 F1200
G1 X1.7810000000000001 Y1.7810000000000001 E0.05 F1200
G1 X1.782 Y1.782 E0.05 F1200
G1 X1.783 Y1.783 E0.05 F1200
G1 X1.784 Y1.784 E0.05 F1200
G1 X1.7850000000000001 Y1.7850000000000001 E0.05 F1200
G1 X1.786 Y1.786 E0.05 F1200
G1 X1.787 Y1.787 E0.05 F1200
G1 X1.788 Y1.788 E0.05 F1200
G1 X1.7890000000000001 Y1.7890000000000001 E0.05 F1200
G1 X1.79 Y1.79 E0.05 F1200
G1 X1.791 Y1.791 E0.05 F1200
G1 X1.792 Y1.792 E0.05 F1200
G1 X1.7930000000000001 Y1.7930000000000001 E0.05 F1200
G1 X1.794 Y1.794 E0.05 F1200
G1 X1.795 Y1.795 E0.05 F1200
G1 X1.796 Y1.796 E0.05 F1200
G1 X1.7970000000000002 Y1.7970000000000002 E0.05 F1200
G1 X1.798 Y1.798 E0.05 F1200
G1 X1.799 Y1.799 E0.05 F1200
G1 X1.8 Y1.8 E0.05 F1200
G1 X1.8010000000000002 Y1.8010000000000002 E0.05 F1200
G1 X1.802 Y1.802 E0.05 F1200
G1 X1.803 Y1.803 E0.05 F1200
G1 X1.804 Y1.804 E0.05 F1200
G1 X1.8050000000000002 Y1.8050000000000002 E0.05 F1200
G1 X1.806 Y1.806 E0.05 F1200
G1 X1.807 Y1.807 E0.05 F1200
G1 X1.808 Y1.808 E0.05 F1200
G1 X1.8090000000000002 Y1.8090000000000002 E0.05 F1200
G1 X1.81 Y1.81 E0.05 F1200
G1 X1.811 Y1.811 E0.05 F1200
G1 X1.812 Y1.812 E0.05 F1200
G1 X1.813 Y1.813 E0.05 F1200
G1 X1.814 Y1.814 E0.05 F1200
G1 X1.815 Y1.815 E0.05 F1200
G1 X1.8159999999999998 Y1.8159999999999998 E0.05 F1200
G1 X1.817 Y1.817 E0.05 F1200
G1 X1.818 Y1.818 E0.05 F1200
G1 X1.819 Y1.819 E0.05 F1200
G1 X1.8199999999999998 Y1.8199999999999998 E0.05 F1200
G1 X1.821 Y1.821 E0.05 F1200
G1 X1.822 Y1.822 E0.05 F1200
G1 X1.823 Y1.823 E0.05 F1200
G1 X1.8239999999999998 Y1.8239999999999998 E0.05 F1200
G1 X1.825 Y1.825 E0.05 F1200
G1 X1.826 Y1.826 E0.05 F1200
G1 X1.827 Y1.827 E0.05 F1200
G1 X1.8279999999999998 Y1.8279999999999998 E0.05 F1200
G1 X1.829 Y1.829 E0.05 F1200
G1 X1.83 Y1.83 E0.05 F1200
G1 X1.831 Y1.831 E0.05 F1200
G1 X1.8319999999999999 Y1.8319999999999999 E0.05 F1200
G1 X1.833 Y1.833 E0.05 F1200
G1 X1.834 Y1.834 E0.05 F1200
G1 X1.835 Y1.835 E0.05 F1200
G1 X1.8359999999999999 Y1.8359999999999999 E0.05 F1200
G1 X1.837 Y1.837 E0.05 F1200
G1 X1.838 Y1.838 E0.05 F1200
G1 X1.839 Y1.839 E0.05 F1200
G1 X1.8399999999999999 Y1.8399999999999999 E0.05 F1200
G1 X1.841 Y1.841 E0.05 F1200
G1 X1.842 Y1.842 E0.05 F1200
G1 X1.843 Y1.843 E0.05 F1200
G1 X1.8439999999999999 Y1.8439999999999999 E0.05 F1200
G1 X1.845 Y1.845 E0.05 F1200
G1 X1.846 Y1.846 E0.05 F1200
G1 X1.847 Y1.847 E0.05 F1200
G1 X1.8479999999999999 Y1.8479999999999999 E0.05 F1200
G1 X1.849 Y1.849 E0.05 F1200
G1 X1.85 Y1.85 E0.05 F1200
G1 X1.851 Y1.851 E0.05 F1200
G1 X1.8519999999999999 Y1.8519999999999999 E0.05 F1200
G1 X1.853 Y1.853 E0.05 F1200
G1 X1.854 Y1.854 E0.05 F1200
G1 X1.855 Y1.855 E0.05 F1200
G1 X1.8559999999999999 Y1.8559999999999999 E0.05 F1200
G1 X1.857 Y1.857 E0.05 F1200
G1 X1.858 Y1.858 E0.05 F1200
G1 X1.859 Y1.859 E0.05 F1200
G1 X1.8599999999999999 Y1.8599999999999999 E0.05 F1200
G1 X1.861 Y1.861 E0.05 F1200
G1 X1.862 Y1.862 E0.05 F1200
G1 X1.863 Y1.863 E0.05 F1200
G1 X1.8639999999999999 Y1.8639999999999999 E0.05 F1200
G1 X1.865 Y1.865 E0.05 F1200
G1 X1.866 Y1.866 E0.05 F1200
G1 X1.867 Y1.867 E0.05 F1200
G1 X1.8679999999999999 Y1.8679999999999999 E0.05 F1200
G1 X1.869 Y1.869 E0.05 F1200
G1 X1.87 Y1.87 E0.05 F1200
G1 X1.871 Y1.871 E0.05 F1200
G1 X1.8719999999999999 Y1.8719999999999999 E0.05 F1200
G1 X1.873 Y1.873 E0.05 F1200
G1 X1.874 Y1.874 E0.05 F1200
G1 X1.875 Y1.875 E0.05 F1200
G1 X1.876 Y1.876 E0.05 F1200
G1 X1.877 Y1.877 E0.05 F1200
G1 X1.8780000000000001 Y1.8780000000000001 E0.05 F1200
G1 X1.879 Y1.879 E0.05 F1200
G1 X1.88 Y1.88 E0.05 F1200
G1 X1.881 Y1.881 E0.05 F1200
G1 X1.8820000000000001 Y1.8820000000000001 E0.05 F1200
G1 X1.883 Y1.883 E0.05 F1200
G1 X1.884 Y1.884 E0.05 F1200
G1 X1.885 Y1.885 E0.05 F1200
G1 X1.8860000000000001 Y1.8860000000000001 E0.05 F1200
G1 X1.887 Y1.887 E0.05 F1200
G1 X1.888 Y1.888 E0.05 F1200
G1 X1.889 Y1.889 E0.05 F1200
G1 X1.8900000000000001 Y1.8900000000000001 E0.05 F1200
G1 X1.891 Y1.891 E0.05 F1200
G1 X1.892 Y1.892 E0.05 F1200
G1 X1.893 Y1.893 E0.05 F1200
G1 X1.8940000000000001 Y1.8940000000000001 E0.05 F1200
G1 X1.895 Y1.895 E0.05 F1200
G1 X1.896 Y1.896 E0.05 F1200
G1 X1.897 Y1.897 E0.05 F1200
G1 X1.8980000000000001 Y1.8980000000000001 E0.05 F1200
G1 X1.899 Y1.899 E0.05 F1200
G1 X1.9 Y1.9 E0.05 F1200
G1 X1.901 Y1.901 E0.05 F1200
G1 X1.9020000000000001 Y1.9020000000000001 E0.05 F1200
G1 X1.903 Y1.903 E0.05 F1200
G1 X1.904 Y1.904 E0.05 F1200
G1 X1.905 Y1.905 E0.05 F1200
G1 X1.9060000000000001 Y1.9060000000000001 E0.05 F1200
G1 X1.907 Y1.907 E0.05 F1200
G1 X1.908 Y1.908 E0.05 F1200
G1 X1.909 Y1.909 E0.05 F1200
G1 X1.9100000000000001 Y1.9100000000000001 E0.05 F1200
G1 X1.911 Y1.911 E0.05 F1200
G1 X1.912 Y1.912 E0.05 F1200
G1 X1.913 Y1.913 E0.05 F1200
G1 X1.9140000000000001 Y1.9140000000000001 E0.05 F1200
G1 X1.915 Y1.915 E0.05 F1200
G1 X1.916 Y1.916 E0.05 F1200
G1 X1.917 Y1.917 E0.05 F1200
G1 X1.9180000000000001 Y1.9180000000000001 E0.05 F1200
G1 X1.919 Y1.919 E0.05 F1200
G1 X1.92 Y1.92 E0.05 F1200
G1 X1.921 Y1.921 E0.05 F1200
G1 X1.9220000000000002 Y1.9220000000000002 E0.05 F1200
G1 X1.923 Y1.923 E0.05 F1200
G1 X1.924 Y1.924 E0.05 F1200
G1 X1.925 Y1.925 E0.05 F1200
G1 X1.9260000000000002 Y1.9260000000000002 E0.05 F1200
G1 X1.927 Y1.927 E0.05 F1200
G1 X1.928 Y1.928 E0.05 F1200
G1 X1.929 Y1.929 E0.05 F1200
G1 X1.9300000000000002 Y1.9300000000000002 E0.05 F1200
G1 X1.931 Y1.931 E0.05 F1200
G1 X1.932 Y1.932 E0.05 F1200
G1 X1.933 Y1.933 E0.05 F1200
G1 X1.9340000000000002 Y1.9340000000000002 E0.05 F1200
G1 X1.935 Y1.935 E0.05 F1200
G1 X1.936 Y1.936 E0.05 F1200
G1 X1.937 Y1.937 E0.05 F1200
G1 X1.938 Y1.938 E0.05 F1200
G1 X1.939 Y1.939 E0.05 F1200
G1 X1.94 Y1.94 E0.05 F1200
G1 X1.9409999999999998 Y1.9409999999999998 E0.05 F1200
G1 X1.942 Y1.942 E0.05 F1200
G1 X1.943 Y1.943 E0.05 F1200
G1 X1.944 Y1.944 E0.05 F1200
G1 X1.9449999999999998 Y1.9449999999999998 E0.05 F1200
G1 X1.946 Y1.946 E0.05 F1200
G1 X1.947 Y1.947 E0.05 F1200
G1 X1.948 Y1.948 E0.05 F1200
G1 X1.9489999999999998 Y1.9489999999999998 E0.05 F1200
G1 X1.95 Y1.95 E0.05 F1200
G1 X1.951 Y1.951 E0.05 F1200
G1 X1.952 Y1.952 E0.05 F1200
G1 X1.9529999999999998 Y1.9529999999999998 E0.05 F1200
G1 X1.954 Y1.954 E0.05 F1200
G1 X1.955 Y1.955 E0.05 F1200
G1 X1.956 Y1.956 E0.05 F1200
G1 X1.9569999999999999 Y1.9569999999999999 E0.05 F1200
G1 X1.958 Y1.958 E0.05 F1200
G1 X1.959 Y1.959 E0.05 F1200
G1 X1.96 Y1.96 E0.05 F1200
G1 X1.9609999999999999 Y1.9609999999999999 E0.05 F1200
G1 X1.962 Y1.962 E0.05 F1200
G1 X1.963 Y1.963 E0.05 F1200
G1 X1.964 Y1.964 E0.05 F1200
G1 X1.9649999999999999 Y1.9649999999999999 E0.05 F1200
G1 X1.966 Y1.966 E0.05 F1200
G1 X1.967 Y1.967 E0.05 F1200
G1 X1.968 Y1.968 E0.05 F1200
G1 X1.9689999999999999 Y1.9689999999999999 E0.05 F1200
G1 X1.97 Y1.97 E0.05 F1200
G1 X1.971 Y1.971 E0.05 F1200
G1 X1.972 Y1.972 E0.05 F1200
G1 X1.9729999999999999 Y1.9729999999999999 E0.05 F1200
G1 X1.974 Y1.974 E0.05 F1200
G1 X1.975 Y1.975 E0.05 F1200
G1 X1.976 Y1.976 E0.05 F1200
G1 X1.9769999999999999 Y1.9769999999999999 E0.05 F1200
G1 X1.978 Y1.978 E0.05 F1200
G1 X1.979 Y1.979 E0.05 F1200
G1 X1.98 Y1.98 E0.05 F1200
G1 X1.9809999999999999 Y1.9809999999999999 E0.05 F1200
G1 X1.982 Y1.982 E0.05 F1200
G1 X1.983 Y1.983 E0.05 F1200
G1 X1.984 Y1.984 E0.05 F1200
G1 X1.9849999999999999 Y1.9849999999999999 E0.05 F1200
G1 X1.986 Y1.986 E0.05 F1200
G1 X1.987 Y1.987 E0.05 F1200
G1 X1.988 Y1.988 E0.05 F1200
G1 X1.9889999999999999 Y1.9889999999999999 E0.05 F1200
G1 X1.99 Y1.99 E0.05 F1200
G1 X1.991 Y1.991 E0.05 F1200
G1 X1.992 Y1.992 E0.05 F1200
G1 X1.9929999999999999 Y1.9929999999999999 E0.05 F1200
G1 X1.994 Y1.994 E0.05 F1200
G1 X1.995 Y1.995 E0.05 F1200
G1 X1.996 Y1.996 E0.05 F1200
G1 X1.9969999999999999 Y1.9969999999999999 E0.05 F1200
G1 X1.998 Y1.998 E0.05 F1200
G1 X1.999 Y1.999 E0.05 F1200
; LAYER:2
G0 X2 Y2 Z0.4
G1 X2.0 Y2.0 E0.05 F1200
G1 X2.001 Y2.001 E0.05 F1200
G1 X2.002 Y2.002 E0.05 F1200
G1 X2.003 Y2.003 E0.05 F1200
G1 X2.004 Y2.004 E0.05 F1200
G1 X2.005 Y2.005 E0.05 F1200
G1 X2.006 Y2.006 E0.05 F1200
G1 X2.007 Y2.007 E0.05 F1200
G1 X2.008 Y2.008 E0.05 F1200
G1 X2.009 Y2.009 E0.05 F1200
G1 X2.01 Y2.01 E0.05 F1200
G1 X2.011 Y2.011 E0.05 F1200
G1 X2.012 Y2.012 E0.05 F1200
G1 X2.013 Y2.013 E0.05 F1200
G1 X2.014 Y2.014 E0.05 F1200
G1 X2.015 Y2.015 E0.05 F1200
G1 X2.016 Y2.016 E0.05 F1200
G1 X2.017 Y2.017 E0.05 F1200
G1 X2.018 Y2.018 E0.05 F1200
G1 X2.019 Y2.019 E0.05 F1200
G1 X2.02 Y2.02 E0.05 F1200
G1 X2.021 Y2.021 E0.05 F1200
G1 X2.022 Y2.022 E0.05 F1200
G1 X2.023 Y2.023 E0.05 F1200
G1 X2.024 Y2.024 E0.05 F1200
G1 X2.025 Y2.025 E0.05 F1200
G1 X2.026 Y2.026 E0.05 F1200
G1 X2.027 Y2.027 E0.05 F1200
G1 X2.028 Y2.028 E0.05 F1200
G1 X2.029 Y2.029 E0.05 F1200
G1 X2.03 Y2.03 E0.05 F1200
G1 X2.031 Y2.031 E0.05 F1200
G1 X2.032 Y2.032 E0.05 F1200
G1 X2.033 Y2.033 E0.05 F1200
G1 X2.034 Y2.034 E0.05 F1200
G1 X2.035 Y2.035 E0.05 F1200
G1 X2.036 Y2.036 E0.05 F1200
G1 X2.037 Y2.037 E0.05 F1200
G1 X2.038 Y2.038 E0.05 F1200
G1 X2.039 Y2.039 E0.05 F1200
G1 X2.04 Y2.04 E0.05 F1200
G1 X2.041 Y2.041 E0.05 F1200
G1 X2.042 Y2.042 E0.05 F1200
G1 X2.043 Y2.043 E0.05 F1200
G1 X2.044 Y2.044 E0.05 F1200
G1 X2.045 Y2.045 E0.05 F1200
G1 X2.046 Y2.046 E0.05 F1200
G1 X2.047 Y2.047 E0.05 F1200
G1 X2.048 Y2.048 E0.05 F1200
G1 X2.049 Y2.049 E0.05 F1200
G1 X2.05 Y2.05 E0.05 F1200
G1 X2.051 Y2.051 E0.05 F1200
G1 X2.052 Y2.052 E0.05 F1200
G1 X2.053 Y2.053 E0.05 F1200
G1 X2.054 Y2.054 E0.05 F1200
G1 X2.055 Y2.055 E0.05 F1200
G1 X2.056 Y2.056 E0.05 F1200
G1 X2.057 Y2.057 E0.05 F1200
G1 X2.058 Y2.058 E0.05 F1200
G1 X2.059 Y2.059 E0.05 F1200
G1 X2.06 Y2.06 E0.05 F1200
G1 X2.061 Y2.061 E0.05 F1200
G1 X2.062 Y2.062 E0.05 F1200
G1 X2.063 Y2.063 E0.05 F1200
G1 X2.064 Y2.064 E0.05 F1200
G1 X2.065 Y2.065 E0.05 F1200
G1 X2.066 Y2.066 E0.05 F1200
G1 X2.067 Y2.067 E0.05 F1200
G1 X2.068 Y2.068 E0.05 F1200
G1 X2.069 Y2.069 E0.05 F1200
G1 X2.07 Y2.07 E0.05 F1200
G1 X2.071 Y2.071 E0.05 F1200
G1 X2.072 Y2.072 E0.05 F1200
G1 X2.073 Y2.073 E0.05 F1200
G1 X2.074 Y2.074 E0.05 F1200
G1 X2.075 Y2.075 E0.05 F1200
G1 X2.076 Y2.076 E0.05 F1200
G1 X2.077 Y2.077 E0.05 F1200
G1 X2.078 Y2.078 E0.05 F1200
G1 X2.079 Y2.079 E0.05 F1200
G1 X2.08 Y2.08 E0.05 F1200
G1 X2.081 Y2.081 E0.05 F1200
G1 X2.082 Y2.082 E0.05 F1200
G1 X2.083 Y2.083 E0.05 F1200
G1 X2.084 Y2.084 E0.05 F1200
G1 X2.085 Y2.085 E0.05 F1200
G1 X2.086 Y2.086 E0.05 F1200
G1 X2.087 Y2.087 E0.05 F1200
G1 X2.088 Y2.088 E0.05 F1200
G1 X2.089 Y2.089 E0.05 F1200
G1 X2.09 Y2.09 E0.05 F1200
G1 X2.091 Y2.091 E0.05 F1200
G1 X2.092 Y2.092 E0.05 F1200
G1 X2.093 Y2.093 E0.05 F1200
G1 X2.094 Y2.094 E0.05 F1200
G1 X2.095 Y2.095 E0.05 F1200
G1 X2.096 Y2.096 E0.05 F1200
G1 X2.097 Y2.097 E0.05 F1200
G1 X2.098 Y2.098 E0.05 F1200
G1 X2.099 Y2.099 E0.05 F1200
G1 X2.1 Y2.1 E0.05 F1200
G1 X2.101 Y2.101 E0.05 F1200
G1 X2.102 Y2.102 E0.05 F1200
G1 X2.103 Y2.103 E0.05 F1200
G1 X2.104 Y2.104 E0.05 F1200
G1 X2.105 Y2.105 E0.05 F1200
G1 X2.106 Y2.106 E0.05 F1200
G1 X2.107 Y2.107 E0.05 F1200
G1 X2.108 Y2.108 E0.05 F1200
G1 X2.109 Y2.109 E0.05 F1200
G1 X2.11 Y2.11 E0.05 F1200
G1 X2.111 Y2.111 E0.05 F1200
G1 X2.112 Y2.112 E0.05 F1200
G1 X2.113 Y2.113 E0.05 F1200
G1 X2.114 Y2.114 E0.05 F1200
G1 X2.115 Y2.115 E0.05 F1200
G1 X2.116 Y2.116 E0.05 F1200
G1 X2.117 Y2.117 E0.05 F1200
G1 X2.118 Y2.118 E0.05 F1200
G1 X2.1189999999999998 Y2.1189999999999998 E0.05 F1200
G1 X2.12 Y2.12 E0.05 F1200
G1 X2.121 Y2.121 E0.05 F1200
G1 X2.122 Y2.122 E0.05 F1200
G1 X2.123 Y2.123 E0.05 F1200
G1 X2.124 Y2.124 E0.05 F1200
G1 X2.125 Y2.125 E0.05 F1200
G1 X2.126 Y2.126 E0.05 F1200
G1 X2.127 Y2.127 E0.05 F1200
G1 X2.128 Y2.128 E0.05 F1200
G1 X2.129 Y2.129 E0.05 F1200
G1 X2.13 Y2.13 E0.05 F1200
G1 X2.1310000000000002 Y2.1310000000000002 E0.05 F1200
G1 X2.132 Y2.132 E0.05 F1200
G1 X2.133 Y2.133 E0.05 F1200
G1 X2.134 Y2.134 E0.05 F1200
G1 X2.135 Y2.135 E0.05 F1200
G1 X2.136 Y2.136 E0.05 F1200
G1 X2.137 Y2.137 E0.05 F1200
G1 X2.138 Y2.138 E0.05 F1200
G1 X2.1390000000000002 Y2.1390000000000002 E0.05 F1200
G1 X2.14 Y2.14 E0.05 F1200
G1 X2.141 Y2.141 E0.05 F1200
G1 X2.142 Y2.142 E0.05 F1200
G1 X2.143 Y2.143 E0.05 F1200
G1 X2.144 Y2.144 E0.05 F1200
G1 X2.145 Y2.145 E0.05 F1200
G1 X2.146 Y2.146 E0.05 F1200
G1 X2.147 Y2.147 E0.05 F1200
G1 X2.148 Y2.148 E0.05 F1200
G1 X2.149 Y2.149 E0.05 F1200
G1 X2.15 Y2.15 E0.05 F1200
G1 X2.151 Y2.151 E0.05 F1200
G1 X2.152 Y2.152 E0.05 F1200
G1 X2.153 Y2.153 E0.05 F1200
G1 X2.154 Y2.154 E0.05 F1200
G1 X2.155 Y2.155 E0.05 F1200
G1 X2.156 Y2.156 E0.05 F1200
G1 X2.157 Y2.157 E0.05 F1200
G1 X2.158 Y2.158 E0.05 F1200
G1 X2.159 Y2.159 E0.05 F1200
G1 X2.16 Y2.16 E0.05 F1200
G1 X2.161 Y2.161 E0.05 F1200
G1 X2.162 Y2.162 E0.05 F1200
G1 X2.163 Y2.163 E0.05 F1200
G1 X2.164 Y2.164 E0.05 F1200
G1 X2.165 Y2.165 E0.05 F1200
G1 X2.166 Y2.166 E0.05 F1200
G1 X2.167 Y2.167 E0.05 F1200
G1 X2.168 Y2.168 E0.05 F1200
G1 X2.169 Y2.169 E0.05 F1200
G1 X2.17 Y2.17 E0.05 F1200
G1 X2.171 Y2.171 E0.05 F1200
G1 X2.172 Y2.172 E0.05 F1200
G1 X2.173 Y2.173 E0.05 F1200
G1 X2.174 Y2.174 E0.05 F1200
G1 X2.175 Y2.175 E0.05 F1200
G1 X2.176 Y2.176 E0.05 F1200
G1 X2.177 Y2.177 E0.05 F1200
G1 X2.178 Y2.178 E0.05 F1200
G1 X2.179 Y2.179 E0.05 F1200
G1 X2.18 Y2.18 E0.05 F1200
G1 X2.181 Y2.181 E0.05 F1200
G1 X2.182 Y2.182 E0.05 F1200
G1 X2.183 Y2.183 E0.05 F1200
G1 X2.184 Y2.184 E0.05 F1200
G1 X2.185 Y2.185 E0.05 F1200
G1 X2.186 Y2.186 E0.05 F1200
G1 X2.187 Y2.187 E0.05 F1200
G1 X2.188 Y2.188 E0.05 F1200
G1 X2.189 Y2.189 E0.05 F1200
G1 X2.19 Y2.19 E0.05 F1200
G1 X2.191 Y2.191 E0.05 F1200
G1 X2.192 Y2.192 E0.05 F1200
G1 X2.193 Y2.193 E0.05 F1200
G1 X2.194 Y2.194 E0.05 F1200
G1 X2.195 Y2.195 E0.05 F1200
G1 X2.196 Y2.196 E0.05 F1200
G1 X2.197 Y2.197 E0.05 F1200
G1 X2.198 Y2.198 E0.05 F1200
G1 X2.199 Y2.199 E0.05 F1200
G1 X2.2 Y2.2 E0.05 F1200
G1 X2.201 Y2.201 E0.05 F1200
G1 X2.202 Y2.202 E0.05 F1200
G1 X2.203 Y2.203 E0.05 F1200
G1 X2.204 Y2.204 E0.05 F1200
G1 X2.205 Y2.205 E0.05 F1200
G1 X2.206 Y2.206 E0.05 F1200
G1 X2.207 Y2.207 E0.05 F1200
G1 X2.208 Y2.208 E0.05 F1200
G1 X2.209 Y2.209 E0.05 F1200
G1 X2.21 Y2.21 E0.05 F1200
G1 X2.211 Y2.211 E0.05 F1200
G1 X2.212 Y2.212 E0.05 F1200
G1 X2.213 Y2.213 E0.05 F1200
G1 X2.214 Y2.214 E0.05 F1200
G1 X2.215 Y2.215 E0.05 F1200
G1 X2.216 Y2.216 E0.05 F1200
G1 X2.217 Y2.217 E0.05 F1200
G1 X2.218 Y2.218 E0.05 F1200
G1 X2.219 Y2.219 E0.05 F1200
G1 X2.22 Y2.22 E0.05 F1200
G1 X2.221 Y2.221 E0.05 F1200
G1 X2.222 Y2.222 E0.05 F1200
G1 X2.223 Y2.223 E0.05 F1200
G1 X2.224 Y2.224 E0.05 F1200
G1 X2.225 Y2.225 E0.05 F1200
G1 X2.226 Y2.226 E0.05 F1200
G1 X2.227 Y2.227 E0.05 F1200
G1 X2.228 Y2.228 E0.05 F1200
G1 X2.229 Y2.229 E0.05 F1200
G1 X2.23 Y2.23 E0.05 F1200
G1 X2.231 Y2.231 E0.05 F1200
G1 X2.232 Y2.232 E0.05 F1200
G1 X2.233 Y2.233 E0.05 F1200
G1 X2.234 Y2.234 E0.05 F1200
G1 X2.235 Y2.235 E0.05 F1200
G1 X2.2359999999999998 Y2.2359999999999998 E0.05 F1200
G1 X2.237 Y2.237 E0.05 F1200
G1 X2.238 Y2.238 E0.05 F1200
G1 X2.239 Y2.239 E0.05 F1200
G1 X2.24 Y2.24 E0.05 F1200
G1 X2.241 Y2.241 E0.05 F1200
G1 X2.242 Y2.242 E0.05 F1200
G1 X2.243 Y2.243 E0.05 F1200
G1 X2.2439999999999998 Y2.2439999999999998 E0.05 F1200
G1 X2.245 Y2.245 E0.05 F1200
G1 X2.246 Y2.246 E0.05 F1200
G1 X2.247 Y2.247 E0.05 F1200
G1 X2.248 Y2.248 E0.05 F1200
G1 X2.249 Y2.249 E0.05 F1200
G1 X2.25 Y2.25 E0.05 F1200
G1 X2.251 Y2.251 E0.05 F1200
G1 X2.252 Y2.252 E0.05 F1200
G1 X2.253 Y2.253 E0.05 F1200
G1 X2.254 Y2.254 E0.05 F1200
G1 X2.255 Y2.255 E0.05 F1200
G1 X2.2560000000000002 Y2.2560000000000002 E0.05 F1200
G1 X2.257 Y2.257 E0.05 F1200
G1 X2.258 Y2.258 E0.05 F1200
G1 X2.259 Y2.259 E0.05 F1200
G1 X2.26 Y2.26 E0.05 F1200
G1 X2.261 Y2.261 E0.05 F1200
G1 X2.262 Y2.262 E0.05 F1200
G1 X2.263 Y2.263 E0.05 F1200
G1 X2.2640000000000002 Y2.2640000000000002 E0.05 F1200
G1 X2.265 Y2.265 E0.05 F1200
G1 X2.266 Y2.266 E0.05 F1200
G1 X2.267 Y2.267 E0.05 F1200
G1 X2.268 Y2.268 E0.05 F1200
G1 X2.269 Y2.269 E0.05 F1200
G1 X2.27 Y2.27 E0.05 F1200
G1 X2.271 Y2.271 E0.05 F1200
G1 X2.2720000000000002 Y2.2720000000000002 E0.05 F1200
G1 X2.273 Y2.273 E0.05 F1200
G1 X2.274 Y2.274 E0.05 F1200
G1 X2.275 Y2.275 E0.05 F1200
G1 X2.276 Y2.276 E0.05 F1200
G1 X2.277 Y2.277 E0.05 F1200
G1 X2.278 Y2.278 E0.05 F1200
G1 X2.279 Y2.279 E0.05 F1200
G1 X2.2800000000000002 Y2.2800000000000002 E0.05 F1200
G1 X2.281 Y2.281 E0.05 F1200
G1 X2.282 Y2.282 E0.05 F1200
G1 X2.283 Y2.283 E0.05 F1200
G1 X2.284 Y2.284 E0.05 F1200
G1 X2.285 Y2.285 E0.05 F1200
G1 X2.286 Y2.286 E0.05 F1200
G1 X2.287 Y2.287 E0.05 F1200
G1 X2.288 Y2.288 E0.05 F1200
G1 X2.289 Y2.289 E0.05 F1200
G1 X2.29 Y2.29 E0.05 F1200
G1 X2.291 Y2.291 E0.05 F1200
G1 X2.292 Y2.292 E0.05 F1200
G1 X2.293 Y2.293 E0.05 F1200
G1 X2.294 Y2.294 E0.05 F1200
G1 X2.295 Y2.295 E0.05 F1200
G1 X2.296 Y2.296 E0.05 F1200
G1 X2.297 Y2.297 E0.05 F1200
G1 X2.298 Y2.298 E0.05 F1200
G1 X2.299 Y2.299 E0.05 F1200
G1 X2.3 Y2.3 E0.05 F1200
G1 X2.301 Y2.301 E0.05 F1200
G1 X2.302 Y2.302 E0.05 F1200
G1 X2.303 Y2.303 E0.05 F1200
G1 X2.304 Y2.304 E0.05 F1200
G1 X2.305 Y2.305 E0.05 F1200
G1 X2.306 Y2.306 E0.05 F1200
G1 X2.307 Y2.307 E0.05 F1200
G1 X2.308 Y2.308 E0.05 F1200
G1 X2.309 Y2.309 E0.05 F1200
G1 X2.31 Y2.31 E0.05 F1200
G1 X2.311 Y2.311 E0.05 F1200
G1 X2.312 Y2.312 E0.05 F1200
G1 X2.313 Y2.313 E0.05 F1200
G1 X2.314 Y2.314 E0.05 F1200
G1 X2.315 Y2.315 E0.05 F1200
G1 X2.316 Y2.316 E0.05 F1200
G1 X2.317 Y2.317 E0.05 F1200
G1 X2.318 Y2.318 E0.05 F1200
G1 X2.319 Y2.319 E0.05 F1200
G1 X2.32 Y2.32 E0.05 F1200
G1 X2.321 Y2.321 E0.05 F1200
G1 X2.322 Y2.322 E0.05 F1200
G1 X2.323 Y2.323 E0.05 F1200
G1 X2.324 Y2.324 E0.05 F1200
G1 X2.325 Y2.325 E0.05 F1200
G1 X2.326 Y2.326 E0.05 F1200
G1 X2.327 Y2.327 E0.05 F1200
G1 X2.328 Y2.328 E0.05 F1200
G1 X2.329 Y2.329 E0.05 F1200
G1 X2.33 Y2.33 E0.05 F1200
G1 X2.331 Y2.331 E0.05 F1200
G1 X2.332 Y2.332 E0.05 F1200
G1 X2.333 Y2.333 E0.05 F1200
G1 X2.334 Y2.334 E0.05 F1200
G1 X2.335 Y2.335 E0.05 F1200
G1 X2.336 Y2.336 E0.05 F1200
G1 X2.337 Y2.337 E0.05 F1200
G1 X2.338 Y2.338 E0.05 F1200
G1 X2.339 Y2.339 E0.05 F1200
G1 X2.34 Y2.34 E0.05 F1200
G1 X2.341 Y2.341 E0.05 F1200
G1 X2.342 Y2.342 E0.05 F1200
G1 X2.343 Y2.343 E0.05 F1200
G1 X2.344 Y2.344 E0.05 F1200
G1 X2.3449999999999998 Y2.3449999999999998 E0.05 F1200
G1 X2.346 Y2.346 E0.05 F1200
G1 X2.347 Y2.347 E0.05 F1200
G1 X2.348 Y2.348 E0.05 F1200
G1 X2.349 Y2.349 E0.05 F1200
G1 X2.35 Y2.35 E0.05 F1200
G1 X2.351 Y2.351 E0.05 F1200
G1 X2.352 Y2.352 E0.05 F1200
G1 X2.3529999999999998 Y2.3529999999999998 E0.05 F1200
G1 X2.354 Y2.354 E0.05 F1200
G1 X2.355 Y2.355 E0.05 F1200
G1 X2.356 Y2.356 E0.05 F1200
G1 X2.357 Y2.357 E0.05 F1200
G1 X2.358 Y2.358 E0.05 F1200
G1 X2.359 Y2.359 E0.05 F1200
G1 X2.36 Y2.36 E0.05 F1200
G1 X2.3609999999999998 Y2.3609999999999998 E0.05 F1200
G1 X2.362 Y2.362 E0.05 F1200
G1 X2.363 Y2.363 E0.05 F1200
G1 X2.364 Y2.364 E0.05 F1200
G1 X2.365 Y2.365 E0.05 F1200
G1 X2.366 Y2.366 E0.05 F1200
G1 X2.367 Y2.367 E0.05 F1200
G1 X2.368 Y2.368 E0.05 F1200
G1 X2.3689999999999998 Y2.3689999999999998 E0.05 F1200
G1 X2.37 Y2.37 E0.05 F1200
G1 X2.371 Y2.371 E0.05 F1200
G1 X2.372 Y2.372 E0.05 F1200
G1 X2.373 Y2.373 E0.05 F1200
G1 X2.374 Y2.374 E0.05 F1200
G1 X2.375 Y2.375 E0.05 F1200
G1 X2.376 Y2.376 E0.05 F1200
G1 X2.377 Y2.377 E0.05 F1200
G1 X2.378 Y2.378 E0.05 F1200
G1 X2.379 Y2.379 E0.05 F1200
G1 X2.38 Y2.38 E0.05 F1200
G1 X2.3810000000000002 Y2.3810000000000002 E0.05 F1200
G1 X2.382 Y2.382 E0.05 F1200
G1 X2.383 Y2.383 E0.05 F1200
G1 X2.384 Y2.384 E0.05 F1200
G1 X2.385 Y2.385 E0.05 F1200
G1 X2.386 Y2.386 E0.05 F1200
G1 X2.387 Y2.387 E0.05 F1200
G1 X2.388 Y2.388 E0.05 F1200
G1 X2.3890000000000002 Y2.3890000000000002 E0.05 F1200
G1 X2.39 Y2.39 E0.05 F1200
G1 X2.391 Y2.391 E0.05 F1200
G1 X2.392 Y2.392 E0.05 F1200
G1 X2.393 Y2.393 E0.05 F1200
G1 X2.394 Y2.394 E0.05 F1200
G1 X2.395 Y2.395 E0.05 F1200
G1 X2.396 Y2.396 E0.05 F1200
G1 X2.3970000000000002 Y2.3970000000000002 E0.05 F1200
G1 X2.398 Y2.398 E0.05 F1200
G1 X2.399 Y2.399 E0.05 F1200
G1 X2.4 Y2.4 E0.05 F1200
G1 X2.401 Y2.401 E0.05 F1200
G1 X2.402 Y2.402 E0.05 F1200
G1 X2.403 Y2.403 E0.05 F1200
G1 X2.404 Y2.404 E0.05 F1200
G1 X2.4050000000000002 Y2.4050000000000002 E0.05 F1200
G1 X2.406 Y2.406 E0.05 F1200
G1 X2.407 Y2.407 E0.05 F1200
G1 X2.408 Y2.408 E0.05 F1200
G1 X2.409 Y2.409 E0.05 F1200
G1 X2.41 Y2.41 E0.05 F1200
G1 X2.411 Y2.411 E0.05 F1200
G1 X2.412 Y2.412 E0.05 F1200
G1 X2.413 Y2.413 E0.05 F1200
G1 X2.414 Y2.414 E0.05 F1200
G1 X2.415 Y2.415 E0.05 F1200
G1 X2.416 Y2.416 E0.05 F1200
G1 X2.417 Y2.417 E0.05 F1200
G1 X2.418 Y2.418 E0.05 F1200
G1 X2.419 Y2.419 E0.05 F1200
G1 X2.42 Y2.42 E0.05 F1200
G1 X2.421 Y2.421 E0.05 F1200
G1 X2.422 Y2.422 E0.05 F1200
G1 X2.423 Y2.423 E0.05 F1200
G1 X2.424 Y2.424 E0.05 F1200
G1 X2.425 Y2.425 E0.05 F1200
G1 X2.426 Y2.426 E0.05 F1200
G1 X2.427 Y2.427 E0.05 F1200
G1 X2.428 Y2.428 E0.05 F1200
G1 X2.429 Y2.429 E0.05 F1200
G1 X2.43 Y2.43 E0.05 F1200
G1 X2.431 Y2.431 E0.05 F1200
G1 X2.432 Y2.432 E0.05 F1200
G1 X2.433 Y2.433 E0.05 F1200
G1 X2.434 Y2.434 E0.05 F1200
G1 X2.435 Y2.435 E0.05 F1200
G1 X2.436 Y2.436 E0.05 F1200
G1 X2.437 Y2.437 E0.05 F1200
G1 X2.438 Y2.438 E0.05 F1200
G1 X2.439 Y2.439 E0.05 F1200
G1 X2.44 Y2.44 E0.05 F1200
G1 X2.441 Y2.441 E0.05 F1200
G1 X2.442 Y2.442 E0.05 F1200
G1 X2.443 Y2.443 E0.05 F1200
G1 X2.444 Y2.444 E0.05 F1200
G1 X2.445 Y2.445 E0.05 F1200
G1 X2.446 Y2.446 E0.05 F1200
G1 X2.447 Y2.447 E0.05 F1200
G1 X2.448 Y2.448 E0.05 F1200
G1 X2.449 Y2.449 E0.05 F1200
G1 X2.45 Y2.45 E0.05 F1200
G1 X2.451 Y2.451 E0.05 F1200
G1 X2.452 Y2.452 E0.05 F1200
G1 X2.453 Y2.453 E0.05 F1200
G1 X2.454 Y2.454 E0.05 F1200
G1 X2.455 Y2.455 E0.05 F1200
G1 X2.456 Y2.456 E0.05 F1200
G1 X2.457 Y2.457 E0.05 F1200
G1 X2.458 Y2.458 E0.05 F1200
G1 X2.459 Y2.459 E0.05 F1200
G1 X2.46 Y2.46 E0.05 F1200
G1 X2.461 Y2.461 E0.05 F1200
G1 X2.462 Y2.462 E0.05 F1200
G1 X2.463 Y2.463 E0.05 F1200
G1 X2.464 Y2.464 E0.05 F1200
G1 X2.465 Y2.465 E0.05 F1200
G1 X2.466 Y2.466 E0.05 F1200
G1 X2.467 Y2.467 E0.05 F1200
G1 X2.468 Y2.468 E0.05 F1200
G1 X2.469 Y2.469 E0.05 F1200
G1 X2.4699999999999998 Y2.4699999999999998 E0.05 F1200
G1 X2.471 Y2.471 E0.05 F1200
G1 X2.472 Y2.472 E0.05 F1200
G1 X2.473 Y2.473 E0.05 F1200
G1 X2.474 Y2.474 E0.05 F1200
G1 X2.475 Y2.475 E0.05 F1200
G1 X2.476 Y2.476 E0.05 F1200
G1 X2.477 Y2.477 E0.05 F1200
G1 X2.4779999999999998 Y2.4779999999999998 E0.05 F1200
G1 X2.479 Y2.479 E0.05 F1200
G1 X2.48 Y2.48 E0.05 F1200
G1 X2.481 Y2.481 E0.05 F1200
G1 X2.482 Y2.482 E0.05 F1200
G1 X2.483 Y2.483 E0.05 F1200
G1 X2.484 Y2.484 E0.05 F1200
G1 X2.485 Y2.485 E0.05 F1200
G1 X2.4859999999999998 Y2.4859999999999998 E0.05 F1200
G1 X2.487 Y2.487 E0.05 F1200
G1 X2.488 Y2.488 E0.05 F1200
G1 X2.489 Y2.489 E0.05 F1200
G1 X2.49 Y2.49 E0.05 F1200
G1 X2.491 Y2.491 E0.05 F1200
G1 X2.492 Y2.492 E0.05 F1200
G1 X2.493 Y2.493 E0.05 F1200
G1 X2.4939999999999998 Y2.4939999999999998 E0.05 F1200
G1 X2.495 Y2.495 E0.05 F1200
G1 X2.496 Y2.496 E0.05 F1200
G1 X2.497 Y2.497 E0.05 F1200
G1 X2.498 Y2.498 E0.05 F1200
G1 X2.499 Y2.499 E0.05 F1200
G1 X2.5 Y2.5 E0.05 F1200
G1 X2.501 Y2.501 E0.05 F1200
G1 X2.502 Y2.502 E0.05 F1200
G1 X2.503 Y2.503 E0.05 F1200
G1 X2.504 Y2.504 E0.05 F1200
G1 X2.505 Y2.505 E0.05 F1200
G1 X2.5060000000000002 Y2.5060000000000002 E0.05 F1200
G1 X2.507 Y2.507 E0.05 F1200
G1 X2.508 Y2.508 E0.05 F1200
G1 X2.509 Y2.509 E0.05 F1200
G1 X2.51 Y2.51 E0.05 F1200
G1 X2.511 Y2.511 E0.05 F1200
G1 X2.512 Y2.512 E0.05 F1200
G1 X2.513 Y2.513 E0.05 F1200
G1 X2.5140000000000002 Y2.5140000000000002 E0.05 F1200
G1 X2.515 Y2.515 E0.05 F1200
G1 X2.516 Y2.516 E0.05 F1200
G1 X2.517 Y2.517 E0.05 F1200
G1 X2.518 Y2.518 E0.05 F1200
G1 X2.519 Y2.519 E0.05 F1200
G1 X2.52 Y2.52 E0.05 F1200
G1 X2.521 Y2.521 E0.05 F1200
G1 X2.5220000000000002 Y2.5220000000000002 E0.05 F1200
G1 X2.523 Y2.523 E0.05 F1200
G1 X2.524 Y2.524 E0.05 F1200
G1 X2.525 Y2.525 E0.05 F1200
G1 X2.526 Y2.526 E0.05 F1200
G1 X2.527 Y2.527 E0.05 F1200
G1 X2.528 Y2.528 E0.05 F1200
G1 X2.529 Y2.529 E0.05 F1200
G1 X2.5300000000000002 Y2.5300000000000002 E0.05 F1200
G1 X2.531 Y2.531 E0.05 F1200
G1 X2.532 Y2.532 E0.05 F1200
G1 X2.533 Y2.533 E0.05 F1200
G1 X2.534 Y2.534 E0.05 F1200
G1 X2.535 Y2.535 E0.05 F1200
G1 X2.536 Y2.536 E0.05 F1200
G1 X2.537 Y2.537 E0.05 F1200
G1 X2.5380000000000003 Y2.5380000000000003 E0.05 F1200
G1 X2.539 Y2.539 E0.05 F1200
G1 X2.54 Y2.54 E0.05 F1200
G1 X2.541 Y2.541 E0.05 F1200
G1 X2.542 Y2.542 E0.05 F1200
G1 X2.543 Y2.543 E0.05 F1200
G1 X2.544 Y2.544 E0.05 F1200
G1 X2.545 Y2.545 E0.05 F1200
G1 X2.5460000000000003 Y2.5460000000000003 E0.05 F1200
G1 X2.547 Y2.547 E0.05 F1200
G1 X2.548 Y2.548 E0.05 F1200
G1 X2.549 Y2.549 E0.05 F1200
G1 X2.55 Y2.55 E0.05 F1200
G1 X2.551 Y2.551 E0.05 F1200
G1 X2.552 Y2.552 E0.05 F1200
G1 X2.553 Y2.553 E0.05 F1200
G1 X2.5540000000000003 Y2.5540000000000003 E0.05 F1200
G1 X2.555 Y2.555 E0.05 F1200
G1 X2.556 Y2.556 E0.05 F1200
G1 X2.557 Y2.557 E0.05 F1200
G1 X2.558 Y2.558 E0.05 F1200
G1 X2.559 Y2.559 E0.05 F1200
G1 X2.56 Y2.56 E0.05 F1200
G1 X2.561 Y2.561 E0.05 F1200
G1 X2.5620000000000003 Y2.5620000000000003 E0.05 F1200
G1 X2.5629999999999997 Y2.5629999999999997 E0.05 F1200
G1 X2.564 Y2.564 E0.05 F1200
G1 X2.565 Y2.565 E0.05 F1200
G1 X2.566 Y2.566 E0.05 F1200
G1 X2.567 Y2.567 E0.05 F1200
G1 X2.568 Y2.568 E0.05 F1200
G1 X2.569 Y2.569 E0.05 F1200
G1 X2.57 Y2.57 E0.05 F1200
G1 X2.5709999999999997 Y2.5709999999999997 E0.05 F1200
G1 X2.572 Y2.572 E0.05 F1200
G1 X2.573 Y2.573 E0.05 F1200
G1 X2.574 Y2.574 E0.05 F1200
G1 X2.575 Y2.575 E0.05 F1200
G1 X2.576 Y2.576 E0.05 F1200
G1 X2.577 Y2.577 E0.05 F1200
G1 X2.578 Y2.578 E0.05 F1200
G1 X2.5789999999999997 Y2.5789999999999997 E0.05 F1200
G1 X2.58 Y2.58 E0.05 F1200
G1 X2.581 Y2.581 E0.05 F1200
G1 X2.582 Y2.582 E0.05 F1200
G1 X2.583 Y2.583 E0.05 F1200
G1 X2.584 Y2.584 E0.05 F1200
G1 X2.585 Y2.585 E0.05 F1200
G1 X2.586 Y2.586 E0.05 F1200
G1 X2.5869999999999997 Y2.5869999999999997 E0.05 F1200
G1 X2.588 Y2.588 E0.05 F1200
G1 X2.589 Y2.589 E0.05 F1200
G1 X2.59 Y2.59 E0.05 F1200
G1 X2.591 Y2.591 E0.05 F1200
G1 X2.592 Y2.592 E0.05 F1200
G1 X2.593 Y2.593 E0.05 F1200
G1 X2.594 Y2.594 E0.05 F1200
G1 X2.5949999999999998 Y2.5949999999999998 E0.05 F1200
G1 X2.596 Y2.596 E0.05 F1200
G1 X2.597 Y2.597 E0.05 F1200
G1 X2.598 Y2.598 E0.05 F1200
G1 X2.599 Y2.599 E0.05 F1200
G1 X2.6 Y2.6 E0.05 F1200
G1 X2.601 Y2.601 E0.05 F1200
G1 X2.602 Y2.602 E0.05 F1200
G1 X2.6029999999999998 Y2.6029999999999998 E0.05 F1200
G1 X2.604 Y2.604 E0.05 F1200
G1 X2.605 Y2.605 E0.05 F1200
G1 X2.606 Y2.606 E0.05 F1200
G1 X2.607 Y2.607 E0.05 F1200
G1 X2.608 Y2.608 E0.05 F1200
G1 X2.609 Y2.609 E0.05 F1200
G1 X2.61 Y2.61 E0.05 F1200
G1 X2.6109999999999998 Y2.6109999999999998 E0.05 F1200
G1 X2.612 Y2.612 E0.05 F1200
G1 X2.613 Y2.613 E0.05 F1200
G1 X2.614 Y2.614 E0.05 F1200
G1 X2.615 Y2.615 E0.05 F1200
G1 X2.616 Y2.616 E0.05 F1200
G1 X2.617 Y2.617 E0.05 F1200
G1 X2.618 Y2.618 E0.05 F1200
G1 X2.6189999999999998 Y2.6189999999999998 E0.05 F1200
G1 X2.62 Y2.62 E0.05 F1200
G1 X2.621 Y2.621 E0.05 F1200
G1 X2.622 Y2.622 E0.05 F1200
G1 X2.623 Y2.623 E0.05 F1200
G1 X2.624 Y2.624 E0.05 F1200
G1 X2.625 Y2.625 E0.05 F1200
G1 X2.626 Y2.626 E0.05 F1200
G1 X2.627 Y2.627 E0.05 F1200
G1 X2.628 Y2.628 E0.05 F1200
G1 X2.629 Y2.629 E0.05 F1200
G1 X2.63 Y2.63 E0.05 F1200
G1 X2.6310000000000002 Y2.6310000000000002 E0.05 F1200
G1 X2.632 Y2.632 E0.05 F1200
G1 X2.633 Y2.633 E0.05 F1200
G1 X2.634 Y2.634 E0.05 F1200
G1 X2.635 Y2.635 E0.05 F1200
G1 X2.636 Y2.636 E0.05 F1200
G1 X2.637 Y2.637 E0.05 F1200
G1 X2.638 Y2.638 E0.05 F1200
G1 X2.6390000000000002 Y2.6390000000000002 E0.05 F1200
G1 X2.64 Y2.64 E0.05 F1200
G1 X2.641 Y2.641 E0.05 F1200
G1 X2.642 Y2.642 E0.05 F1200
G1 X2.643 Y2.643 E0.05 F1200
G1 X2.644 Y2.644 E0.05 F1200
G1 X2.645 Y2.645 E0.05 F1200
G1 X2.646 Y2.646 E0.05 F1200
G1 X2.6470000000000002 Y2.6470000000000002 E0.05 F1200
G1 X2.648 Y2.648 E0.05 F1200
G1 X2.649 Y2.649 E0.05 F1200
G1 X2.65 Y2.65 E0.05 F1200
G1 X2.651 Y2.651 E0.05 F1200
G1 X2.652 Y2.652 E0.05 F1200
G1 X2.653 Y2.653 E0.05 F1200
G1 X2.654 Y2.654 E0.05 F1200
G1 X2.6550000000000002 Y2.6550000000000002 E0.05 F1200
G1 X2.656 Y2.656 E0.05 F1200
G1 X2.657 Y2.657 E0.05 F1200
G1 X2.658 Y2.658 E0.05 F1200
G1 X2.659 Y2.659 E0.05 F1200
G1 X2.66 Y2.66 E0.05 F1200
G1 X2.661 Y2.661 E0.05 F1200
G1 X2.662 Y2.662 E0.05 F1200
G1 X2.6630000000000003 Y2.6630000000000003 E0.05 F1200
G1 X2.664 Y2.664 E0.05 F1200
G1 X2.665 Y2.665 E0.05 F1200
G1 X2.666 Y2.666 E0.05 F1200
G1 X2.667 Y2.667 E0.05 F1200
G1 X2.668 Y2.668 E0.05 F1200
G1 X2.669 Y2.669 E0.05 F1200
G1 X2.67 Y2.67 E0.05 F1200
G1 X2.6710000000000003 Y2.6710000000000003 E0.05 F1200
G1 X2.672 Y2.672 E0.05 F1200
G1 X2.673 Y2.673 E0.05 F1200
G1 X2.674 Y2.674 E0.05 F1200
G1 X2.675 Y2.675 E0.05 F1200
G1 X2.676 Y2.676 E0.05 F1200
G1 X2.677 Y2.677 E0.05 F1200
G1 X2.678 Y2.678 E0.05 F1200
G1 X2.6790000000000003 Y2.6790000000000003 E0.05 F1200
G1 X2.68 Y2.68 E0.05 F1200
G1 X2.681 Y2.681 E0.05 F1200
G1 X2.682 Y2.682 E0.05 F1200
G1 X2.683 Y2.683 E0.05 F1200
G1 X2.684 Y2.684 E0.05 F1200
G1 X2.685 Y2.685 E0.05 F1200
G1 X2.686 Y2.686 E0.05 F1200
G1 X2.6870000000000003 Y2.6870000000000003 E0.05 F1200
G1 X2.6879999999999997 Y2.6879999999999997 E0.05 F1200
G1 X2.689 Y2.689 E0.05 F1200
G1 X2.69 Y2.69 E0.05 F1200
G1 X2.691 Y2.691 E0.05 F1200
G1 X2.692 Y2.692 E0.05 F1200
G1 X2.693 Y2.693 E0.05 F1200
G1 X2.694 Y2.694 E0.05 F1200
G1 X2.695 Y2.695 E0.05 F1200
G1 X2.6959999999999997 Y2.6959999999999997 E0.05 F1200
G1 X2.697 Y2.697 E0.05 F1200
G1 X2.698 Y2.698 E0.05 F1200
G1 X2.699 Y2.699 E0.05 F1200
G1 X2.7 Y2.7 E0.05 F1200
G1 X2.701 Y2.701 E0.05 F1200
G1 X2.702 Y2.702 E0.05 F1200
G1 X2.703 Y2.703 E0.05 F1200
G1 X2.7039999999999997 Y2.7039999999999997 E0.05 F1200
G1 X2.705 Y2.705 E0.05 F1200
G1 X2.706 Y2.706 E0.05 F1200
G1 X2.707 Y2.707 E0.05 F1200
G1 X2.708 Y2.708 E0.05 F1200
G1 X2.709 Y2.709 E0.05 F1200
G1 X2.71 Y2.71 E0.05 F1200
G1 X2.711 Y2.711 E0.05 F1200
G1 X2.7119999999999997 Y2.7119999999999997 E0.05 F1200
G1 X2.713 Y2.713 E0.05 F1200
G1 X2.714 Y2.714 E0.05 F1200
G1 X2.715 Y2.715 E0.05 F1200
G1 X2.716 Y2.716 E0.05 F1200
G1 X2.717 Y2.717 E0.05 F1200
G1 X2.718 Y2.718 E0.05 F1200
G1 X2.719 Y2.719 E0.05 F1200
G1 X2.7199999999999998 Y2.7199999999999998 E0.05 F1200
G1 X2.721 Y2.721 E0.05 F1200
G1 X2.722 Y2.722 E0.05 F1200
G1 X2.723 Y2.723 E0.05 F1200
G1 X2.724 Y2.724 E0.05 F1200
G1 X2.725 Y2.725 E0.05 F1200
G1 X2.726 Y2.726 E0.05 F1200
G1 X2.727 Y2.727 E0.05 F1200
G1 X2.7279999999999998 Y2.7279999999999998 E0.05 F1200
G1 X2.729 Y2.729 E0.05 F1200
G1 X2.73 Y2.73 E0.05 F1200
G1 X2.731 Y2.731 E0.05 F1200
G1 X2.732 Y2.732 E0.05 F1200
G1 X2.733 Y2.733 E0.05 F1200
G1 X2.734 Y2.734 E0.05 F1200
G1 X2.735 Y2.735 E0.05 F1200
G1 X2.7359999999999998 Y2.7359999999999998 E0.05 F1200
G1 X2.737 Y2.737 E0.05 F1200
G1 X2.738 Y2.738 E0.05 F1200
G1 X2.739 Y2.739 E0.05 F1200
G1 X2.74 Y2.74 E0.05 F1200
G1 X2.741 Y2.741 E0.05 F1200
G1 X2.742 Y2.742 E0.05 F1200
G1 X2.743 Y2.743 E0.05 F1200
G1 X2.7439999999999998 Y2.7439999999999998 E0.05 F1200
G1 X2.745 Y2.745 E0.05 F1200
G1 X2.746 Y2.746 E0.05 F1200
G1 X2.747 Y2.747 E0.05 F1200
G1 X2.748 Y2.748 E0.05 F1200
G1 X2.749 Y2.749 E0.05 F1200
G1 X2.75 Y2.75 E0.05 F1200
G1 X2.751 Y2.751 E0.05 F1200
G1 X2.752 Y2.752 E0.05 F1200
G1 X2.753 Y2.753 E0.05 F1200
G1 X2.754 Y2.754 E0.05 F1200
G1 X2.755 Y2.755 E0.05 F1200
G1 X2.7560000000000002 Y2.7560000000000002 E0.05 F1200
G1 X2.757 Y2.757 E0.05 F1200
G1 X2.758 Y2.758 E0.05 F1200
G1 X2.759 Y2.759 E0.05 F1200
G1 X2.76 Y2.76 E0.05 F1200
G1 X2.761 Y2.761 E0.05 F1200
G1 X2.762 Y2.762 E0.05 F1200
G1 X2.763 Y2.763 E0.05 F1200
G1 X2.7640000000000002 Y2.7640000000000002 E0.05 F1200
G1 X2.765 Y2.765 E0.05 F1200
G1 X2.766 Y2.766 E0.05 F1200
G1 X2.767 Y2.767 E0.05 F1200
G1 X2.768 Y2.768 E0.05 F1200
G1 X2.769 Y2.769 E0.05 F1200
G1 X2.77 Y2.77 E0.05 F1200
G1 X2.771 Y2.771 E0.05 F1200
G1 X2.7720000000000002 Y2.7720000000000002 E0.05 F1200
G1 X2.773 Y2.773 E0.05 F1200
G1 X2.774 Y2.774 E0.05 F1200
G1 X2.775 Y2.775 E0.05 F1200
G1 X2.776 Y2.776 E0.05 F1200
G1 X2.777 Y2.777 E0.05 F1200
G1 X2.778 Y2.778 E0.05 F1200
G1 X2.779 Y2.779 E0.05 F1200
G1 X2.7800000000000002 Y2.7800000000000002 E0.05 F1200
G1 X2.781 Y2.781 E0.05 F1200
G1 X2.782 Y2.782 E0.05 F1200
G1 X2.783 Y2.783 E0.05 F1200
G1 X2.784 Y2.784 E0.05 F1200
G1 X2.785 Y2.785 E0.05 F1200
G1 X2.786 Y2.786 E0.05 F1200
G1 X2.787 Y2.787 E0.05 F1200
G1 X2.7880000000000003 Y2.7880000000000003 E0.05 F1200
G1 X2.789 Y2.789 E0.05 F1200
G1 X2.79 Y2.79 E0.05 F1200
G1 X2.791 Y2.791 E0.05 F1200
G1 X2.792 Y2.792 E0.05 F1200
G1 X2.793 Y2.793 E0.05 F1200
G1 X2.794 Y2.794 E0.05 F1200
G1 X2.795 Y2.795 E0.05 F1200
G1 X2.7960000000000003 Y2.7960000000000003 E0.05 F1200
G1 X2.797 Y2.797 E0.05 F1200
G1 X2.798 Y2.798 E0.05 F1200
G1 X2.799 Y2.799 E0.05 F1200
G1 X2.8 Y2.8 E0.05 F1200
G1 X2.801 Y2.801 E0.05 F1200
G1 X2.802 Y2.802 E0.05 F1200
G1 X2.803 Y2.803 E0.05 F1200
G1 X2.8040000000000003 Y2.8040000000000003 E0.05 F1200
G1 X2.805 Y2.805 E0.05 F1200
G1 X2.806 Y2.806 E0.05 F1200
G1 X2.807 Y2.807 E0.05 F1200
G1 X2.808 Y2.808 E0.05 F1200
G1 X2.809 Y2.809 E0.05 F1200
G1 X2.81 Y2.81 E0.05 F1200
G1 X2.811 Y2.811 E0.05 F1200
G1 X2.8120000000000003 Y2.8120000000000003 E0.05 F1200
G1 X2.8129999999999997 Y2.8129999999999997 E0.05 F1200
G1 X2.814 Y2.814 E0.05 F1200
G1 X2.815 Y2.815 E0.05 F1200
G1 X2.816 Y2.816 E0.05 F1200
G1 X2.817 Y2.817 E0.05 F1200
G1 X2.818 Y2.818 E0.05 F1200
G1 X2.819 Y2.819 E0.05 F1200
G1 X2.82 Y2.82 E0.05 F1200
G1 X2.8209999999999997 Y2.8209999999999997 E0.05 F1200
G1 X2.822 Y2.822 E0.05 F1200
G1 X2.823 Y2.823 E0.05 F1200
G1 X2.824 Y2.824 E0.05 F1200
G1 X2.825 Y2.825 E0.05 F1200
G1 X2.826 Y2.826 E0.05 F1200
G1 X2.827 Y2.827 E0.05 F1200
G1 X2.828 Y2.828 E0.05 F1200
G1 X2.8289999999999997 Y2.8289999999999997 E0.05 F1200
G1 X2.83 Y2.83 E0.05 F1200
G1 X2.831 Y2.831 E0.05 F1200
G1 X2.832 Y2.832 E0.05 F1200
G1 X2.833 Y2.833 E0.05 F1200
G1 X2.834 Y2.834 E0.05 F1200
G1 X2.835 Y2.835 E0.05 F1200
G1 X2.836 Y2.836 E0.05 F1200
G1 X2.8369999999999997 Y2.8369999999999997 E0.05 F1200
G1 X2.838 Y2.838 E0.05 F1200
G1 X2.839 Y2.839 E0.05 F1200
G1 X2.84 Y2.84 E0.05 F1200
G1 X2.841 Y2.841 E0.05 F1200
G1 X2.842 Y2.842 E0.05 F1200
G1 X2.843 Y2.843 E0.05 F1200
G1 X2.844 Y2.844 E0.05 F1200
G1 X2.8449999999999998 Y2.8449999999999998 E0.05 F1200
G1 X2.846 Y2.846 E0.05 F1200
G1 X2.847 Y2.847 E0.05 F1200
G1 X2.848 Y2.848 E0.05 F1200
G1 X2.849 Y2.849 E0.05 F1200
G1 X2.85 Y2.85 E0.05 F1200
G1 X2.851 Y2.851 E0.05 F1200
G1 X2.852 Y2.852 E0.05 F1200
G1 X2.8529999999999998 Y2.8529999999999998 E0.05 F1200
G1 X2.854 Y2.854 E0.05 F1200
G1 X2.855 Y2.855 E0.05 F1200
G1 X2.856 Y2.856 E0.05 F1200
G1 X2.857 Y2.857 E0.05 F1200
G1 X2.858 Y2.858 E0.05 F1200
G1 X2.859 Y2.859 E0.05 F1200
G1 X2.86 Y2.86 E0.05 F1200
G1 X2.8609999999999998 Y2.8609999999999998 E0.05 F1200
G1 X2.862 Y2.862 E0.05 F1200
G1 X2.863 Y2.863 E0.05 F1200
G1 X2.864 Y2.864 E0.05 F1200
G1 X2.865 Y2.865 E0.05 F1200
G1 X2.866 Y2.866 E0.05 F1200
G1 X2.867 Y2.867 E0.05 F1200
G1 X2.868 Y2.868 E0.05 F1200
G1 X2.8689999999999998 Y2.8689999999999998 E0.05 F1200
G1 X2.87 Y2.87 E0.05 F1200
G1 X2.871 Y2.871 E0.05 F1200
G1 X2.872 Y2.872 E0.05 F1200
G1 X2.873 Y2.873 E0.05 F1200
G1 X2.874 Y2.874 E0.05 F1200
G1 X2.875 Y2.875 E0.05 F1200
G1 X2.876 Y2.876 E0.05 F1200
G1 X2.877 Y2.877 E0.05 F1200
G1 X2.878 Y2.878 E0.05 F1200
G1 X2.879 Y2.879 E0.05 F1200
G1 X2.88 Y2.88 E0.05 F1200
G1 X2.8810000000000002 Y2.8810000000000002 E0.05 F1200
G1 X2.882 Y2.882 E0.05 F1200
G1 X2.883 Y2.883 E0.05 F1200
G1 X2.884 Y2.884 E0.05 F1200
G1 X2.885 Y2.885 E0.05 F1200
G1 X2.886 Y2.886 E0.05 F1200
G1 X2.887 Y2.887 E0.05 F1200
G1 X2.888 Y2.888 E0.05 F1200
G1 X2.8890000000000002 Y2.8890000000000002 E0.05 F1200
G1 X2.89 Y2.89 E0.05 F1200
G1 X2.891 Y2.891 E0.05 F1200
G1 X2.892 Y2.892 E0.05 F1200
G1 X2.893 Y2.893 E0.05 F1200
G1 X2.894 Y2.894 E0.05 F1200
G1 X2.895 Y2.895 E0.05 F1200
G1 X2.896 Y2.896 E0.05 F1200
G1 X2.8970000000000002 Y2.8970000000000002 E0.05 F1200
G1 X2.898 Y2.898 E0.05 F1200
G1 X2.899 Y2.899 E0.05 F1200
G1 X2.9 Y2.9 E0.05 F1200
G1 X2.901 Y2.901 E0.05 F1200
G1 X2.902 Y2.902 E0.05 F1200
G1 X2.903 Y2.903 E0.05 F1200
G1 X2.904 Y2.904 E0.05 F1200
G1 X2.9050000000000002 Y2.9050000000000002 E0.05 F1200
G1 X2.906 Y2.906 E0.05 F1200
G1 X2.907 Y2.907 E0.05 F1200
G1 X2.908 Y2.908 E0.05 F1200
G1 X2.909 Y2.909 E0.05 F1200
G1 X2.91 Y2.91 E0.05 F1200
G1 X2.911 Y2.911 E0.05 F1200
G1 X2.912 Y2.912 E0.05 F1200
G1 X2.9130000000000003 Y2.9130000000000003 E0.05 F1200
G1 X2.914 Y2.914 E0.05 F1200
G1 X2.915 Y2.915 E0.05 F1200
G1 X2.916 Y2.916 E0.05 F1200
G1 X2.917 Y2.917 E0.05 F1200
G1 X2.918 Y2.918 E0.05 F1200
G1 X2.919 Y2.919 E0.05 F1200
G1 X2.92 Y2.92 E0.05 F1200
G1 X2.9210000000000003 Y2.9210000000000003 E0.05 F1200
G1 X2.922 Y2.922 E0.05 F1200
G1 X2.923 Y2.923 E0.05 F1200
G1 X2.924 Y2.924 E0.05 F1200
G1 X2.925 Y2.925 E0.05 F1200
G1 X2.926 Y2.926 E0.05 F1200
G1 X2.927 Y2.927 E0.05 F1200
G1 X2.928 Y2.928 E0.05 F1200
G1 X2.9290000000000003 Y2.9290000000000003 E0.05 F1200
G1 X2.93 Y2.93 E0.05 F1200
G1 X2.931 Y2.931 E0.05 F1200
G1 X2.932 Y2.932 E0.05 F1200
G1 X2.933 Y2.933 E0.05 F1200
G1 X2.934 Y2.934 E0.05 F1200
G1 X2.935 Y2.935 E0.05 F1200
G1 X2.936 Y2.936 E0.05 F1200
G1 X2.9370000000000003 Y2.9370000000000003 E0.05 F1200
G1 X2.9379999999999997 Y2.9379999999999997 E0.05 F1200
G1 X2.939 Y2.939 E0.05 F1200
G1 X2.94 Y2.94 E0.05 F1200
G1 X2.941 Y2.941 E0.05 F1200
G1 X2.942 Y2.942 E0.05 F1200
G1 X2.943 Y2.943 E0.05 F1200
G1 X2.944 Y2.944 E0.05 F1200
G1 X2.945 Y2.945 E0.05 F1200
G1 X2.9459999999999997 Y2.9459999999999997 E0.05 F1200
G1 X2.947 Y2.947 E0.05 F1200
G1 X2.948 Y2.948 E0.05 F1200
G1 X2.949 Y2.949 E0.05 F1200
G1 X2.95 Y2.95 E0.05 F1200
G1 X2.951 Y2.951 E0.05 F1200
G1 X2.952 Y2.952 E0.05 F1200
G1 X2.953 Y2.953 E0.05 F1200
G1 X2.9539999999999997 Y2.9539999999999997 E0.05 F1200
G1 X2.955 Y2.955 E0.05 F1200
G1 X2.956 Y2.956 E0.05 F1200
G1 X2.957 Y2.957 E0.05 F1200
G1 X2.958 Y2.958 E0.05 F1200
G1 X2.959 Y2.959 E0.05 F1200
G1 X2.96 Y2.96 E0.05 F1200
G1 X2.961 Y2.961 E0.05 F1200
G1 X2.9619999999999997 Y2.9619999999999997 E0.05 F1200
G1 X2.963 Y2.963 E0.05 F1200
G1 X2.964 Y2.964 E0.05 F1200
G1 X2.965 Y2.965 E0.05 F1200
G1 X2.966 Y2.966 E0.05 F1200
G1 X2.967 Y2.967 E0.05 F1200
G1 X2.968 Y2.968 E0.05 F1200
G1 X2.969 Y2.969 E0.05 F1200
G1 X2.9699999999999998 Y2.9699999999999998 E0.05 F1200
G1 X2.971 Y2.971 E0.05 F1200
G1 X2.972 Y2.972 E0.05 F1200
G1 X2.973 Y2.973 E0.05 F1200
G1 X2.974 Y2.974 E0.05 F1200
G1 X2.975 Y2.975 E0.05 F1200
G1 X2.976 Y2.976 E0.05 F1200
G1 X2.977 Y2.977 E0.05 F1200
G1 X2.9779999999999998 Y2.9779999999999998 E0.05 F1200
G1 X2.979 Y2.979 E0.05 F1200
G1 X2.98 Y2.98 E0.05 F1200
G1 X2.981 Y2.981 E0.05 F1200
G1 X2.982 Y2.982 E0.05 F1200
G1 X2.983 Y2.983 E0.05 F1200
G1 X2.984 Y2.984 E0.05 F1200
G1 X2.985 Y2.985 E0.05 F1200
G1 X2.9859999999999998 Y2.9859999999999998 E0.05 F1200
G1 X2.987 Y2.987 E0.05 F1200
G1 X2.988 Y2.988 E0.05 F1200
G1 X2.989 Y2.989 E0.05 F1200
G1 X2.99 Y2.99 E0.05 F1200
G1 X2.991 Y2.991 E0.05 F1200
G1 X2.992 Y2.992 E0.05 F1200
G1 X2.993 Y2.993 E0.05 F1200
G1 X2.9939999999999998 Y2.9939999999999998 E0.05 F1200
G1 X2.995 Y2.995 E0.05 F1200
G1 X2.996 Y2.996 E0.05 F1200
G1 X2.997 Y2.997 E0.05 F1200
G1 X2.998 Y2.998 E0.05 F1200
G1 X2.999 Y2.999 E0.05 F1200
; LAYER:3
G0 X3 Y3 Z0.6000000000000001
G1 X3.0 Y3.0 E0.05 F1200
G1 X3.001 Y3.001 E0.05 F1200
G1 X3.002 Y3.002 E0.05 F1200
G1 X3.003 Y3.003 E0.05 F1200
G1 X3.004 Y3.004 E0.05 F1200
G1 X3.005 Y3.005 E0.05 F1200
G1 X3.006 Y3.006 E0.05 F1200
G1 X3.007 Y3.007 E0.05 F1200
G1 X3.008 Y3.008 E0.05 F1200
G1 X3.009 Y3.009 E0.05 F1200
G1 X3.01 Y3.01 E0.05 F1200
G1 X3.011 Y3.011 E0.05 F1200
G1 X3.012 Y3.012 E0.05 F1200
G1 X3.013 Y3.013 E0.05 F1200
G1 X3.014 Y3.014 E0.05 F1200
G1 X3.015 Y3.015 E0.05 F1200
G1 X3.016 Y3.016 E0.05 F1200
G1 X3.017 Y3.017 E0.05 F1200
G1 X3.018 Y3.018 E0.05 F1200
G1 X3.019 Y3.019 E0.05 F1200
G1 X3.02 Y3.02 E0.05 F1200
G1 X3.021 Y3.021 E0.05 F1200
G1 X3.022 Y3.022 E0.05 F1200
G1 X3.023 Y3.023 E0.05 F1200
G1 X3.024 Y3.024 E0.05 F1200
G1 X3.025 Y3.025 E0.05 F1200
G1 X3.026 Y3.026 E0.05 F1200
G1 X3.027 Y3.027 E0.05 F1200
G1 X3.028 Y3.028 E0.05 F1200
G1 X3.029 Y3.029 E0.05 F1200
G1 X3.03 Y3.03 E0.05 F1200
G1 X3.031 Y3.031 E0.05 F1200
G1 X3.032 Y3.032 E0.05 F1200
G1 X3.033 Y3.033 E0.05 F1200
G1 X3.034 Y3.034 E0.05 F1200
G1 X3.035 Y3.035 E0.05 F1200
G1 X3.036 Y3.036 E0.05 F1200
G1 X3.037 Y3.037 E0.05 F1200
G1 X3.038 Y3.038 E0.05 F1200
G1 X3.039 Y3.039 E0.05 F1200
G1 X3.04 Y3.04 E0.05 F1200
G1 X3.041 Y3.041 E0.05 F1200
G1 X3.042 Y3.042 E0.05 F1200
G1 X3.043 Y3.043 E0.05 F1200
G1 X3.044 Y3.044 E0.05 F1200
G1 X3.045 Y3.045 E0.05 F1200
G1 X3.046 Y3.046 E0.05 F1200
G1 X3.047 Y3.047 E0.05 F1200
G1 X3.048 Y3.048 E0.05 F1200
G1 X3.049 Y3.049 E0.05 F1200
G1 X3.05 Y3.05 E0.05 F1200
G1 X3.051 Y3.051 E0.05 F1200
G1 X3.052 Y3.052 E0.05 F1200
G1 X3.053 Y3.053 E0.05 F1200
G1 X3.054 Y3.054 E0.05 F1200
G1 X3.055 Y3.055 E0.05 F1200
G1 X3.056 Y3.056 E0.05 F1200
G1 X3.057 Y3.057 E0.05 F1200
G1 X3.058 Y3.058 E0.05 F1200
G1 X3.059 Y3.059 E0.05 F1200
G1 X3.06 Y3.06 E0.05 F1200
G1 X3.061 Y3.061 E0.05 F1200
G1 X3.062 Y3.062 E0.05 F1200
G1 X3.063 Y3.063 E0.05 F1200
G1 X3.064 Y3.064 E0.05 F1200
G1 X3.065 Y3.065 E0.05 F1200
G1 X3.066 Y3.066 E0.05 F1200
G1 X3.067 Y3.067 E0.05 F1200
G1 X3.068 Y3.068 E0.05 F1200
G1 X3.069 Y3.069 E0.05 F1200
G1 X3.07 Y3.07 E0.05 F1200
G1 X3.071 Y3.071 E0.05 F1200
G1 X3.072 Y3.072 E0.05 F1200
G1 X3.073 Y3.073 E0.05 F1200
G1 X3.074 Y3.074 E0.05 F1200
G1 X3.075 Y3.075 E0.05 F1200
G1 X3.076 Y3.076 E0.05 F1200
G1 X3.077 Y3.077 E0.05 F1200
G1 X3.078 Y3.078 E0.05 F1200
G1 X3.079 Y3.079 E0.05 F1200
G1 X3.08 Y3.08 E0.05 F1200
G1 X3.081 Y3.081 E0.05 F1200
G1 X3.082 Y3.082 E0.05 F1200
G1 X3.083 Y3.083 E0.05 F1200
G1 X3.084 Y3.084 E0.05 F1200
G1 X3.085 Y3.085 E0.05 F1200
G1 X3.086 Y3.086 E0.05 F1200
G1 X3.087 Y3.087 E0.05 F1200
G1 X3.088 Y3.088 E0.05 F1200
G1 X3.089 Y3.089 E0.05 F1200
G1 X3.09 Y3.09 E0.05 F1200
G1 X3.091 Y3.091 E0.05 F1200
G1 X3.092 Y3.092 E0.05 F1200
G1 X3.093 Y3.093 E0.05 F1200
G1 X3.094 Y3.094 E0.05 F1200
G1 X3.095 Y3.095 E0.05 F1200
G1 X3.096 Y3.096 E0.05 F1200
G1 X3.097 Y3.097 E0.05 F1200
G1 X3.098 Y3.098 E0.05 F1200
G1 X3.099 Y3.099 E0.05 F1200
G1 X3.1 Y3.1 E0.05 F1200
G1 X3.101 Y3.101 E0.05 F1200
G1 X3.102 Y3.102 E0.05 F1200
G1 X3.103 Y3.103 E0.05 F1200
G1 X3.104 Y3.104 E0.05 F1200
G1 X3.105 Y3.105 E0.05 F1200
G1 X3.106 Y3.106 E0.05 F1200
G1 X3.107 Y3.107 E0.05 F1200
G1 X3.108 Y3.108 E0.05 F1200
G1 X3.109 Y3.109 E0.05 F1200
G1 X3.11 Y3.11 E0.05 F1200
G1 X3.111 Y3.111 E0.05 F1200
G1 X3.112 Y3.112 E0.05 F1200
G1 X3.113 Y3.113 E0.05 F1200
G1 X3.114 Y3.114 E0.05 F1200
G1 X3.115 Y3.115 E0.05 F1200
G1 X3.116 Y3.116 E0.05 F1200
G1 X3.117 Y3.117 E0.05 F1200
G1 X3.118 Y3.118 E0.05 F1200
G1 X3.1189999999999998 Y3.1189999999999998 E0.05 F1200
G1 X3.12 Y3.12 E0.05 F1200
G1 X3.121 Y3.121 E0.05 F1200
G1 X3.122 Y3.122 E0.05 F1200
G1 X3.123 Y3.123 E0.05 F1200
G1 X3.124 Y3.124 E0.05 F1200
G1 X3.125 Y3.125 E0.05 F1200
G1 X3.126 Y3.126 E0.05 F1200
G1 X3.127 Y3.127 E0.05 F1200
G1 X3.128 Y3.128 E0.05 F1200
G1 X3.129 Y3.129 E0.05 F1200
G1 X3.13 Y3.13 E0.05 F1200
G1 X3.1310000000000002 Y3.1310000000000002 E0.05 F1200
G1 X3.132 Y3.132 E0.05 F1200
G1 X3.133 Y3.133 E0.05 F1200
G1 X3.134 Y3.134 E0.05 F1200
G1 X3.135 Y3.135 E0.05 F1200
G1 X3.136 Y3.136 E0.05 F1200
G1 X3.137 Y3.137 E0.05 F1200
G1 X3.138 Y3.138 E0.05 F1200
G1 X3.1390000000000002 Y3.1390000000000002 E0.05 F1200
G1 X3.14 Y3.14 E0.05 F1200
G1 X3.141 Y3.141 E0.05 F1200
G1 X3.142 Y3.142 E0.05 F1200
G1 X3.143 Y3.143 E0.05 F1200
G1 X3.144 Y3.144 E0.05 F1200
G1 X3.145 Y3.145 E0.05 F1200
G1 X3.146 Y3.146 E0.05 F1200
G1 X3.147 Y3.147 E0.05 F1200
G1 X3.148 Y3.148 E0.05 F1200
G1 X3.149 Y3.149 E0.05 F1200
G1 X3.15 Y3.15 E0.05 F1200
G1 X3.151 Y3.151 E0.05 F1200
G1 X3.152 Y3.152 E0.05 F1200
G1 X3.153 Y3.153 E0.05 F1200
G1 X3.154 Y3.154 E0.05 F1200
G1 X3.155 Y3.155 E0.05 F1200
G1 X3.156 Y3.156 E0.05 F1200
G1 X3.157 Y3.157 E0.05 F1200
G1 X3.158 Y3.158 E0.05 F1200
G1 X3.159 Y3.159 E0.05 F1200
G1 X3.16 Y3.16 E0.05 F1200
G1 X3.161 Y3.161 E0.05 F1200
G1 X3.162 Y3.162 E0.05 F1200
G1 X3.163 Y3.163 E0.05 F1200
G1 X3.164 Y3.164 E0.05 F1200
G1 X3.165 Y3.165 E0.05 F1200
G1 X3.166 Y3.166 E0.05 F1200
G1 X3.167 Y3.167 E0.05 F1200
G1 X3.168 Y3.168 E0.05 F1200
G1 X3.169 Y3.169 E0.05 F1200
G1 X3.17 Y3.17 E0.05 F1200
G1 X3.171 Y3.171 E0.05 F1200
G1 X3.172 Y3.172 E0.05 F1200
G1 X3.173 Y3.173 E0.05 F1200
G1 X3.174 Y3.174 E0.05 F1200
G1 X3.175 Y3.175 E0.05 F1200
G1 X3.176 Y3.176 E0.05 F1200
G1 X3.177 Y3.177 E0.05 F1200
G1 X3.178 Y3.178 E0.05 F1200
G1 X3.179 Y3.179 E0.05 F1200
G1 X3.18 Y3.18 E0.05 F1200
G1 X3.181 Y3.181 E0.05 F1200
G1 X3.182 Y3.182 E0.05 F1200
G1 X3.183 Y3.183 E0.05 F1200
G1 X3.184 Y3.184 E0.05 F1200
G1 X3.185 Y3.185 E0.05 F1200
G1 X3.186 Y3.186 E0.05 F1200
G1 X3.187 Y3.187 E0.05 F1200
G1 X3.188 Y3.188 E0.05 F1200
G1 X3.189 Y3.189 E0.05 F1200
G1 X3.19 Y3.19 E0.05 F1200
G1 X3.191 Y3.191 E0.05 F1200
G1 X3.192 Y3.192 E0.05 F1200
G1 X3.193 Y3.193 E0.05 F1200
G1 X3.194 Y3.194 E0.05 F1200
G1 X3.195 Y3.195 E0.05 F1200
G1 X3.196 Y3.196 E0.05 F1200
G1 X3.197 Y3.197 E0.05 F1200
G1 X3.198 Y3.198 E0.05 F1200
G1 X3.199 Y3.199 E0.05 F1200
G1 X3.2 Y3.2 E0.05 F1200
G1 X3.201 Y3.201 E0.05 F1200
G1 X3.202 Y3.202 E0.05 F1200
G1 X3.203 Y3.203 E0.05 F1200
G1 X3.204 Y3.204 E0.05 F1200
G1 X3.205 Y3.205 E0.05 F1200
G1 X3.206 Y3.206 E0.05 F1200
G1 X3.207 Y3.207 E0.05 F1200
G1 X3.208 Y3.208 E0.05 F1200
G1 X3.209 Y3.209 E0.05 F1200
G1 X3.21 Y3.21 E0.05 F1200
G1 X3.211 Y3.211 E0.05 F1200
G1 X3.212 Y3.212 E0.05 F1200
G1 X3.213 Y3.213 E0.05 F1200
G1 X3.214 Y3.214 E0.05 F1200
G1 X3.215 Y3.215 E0.05 F1200
G1 X3.216 Y3.216 E0.05 F1200
G1 X3.217 Y3.217 E0.05 F1200
G1 X3.218 Y3.218 E0.05 F1200
G1 X3.219 Y3.219 E0.05 F1200
G1 X3.22 Y3.22 E0.05 F1200
G1 X3.221 Y3.221 E0.05 F1200
G1 X3.222 Y3.222 E0.05 F1200
G1 X3.223 Y3.223 E0.05 F1200
G1 X3.224 Y3.224 E0.05 F1200
G1 X3.225 Y3.225 E0.05 F1200
G1 X3.226 Y3.226 E0.05 F1200
G1 X3.227 Y3.227 E0.05 F1200
G1 X3.228 Y3.228 E0.05 F1200
G1 X3.229 Y3.229 E0.05 F1200
G1 X3.23 Y3.23 E0.05 F1200
G1 X3.231 Y3.231 E0.05 F1200
G1 X3.232 Y3.232 E0.05 F1200
G1 X3.233 Y3.233 E0.05 F1200
G1 X3.234 Y3.234 E0.05 F1200
G1 X3.235 Y3.235 E0.05 F1200
G1 X3.2359999999999998 Y3.2359999999999998 E0.05 F1200
G1 X3.237 Y3.237 E0.05 F1200
G1 X3.238 Y3.238 E0.05 F1200
G1 X3.239 Y3.239 E0.05 F1200
G1 X3.24 Y3.24 E0.05 F1200
