;TYPE:Header
;Machine: Large Pellet Printer
;Material: PEEK
G28
M82
G90
M104 S410
M140 S180
M109 S410
M190 S180
;LAYER:0
G1 Z3.000 F2000
;TYPE:Perimeter
G1 X50.0 Y50.0 F4000
G1 X100.0 Y50.0 E47.750 F3000
G1 X150.0 Y100.0 E115.279
G1 X100.0 Y100.0 E163.029
G1 X100.0 Y150.0 E210.779
G1 X50.0 Y150.0 E258.529
G1 X50.0 Y50.0 E354.029
G1 X160.0 Y160.0 F4000
;TYPE:InnerFeature
G3 X200.0 Y160.0 I20.0 J0.0 E384.032 F2000
G3 X160.0 Y160.0 I-20.0 J0.0 E414.034
;TYPE:Infill
G1 X55.0 Y55.0 F4000
G1 X55.0 Y95.0 E452.234 F3500
G1 X60.0 Y95.0 E461.784
G1 X60.0 Y55.0 E500.034
G1 X65.0 Y55.0 F4000
G1 X65.0 Y95.0 E538.234 F3500
G1 X70.0 Y95.0 E547.784
G1 X70.0 Y55.0 E586.034
G1 X75.0 Y55.0 F4000
G1 X75.0 Y95.0 E624.234 F3500
G1 X80.0 Y95.0 E633.784
G1 X80.0 Y55.0 E672.034
G1 X85.0 Y55.0 F4000
G1 X85.0 Y95.0 E710.234 F3500
G1 X90.0 Y95.0 E719.784
G1 X90.0 Y55.0 E758.034
G1 X95.0 Y55.0 F4000
G1 X95.0 Y95.0 E796.234 F3500
G1 X100.0 Y95.0 E805.784
G1 X100.0 Y55.0 E844.034
;LAYER:1
G1 Z6.000 F2000
;TYPE:Perimeter
G1 X50.0 Y50.0 F4000
G1 X100.0 Y50.0 E891.784 F3000
G1 X150.0 Y100.0 E959.314
G1 X100.0 Y100.0 E1007.064
G1 X100.0 Y150.0 E1054.814
G1 X50.0 Y150.0 E1102.564
G1 X50.0 Y50.0 E1198.064
G1 X160.0 Y160.0 F4000
;TYPE:InnerFeature
G3 X200.0 Y160.0 I20.0 J0.0 E1228.066 F2000
G3 X160.0 Y160.0 I-20.0 J0.0 E1258.068
;TYPE:Infill
G1 X55.0 Y55.0 F4000
G1 X55.0 Y95.0 E1296.268 F3500
G1 X60.0 Y95.0 E1305.818
G1 X60.0 Y55.0 E1344.068
G1 X65.0 Y55.0 F4000
G1 X65.0 Y95.0 E1382.268 F3500
G1 X70.0 Y95.0 E1391.818
G1 X70.0 Y55.0 E1430.068
G1 X75.0 Y55.0 F4000
G1 X75.0 Y95.0 E1468.268 F3500
G1 X80.0 Y95.0 E1477.818
G1 X80.0 Y55.0 E1516.068
G1 X85.0 Y55.0 F4000
G1 X85.0 Y95.0 E1554.268 F3500
G1 X90.0 Y95.0 E1563.818
G1 X90.0 Y55.0 E1602.068
G1 X95.0 Y55.0 F4000
G1 X95.0 Y95.0 E1640.268 F3500
G1 X100.0 Y95.0 E1649.818
G1 X100.0 Y55.0 E1688.068
;LAYER:2
G1 Z9.000 F2000
;TYPE:Perimeter
G1 X50.0 Y50.0 F4000
G1 X100.0 Y50.0 E1735.818 F3000
G1 X150.0 Y100.0 E1803.348
G1 X100.0 Y100.0 E1851.098
G1 X100.0 Y150.0 E1898.848
G1 X50.0 Y150.0 E1946.598
G1 X50.0 Y50.0 E2042.098
G1 X160.0 Y160.0 F4000
;TYPE:InnerFeature
G3 X200.0 Y160.0 I20.0 J0.0 E2072.100 F2000
G3 X160.0 Y160.0 I-20.0 J0.0 E2102.103
;TYPE:Infill
G1 X55.0 Y55.0 F4000
G1 X55.0 Y95.0 E2140.303 F3500
G1 X60.0 Y95.0 E2149.853
G1 X60.0 Y55.0 E2188.103
G1 X65.0 Y55.0 F4000
G1 X65.0 Y95.0 E2226.303 F3500
G1 X70.0 Y95.0 E2235.853
G1 X70.0 Y55.0 E2274.103
G1 X75.0 Y55.0 F4000
G1 X75.0 Y95.0 E2312.303 F3500
G1 X80.0 Y95.0 E2321.853
G1 X80.0 Y55.0 E2360.103
G1 X85.0 Y55.0 F4000
G1 X85.0 Y95.0 E2398.303 F3500
G1 X90.0 Y95.0 E2407.853
G1 X90.0 Y55.0 E2446.103
G1 X95.0 Y55.0 F4000
G1 X95.0 Y95.0 E2484.303 F3500
G1 X100.0 Y95.0 E2493.853
G1 X100.0 Y55.0 E2532.103
;LAYER:3
G1 Z12.000 F2000
;TYPE:Perimeter
G1 X50.0 Y50.0 F4000
G1 X100.0 Y50.0 E2579.853 F3000
G1 X150.0 Y100.0 E2647.382
G1 X100.0 Y100.0 E2695.132
G1 X100.0 Y150.0 E2742.882
G1 X50.0 Y150.0 E2790.632
G1 X50.0 Y50.0 E2886.132
G1 X160.0 Y160.0 F4000
;TYPE:InnerFeature
G3 X200.0 Y160.0 I20.0 J0.0 E2916.135 F2000
G3 X160.0 Y160.0 I-20.0 J0.0 E2946.137
;TYPE:Infill
G1 X55.0 Y55.0 F4000
G1 X55.0 Y95.0 E2984.337 F3500
G1 X60.0 Y95.0 E2993.887
G1 X60.0 Y55.0 E3032.137
G1 X65.0 Y55.0 F4000
G1 X65.0 Y95.0 E3070.337 F3500
G1 X70.0 Y95.0 E3079.887
G1 X70.0 Y55.0 E3118.137
G1 X75.0 Y55.0 F4000
G1 X75.0 Y95.0 E3156.337 F3500
G1 X80.0 Y95.0 E3165.887
G1 X80.0 Y55.0 E3204.137
G1 X85.0 Y55.0 F4000
G1 X85.0 Y95.0 E3242.337 F3500
G1 X90.0 Y95.0 E3251.887
G1 X90.0 Y55.0 E3290.137
G1 X95.0 Y55.0 F4000
G1 X95.0 Y95.0 E3328.337 F3500
G1 X100.0 Y95.0 E3337.887
G1 X100.0 Y55.0 E3376.137
M104 S0
M140 S0
G28
