;TYPE:Header
;Machine: Generic LFAM
;Material: PETG
G28
M82
G90
M104 S245
M140 S85
M109 S245
M190 S85
;LAYER:0
G1 Z2.000 F2500
;TYPE:Perimeter
G1 X150.0 Y100.0 F3000
G3 X100.0 Y150.0 I-50.0 J0.0 E75.005 F2500
G3 X50.0 Y100.0 I0.0 J-50.0 E150.011
G3 X100.0 Y50.0 I50.0 J0.0 E225.016
G3 X150.0 Y100.0 I0.0 J50.0 E300.022
G1 X160.0 Y100.0 F3000
G2 X160.0 Y80.0 I0.0 J-10.0 E330.024 F1500
;LAYER:1
G1 Z4.000 F2500
;TYPE:Perimeter
G1 X150.0 Y100.0 F3000
G3 X100.0 Y150.0 I-50.0 J0.0 E405.029 F2500
G3 X50.0 Y100.0 I0.0 J-50.0 E480.034
G3 X100.0 Y50.0 I50.0 J0.0 E555.040
G3 X150.0 Y100.0 I0.0 J50.0 E630.045
G1 X160.0 Y100.0 F3000
G2 X160.0 Y80.0 I0.0 J-10.0 E660.047 F1500
;LAYER:2
G1 Z6.000 F2500
;TYPE:Perimeter
G1 X150.0 Y100.0 F3000
G3 X100.0 Y150.0 I-50.0 J0.0 E735.053 F2500
G3 X50.0 Y100.0 I0.0 J-50.0 E810.058
G3 X100.0 Y50.0 I50.0 J0.0 E885.063
G3 X150.0 Y100.0 I0.0 J50.0 E960.069
G1 X160.0 Y100.0 F3000
G2 X160.0 Y80.0 I0.0 J-10.0 E990.071 F1500
M104 S0
M140 S0
G28
