;TYPE:Header
;Machine: Generic LFAM
;Material: ABS
G28
M82
G90
M104 S240
M140 S100
M109 S240
M190 S100
;LAYER:0
G1 Z2.000 F2000
;TYPE:Perimeter
G1 X100.0 Y100.0 F3000
G1 X200.0 Y100.0 E95.500 F2000
G1 X200.0 Y200.0 E191.000
G1 X100.0 Y200.0 E286.500
G1 X100.0 Y100.0 E382.000
;TYPE:Infill
G1 X100.0 Y110.0 F3000
G1 X200.0 Y110.0 E477.500 F2000
G1 X100.0 Y120.0 F3000
G1 X200.0 Y120.0 E573.000 F2000
G1 X100.0 Y130.0 F3000
G1 X200.0 Y130.0 E668.500 F2000
G1 X100.0 Y140.0 F3000
G1 X200.0 Y140.0 E764.000 F2000
G1 X100.0 Y150.0 F3000
G1 X200.0 Y150.0 E859.500 F2000
G1 X100.0 Y160.0 F3000
G1 X200.0 Y160.0 E955.000 F2000
G1 X100.0 Y170.0 F3000
G1 X200.0 Y170.0 E1050.500 F2000
G1 X100.0 Y180.0 F3000
G1 X200.0 Y180.0 E1146.000 F2000
G1 X100.0 Y190.0 F3000
G1 X200.0 Y190.0 E1241.500 F2000
;LAYER:1
G1 Z4.000 F2000
;TYPE:Perimeter
G1 X100.0 Y100.0 F3000
G1 X200.0 Y100.0 E1337.000 F2000
G1 X200.0 Y200.0 E1432.500
G1 X100.0 Y200.0 E1528.000
G1 X100.0 Y100.0 E1623.500
;TYPE:Infill
G1 X100.0 Y110.0 F3000
G1 X200.0 Y110.0 E1719.000 F2000
G1 X100.0 Y120.0 F3000
G1 X200.0 Y120.0 E1814.500 F2000
G1 X100.0 Y130.0 F3000
G1 X200.0 Y130.0 E1910.000 F2000
G1 X100.0 Y140.0 F3000
G1 X200.0 Y140.0 E2005.500 F2000
G1 X100.0 Y150.0 F3000
G1 X200.0 Y150.0 E2101.000 F2000
G1 X100.0 Y160.0 F3000
G1 X200.0 Y160.0 E2196.500 F2000
G1 X100.0 Y170.0 F3000
G1 X200.0 Y170.0 E2292.000 F2000
G1 X100.0 Y180.0 F3000
G1 X200.0 Y180.0 E2387.500 F2000
G1 X100.0 Y190.0 F3000
G1 X200.0 Y190.0 E2483.000 F2000
;LAYER:2
G1 Z6.000 F2000
;TYPE:Perimeter
G1 X100.0 Y100.0 F3000
G1 X200.0 Y100.0 E2578.500 F2000
G1 X200.0 Y200.0 E2674.000
G1 X100.0 Y200.0 E2769.500
G1 X100.0 Y100.0 E2865.000
;TYPE:Infill
G1 X100.0 Y110.0 F3000
G1 X200.0 Y110.0 E2960.500 F2000
G1 X100.0 Y120.0 F3000
G1 X200.0 Y120.0 E3056.000 F2000
G1 X100.0 Y130.0 F3000
G1 X200.0 Y130.0 E3151.500 F2000
G1 X100.0 Y140.0 F3000
G1 X200.0 Y140.0 E3247.000 F2000
G1 X100.0 Y150.0 F3000
G1 X200.0 Y150.0 E3342.500 F2000
G1 X100.0 Y160.0 F3000
G1 X200.0 Y160.0 E3438.000 F2000
G1 X100.0 Y170.0 F3000
G1 X200.0 Y170.0 E3533.500 F2000
G1 X100.0 Y180.0 F3000
G1 X200.0 Y180.0 E3629.000 F2000
G1 X100.0 Y190.0 F3000
G1 X200.0 Y190.0 E3724.500 F2000
M104 S0
M140 S0
G28
